luts_externos/iwltbap/free-named-looks/IWLTBAP Sedona - V-Log.cube
# Copyright: (C) Copyright 2010-2017 by IWLTBAP SAS
# Cannot be resold, shared or otherwise redistributed
# Website: https://luts.iwltbap.com
TITLE "IWLTBAP Sedona (V-Log)"
LUT_3D_SIZE 33
0.000000 0.000000 0.011780
0.000000 0.000000 0.011780
0.000000 0.000000 0.011780
0.000000 0.000000 0.011780
0.000000 0.000000 0.011780
0.006622 0.000000 0.008453
0.025238 0.000000 0.007843
0.051483 0.000000 0.007843
0.092163 0.000000 0.007843
0.138489 0.000000 0.007843
0.182098 0.002686 0.007843
0.224640 0.010406 0.007843
0.263245 0.018127 0.007843
0.301849 0.023529 0.007843
0.340454 0.029663 0.007843
0.379059 0.041290 0.011780
0.421570 0.050995 0.011780
0.465942 0.060669 0.013611
0.508331 0.068390 0.017395
0.554657 0.080017 0.021210
0.599518 0.086273 0.024994
0.642029 0.090210 0.032715
0.684570 0.091431 0.040436
0.732117 0.101349 0.048157
0.774506 0.117645 0.056854
0.780396 0.114594 0.062744
0.784302 0.117645 0.062744
0.788239 0.121582 0.062744
0.788727 0.125488 0.062744
0.792145 0.125488 0.062744
0.796082 0.129425 0.062744
0.799988 0.133331 0.062744
0.799988 0.137268 0.062744
0.000000 0.000000 0.011780
0.000000 0.000000 0.011780
0.000000 0.000000 0.011780
0.000000 0.000000 0.011780
0.000000 0.000000 0.011780
0.003296 0.000000 0.011780
0.022064 0.000000 0.007843
0.047668 0.000000 0.007843
0.084442 0.000000 0.007843
0.131744 0.000000 0.007843
0.177094 0.003937 0.007843
0.219482 0.010406 0.007843
0.259430 0.018127 0.007843
0.300354 0.025848 0.007843
0.336639 0.033569 0.007843
0.379059 0.041290 0.011780
0.419739 0.052826 0.011780
0.464081 0.062500 0.013611
0.508331 0.072174 0.017395
0.554657 0.081604 0.021210
0.600983 0.090088 0.024994
0.645844 0.095459 0.031372
0.685791 0.095337 0.036530
0.735901 0.109070 0.048157
0.777313 0.125366 0.056854
0.784180 0.121460 0.062744
0.785034 0.125366 0.062744
0.788849 0.129303 0.062744
0.792145 0.129791 0.062744
0.795959 0.133209 0.062744
0.799866 0.137146 0.062744
0.800110 0.141052 0.062744
0.803925 0.144989 0.062744
0.000000 0.000000 0.011780
0.000000 0.000000 0.011780
0.000000 0.000000 0.011780
0.000000 0.000000 0.011780
0.000000 0.000000 0.011780
0.003296 0.000000 0.011780
0.018127 0.000000 0.007843
0.043884 0.000000 0.007843
0.080627 0.000000 0.007843
0.126953 0.000000 0.007843
0.173279 0.003937 0.007843
0.213104 0.010406 0.007843
0.255402 0.018127 0.007843
0.296570 0.025848 0.007843
0.336517 0.033569 0.007843
0.375122 0.044983 0.011780
0.419617 0.054901 0.011780
0.462250 0.064575 0.013611
0.508331 0.075989 0.017395
0.556244 0.083954 0.021210
0.603180 0.093872 0.024994
0.647308 0.099396 0.031372
0.689697 0.102936 0.036530
0.739716 0.115692 0.048157
0.778442 0.133087 0.055878
0.785187 0.129181 0.062744
0.788971 0.133087 0.062744
0.792145 0.133698 0.062744
0.795837 0.137512 0.062744
0.799744 0.140930 0.062744
0.800232 0.144867 0.062744
0.804047 0.148773 0.062744
0.807831 0.152710 0.062744
0.000000 0.000000 0.011780
0.000000 0.000000 0.011780
0.000000 0.000000 0.011780
0.000000 0.000000 0.011780
0.000000 0.000000 0.011780
0.003296 0.000000 0.011780
0.014221 0.000000 0.007843
0.040558 0.000000 0.007843
0.076843 0.000000 0.007843
0.123169 0.000000 0.007843
0.169495 0.003937 0.007843
0.209320 0.010406 0.007843
0.251465 0.020599 0.007843
0.292755 0.028198 0.007843
0.332611 0.037506 0.007843
0.373657 0.047302 0.011780
0.417633 0.056854 0.011780
0.462006 0.068146 0.013611
0.508331 0.077942 0.017395
0.558197 0.087494 0.021210
0.604889 0.095581 0.024994
0.649506 0.103302 0.028809
0.693268 0.110657 0.036530
0.743500 0.126953 0.045349
0.784912 0.143372 0.055878
0.789093 0.136902 0.062744
0.792145 0.140808 0.062744
0.795715 0.141418 0.062744
0.799622 0.145233 0.062744
0.800354 0.148651 0.062744
0.803925 0.152588 0.062744
0.807831 0.156494 0.062744
0.811401 0.160431 0.062744
0.000000 0.000000 0.011780
0.000000 0.000000 0.011780
0.000000 0.000000 0.011780
0.000000 0.000000 0.011780
0.000000 0.000000 0.011780
0.003296 0.000000 0.011780
0.018127 0.000000 0.008331
0.046692 0.000000 0.007843
0.083832 0.000000 0.007843
0.129669 0.000000 0.007843
0.173279 0.006622 0.007843
0.215820 0.013855 0.007843
0.257355 0.022064 0.007843
0.296936 0.029785 0.007843
0.336029 0.037506 0.007843
0.374634 0.048645 0.010406
0.419617 0.060303 0.011780
0.465942 0.071930 0.013611
0.512268 0.081848 0.015686
0.560181 0.091309 0.019623
0.608337 0.100983 0.023529
0.651215 0.110657 0.028809
0.697540 0.117157 0.036530
0.747314 0.135040 0.045349
0.786285 0.151459 0.055878
0.792145 0.144623 0.062744
0.795593 0.148529 0.062744
0.799500 0.149139 0.062744
0.800476 0.152954 0.062744
0.804291 0.156372 0.062744
0.807831 0.160309 0.062744
0.811279 0.160431 0.062744
0.811768 0.164215 0.062744
0.000000 0.000000 0.015076
0.000000 0.000000 0.015076
0.000000 0.000000 0.015076
0.000000 0.000000 0.015076
0.000000 0.000000 0.011780
0.003296 0.000000 0.011780
0.014954 0.000000 0.011780
0.043396 0.000000 0.007843
0.085907 0.000000 0.007843
0.131256 0.002808 0.007843
0.170959 0.006622 0.007843
0.218628 0.014343 0.007843
0.261780 0.022064 0.007843
0.301849 0.029785 0.007843
0.340454 0.039703 0.007843
0.381134 0.051239 0.007843
0.423523 0.062744 0.011780
0.469238 0.075745 0.011780
0.515564 0.085785 0.015686
0.564087 0.095703 0.019623
0.612122 0.106750 0.023529
0.655151 0.114471 0.028809
0.701477 0.122192 0.036530
0.751099 0.139954 0.044250
0.790192 0.156860 0.055878
0.796082 0.152313 0.062744
0.799377 0.156250 0.062744
0.800598 0.156860 0.062744
0.804413 0.160187 0.062744
0.807831 0.164093 0.062378
0.811157 0.168030 0.059448
0.811890 0.168030 0.059448
0.815674 0.171936 0.058838
0.000000 0.000000 0.018860
0.000000 0.000000 0.018860
0.000000 0.000000 0.018860
0.000000 0.000000 0.018860
0.000000 0.000000 0.015686
0.000000 0.000000 0.015686
0.011017 0.000000 0.011780
0.035797 0.000000 0.007965
0.074005 0.000000 0.007843
0.119598 0.003174 0.007843
0.165924 0.010529 0.007843
0.212250 0.017517 0.007843
0.258575 0.025970 0.007843
0.300995 0.033691 0.007843
0.343384 0.041412 0.007843
0.386139 0.052338 0.007843
0.428680 0.064697 0.009796
0.473053 0.078186 0.011780
0.519348 0.091187 0.014221
0.569611 0.101227 0.017273
0.615936 0.110535 0.021088
0.660919 0.118988 0.027466
0.704651 0.127930 0.033325
0.754913 0.147675 0.044250
0.794128 0.163971 0.053680
0.799255 0.160034 0.058838
0.800720 0.161530 0.059570
0.803925 0.163971 0.059570
0.807098 0.167877 0.058838
0.811035 0.169006 0.058838
0.812012 0.171814 0.058838
0.815674 0.175720 0.058838
0.818878 0.175720 0.058838
0.000000 0.000000 0.022675
0.000000 0.000000 0.022675
0.000000 0.000000 0.022675
0.000000 0.000000 0.022675
0.000000 0.000000 0.022675
0.000000 0.000000 0.022675
0.000122 0.000000 0.018738
0.028809 0.003052 0.011780
0.062622 0.003052 0.007965
0.104034 0.006989 0.007843
0.151215 0.013611 0.007843
0.200623 0.021332 0.007843
0.250854 0.029053 0.007843
0.293274 0.034424 0.007843
0.339569 0.044495 0.007843
0.385895 0.055145 0.007843
0.434448 0.066681 0.007843
0.479523 0.079407 0.010529
0.527069 0.093628 0.011780
0.573395 0.106628 0.017273
0.619720 0.116669 0.021088
0.666046 0.125977 0.025726
0.709320 0.134918 0.032593
0.758698 0.155396 0.044250
0.796204 0.168640 0.052948
0.803070 0.167755 0.058838
0.804657 0.168518 0.058838
0.806976 0.171692 0.058838
0.808319 0.172180 0.058838
0.812134 0.175598 0.058838
0.815674 0.179535 0.058838
0.818756 0.179535 0.058838
0.819611 0.183441 0.058838
0.000000 0.002930 0.027466
0.000000 0.002930 0.026459
0.000000 0.003662 0.027466
0.000000 0.003937 0.027466
0.000000 0.003937 0.026947
0.000000 0.006866 0.026459
0.000000 0.006866 0.026459
0.000488 0.010773 0.026337
0.051971 0.010773 0.015686
0.093506 0.017517 0.011780
0.135773 0.021332 0.007843
0.188599 0.029053 0.007843
0.242645 0.034302 0.007843
0.286163 0.040558 0.007843
0.334076 0.048279 0.007843
0.381134 0.059082 0.007843
0.434326 0.070587 0.007843
0.483459 0.082123 0.007843
0.530884 0.097534 0.011780
0.581116 0.112976 0.015686
0.625977 0.122070 0.019623
0.669861 0.133698 0.024872
0.716187 0.142639 0.032593
0.763489 0.162018 0.041412
0.799988 0.175476 0.051971
0.804779 0.175476 0.058838
0.807831 0.175476 0.058838
0.810791 0.177094 0.058838
0.812256 0.179413 0.058838
0.815674 0.180756 0.058838
0.818634 0.183319 0.058838
0.819733 0.187256 0.058838
0.823517 0.187256 0.058838
0.000000 0.013489 0.034180
0.000000 0.013489 0.034180
0.000000 0.013489 0.034180
0.000000 0.017395 0.034180
0.000000 0.017395 0.034180
0.000000 0.017395 0.034180
0.000000 0.021332 0.034180
0.000000 0.021576 0.037018
0.014465 0.028076 0.033936
0.081848 0.028076 0.015686
0.131012 0.032959 0.011780
0.173401 0.040680 0.007843
0.227203 0.044861 0.007843
0.277832 0.048767 0.007843
0.328064 0.056000 0.007843
0.380402 0.063721 0.007843
0.433319 0.075378 0.007843
0.483459 0.087006 0.007843
0.537506 0.098663 0.007843
0.587616 0.115814 0.011780
0.633698 0.129791 0.018250
0.677582 0.139954 0.024872
0.719971 0.150360 0.032593
0.769104 0.169739 0.041412
0.803802 0.182220 0.051971
0.807831 0.179291 0.058838
0.810669 0.181122 0.058838
0.812378 0.183197 0.058838
0.815674 0.184814 0.058838
0.816040 0.187134 0.058838
0.819611 0.188477 0.058838
0.822418 0.191040 0.058838
0.823517 0.194977 0.058838
0.000000 0.031616 0.041901
0.000000 0.031616 0.041901
0.000000 0.031616 0.041901
0.000000 0.031616 0.041901
0.000000 0.032837 0.041901
0.000000 0.032837 0.041901
0.000000 0.036041 0.041901
0.000000 0.036774 0.041901
0.003418 0.043640 0.045593
0.032959 0.051117 0.038727
0.116669 0.047302 0.015686
0.169617 0.054901 0.011780
0.217163 0.059082 0.008087
0.269745 0.064209 0.007843
0.322540 0.068146 0.007843
0.376587 0.077454 0.007843
0.429413 0.085785 0.007843
0.483459 0.094727 0.007843
0.539215 0.106384 0.007843
0.592651 0.118011 0.007843
0.638977 0.132355 0.014465
0.685303 0.146576 0.022186
0.727692 0.159546 0.031128
0.775238 0.177460 0.040314
0.806610 0.187012 0.051971
0.810547 0.185181 0.054901
0.812500 0.187012 0.054901
0.815674 0.188843 0.054901
0.818390 0.190918 0.054901
0.819611 0.192535 0.056122
0.822296 0.194855 0.056122
0.823639 0.198761 0.056244
0.827454 0.198761 0.056122
0.000000 0.050873 0.049622
0.000000 0.050873 0.049622
0.000000 0.050873 0.049622
0.000000 0.050873 0.049622
0.000000 0.050873 0.049622
0.000000 0.051605 0.049622
0.000000 0.052216 0.049622
0.000000 0.055267 0.049622
0.000366 0.059082 0.053558
0.015076 0.062866 0.053314
0.060303 0.074280 0.045227
0.160553 0.070465 0.019623
0.218628 0.078186 0.011902
0.261017 0.084564 0.008087
0.317047 0.090088 0.007843
0.374878 0.093506 0.007843
0.431976 0.101227 0.007843
0.486023 0.108948 0.007843
0.543152 0.116669 0.007843
0.598053 0.128296 0.007843
0.646698 0.134918 0.009308
0.693024 0.151703 0.018372
0.736633 0.169739 0.028687
0.780640 0.186646 0.040314
0.810425 0.193756 0.049377
0.812622 0.190796 0.054901
0.815674 0.194733 0.054901
0.818268 0.195343 0.054901
0.820099 0.198639 0.054901
0.823517 0.201233 0.054901
0.826111 0.202576 0.054901
0.827576 0.206482 0.054901
0.831360 0.206482 0.054901
0.000000 0.070099 0.061279
0.000000 0.070099 0.061279
0.000000 0.070099 0.060059
0.000000 0.070099 0.059814
0.000000 0.070099 0.059814
0.000000 0.070953 0.057343
0.000000 0.074005 0.057343
0.000000 0.074005 0.057343
0.000000 0.077942 0.061279
0.006744 0.081848 0.063721
0.029663 0.089966 0.061035
0.087860 0.103912 0.051483
0.213226 0.100006 0.019623
0.267395 0.107727 0.014343
0.309814 0.115448 0.011780
0.371063 0.119598 0.007843
0.432831 0.123047 0.007843
0.489838 0.126831 0.007843
0.549500 0.134552 0.007843
0.605774 0.143738 0.007843
0.654419 0.147552 0.007843
0.699402 0.152832 0.010651
0.744354 0.173523 0.023529
0.788361 0.196808 0.038971
0.814209 0.202454 0.048035
0.819000 0.206604 0.054901
0.825256 0.218384 0.054901
0.828430 0.221558 0.054901
0.830383 0.222046 0.054901
0.832367 0.224030 0.054901
0.836273 0.225739 0.054901
0.837860 0.229401 0.054901
0.840210 0.229401 0.054901
0.000000 0.097168 0.072906
0.000000 0.097168 0.072906
0.000000 0.095581 0.071564
0.000000 0.095581 0.071320
0.000000 0.095581 0.071320
0.000000 0.095581 0.069000
0.000000 0.097168 0.068146
0.000000 0.097168 0.068146
0.000000 0.097168 0.069000
0.002808 0.101593 0.071808
0.017517 0.109314 0.075256
0.047913 0.119598 0.071075
0.126587 0.140930 0.056610
0.263367 0.134796 0.025848
0.321442 0.140930 0.015808
0.369843 0.148651 0.012024
0.431366 0.154419 0.008209
0.494965 0.154419 0.007843
0.557220 0.158325 0.007843
0.613495 0.163849 0.007843
0.664459 0.167755 0.007843
0.709442 0.169373 0.007843
0.750854 0.170593 0.011902
0.796082 0.200989 0.032349
0.819000 0.212128 0.048035
0.830627 0.232239 0.054901
0.836029 0.243866 0.054901
0.837616 0.243866 0.054901
0.841553 0.243866 0.054901
0.841553 0.247803 0.054901
0.845459 0.247803 0.054657
0.845459 0.247803 0.052582
0.849396 0.249390 0.052582
0.000000 0.124268 0.086761
0.000000 0.122559 0.086761
0.000000 0.122559 0.084564
0.000000 0.122559 0.083221
0.000000 0.122559 0.082855
0.000000 0.122559 0.080627
0.000000 0.122559 0.079651
0.000000 0.122559 0.078918
0.000000 0.123291 0.076721
0.000610 0.126465 0.079529
0.011017 0.130890 0.083344
0.029785 0.138977 0.084564
0.074005 0.152954 0.080383
0.178925 0.179413 0.064209
0.321320 0.171814 0.027466
0.383698 0.179535 0.019745
0.431610 0.187012 0.013977
0.498901 0.191437 0.008209
0.566681 0.191437 0.007843
0.627319 0.193146 0.007843
0.675995 0.193146 0.007843
0.720947 0.191803 0.007843
0.763489 0.190918 0.007843
0.803802 0.193756 0.016785
0.825500 0.219604 0.041656
0.837494 0.247559 0.050995
0.841431 0.252441 0.050232
0.843140 0.254913 0.048767
0.843628 0.254913 0.048767
0.847046 0.254913 0.048767
0.847290 0.254913 0.048767
0.850983 0.254913 0.048767
0.850983 0.256622 0.048767
0.000000 0.155518 0.100372
0.000000 0.155518 0.100372
0.000000 0.153442 0.098297
0.000000 0.153442 0.098297
0.000000 0.153442 0.098297
0.000000 0.152191 0.094360
0.000000 0.151581 0.092285
0.000000 0.152588 0.090454
0.000000 0.150360 0.088348
0.000000 0.153442 0.088348
0.006622 0.154053 0.091064
0.021332 0.161774 0.094849
0.049133 0.173767 0.095825
0.107483 0.191803 0.089966
0.229279 0.221802 0.071808
0.383453 0.210419 0.031372
0.449402 0.218262 0.021820
0.499146 0.225861 0.015930
0.570465 0.232117 0.008209
0.637878 0.230530 0.007843
0.691437 0.226105 0.007843
0.736389 0.224030 0.007843
0.778931 0.218872 0.007843
0.815308 0.211029 0.007843
0.829407 0.211395 0.024017
0.841309 0.249146 0.044983
0.843384 0.247314 0.042389
0.845215 0.249146 0.041046
0.845215 0.249146 0.041046
0.849152 0.251221 0.041412
0.849152 0.251221 0.043152
0.851105 0.253052 0.043152
0.853058 0.253052 0.043152
0.000000 0.192169 0.119598
0.000000 0.190186 0.119598
0.000000 0.190186 0.117645
0.000000 0.190186 0.117645
0.000000 0.190186 0.113739
0.000000 0.186279 0.112366
0.000000 0.186279 0.108582
0.000000 0.186279 0.105896
0.000000 0.184326 0.104889
0.000000 0.184326 0.101959
0.006622 0.184326 0.101959
0.018250 0.190796 0.105896
0.036774 0.199005 0.109802
0.075134 0.214447 0.109802
0.152466 0.238220 0.101471
0.283569 0.266296 0.083221
0.450989 0.254913 0.037262
0.520599 0.262634 0.025604
0.574524 0.272064 0.017883
0.643738 0.280396 0.012146
0.702454 0.271576 0.007843
0.749268 0.261383 0.007843
0.790436 0.253662 0.007843
0.829895 0.246826 0.007843
0.839203 0.225494 0.009796
0.845947 0.247925 0.031372
0.849030 0.250977 0.031372
0.850983 0.250977 0.031372
0.852936 0.251465 0.031372
0.852936 0.252930 0.031372
0.853180 0.252930 0.031372
0.856873 0.254913 0.031372
0.856873 0.254913 0.031372
0.000000 0.236389 0.142761
0.000000 0.234558 0.142761
0.000000 0.234558 0.142761
0.000000 0.234558 0.140686
0.000000 0.232971 0.138855
0.000000 0.230652 0.134918
0.000000 0.230652 0.133575
0.000000 0.226715 0.129791
0.000000 0.226715 0.125977
0.001831 0.223907 0.123169
0.006622 0.222809 0.119232
0.016907 0.224884 0.118134
0.032349 0.231262 0.121338
0.055023 0.243378 0.125244
0.107361 0.264954 0.128784
0.201111 0.290436 0.113220
0.349274 0.320099 0.096558
0.522186 0.303070 0.041046
0.597931 0.314697 0.029419
0.650116 0.326111 0.021698
0.711639 0.330872 0.016052
0.762878 0.318390 0.009674
0.805878 0.300598 0.007843
0.842285 0.287262 0.007843
0.853790 0.271820 0.009796
0.858582 0.276459 0.031128
0.860413 0.280273 0.031128
0.862488 0.280151 0.031128
0.862488 0.281372 0.031128
0.862488 0.281372 0.031128
0.862732 0.283447 0.031128
0.866425 0.283447 0.031128
0.866425 0.283447 0.031128
0.001709 0.286530 0.171570
0.001709 0.286530 0.171570
0.001709 0.286530 0.171570
0.001709 0.286530 0.168030
0.003418 0.282593 0.167633
0.005646 0.282593 0.164337
0.005646 0.282593 0.160553
0.005646 0.278687 0.156738
0.005646 0.278687 0.152954
0.005646 0.274750 0.149139
0.009552 0.272064 0.145355
0.014343 0.269104 0.138489
0.032349 0.271576 0.138489
0.048401 0.279907 0.140686
0.078674 0.295349 0.146820
0.148407 0.321075 0.147797
0.261261 0.352203 0.130402
0.422668 0.385284 0.111755
0.601471 0.358826 0.048767
0.673523 0.370453 0.037140
0.719604 0.380157 0.030884
0.772308 0.388489 0.025604
0.817413 0.370331 0.017883
0.852692 0.345459 0.010162
0.864471 0.320587 0.010529
0.870087 0.317902 0.035309
0.872314 0.324005 0.035309
0.872314 0.324005 0.035309
0.874023 0.324005 0.035309
0.874023 0.324005 0.035309
0.876221 0.323761 0.035309
0.876221 0.322296 0.035309
0.876221 0.322296 0.035309
0.011017 0.347687 0.204041
0.011017 0.347687 0.204041
0.013367 0.346069 0.204041
0.013367 0.346069 0.202454
0.014954 0.344238 0.200134
0.014954 0.343750 0.196808
0.014954 0.342163 0.194611
0.014954 0.340698 0.190674
0.014954 0.339813 0.186768
0.014954 0.337006 0.182831
0.017273 0.335907 0.177826
0.019867 0.330994 0.170105
0.028442 0.326477 0.160797
0.047791 0.327209 0.158447
0.067780 0.338837 0.162262
0.103302 0.357483 0.169983
0.197418 0.389954 0.170349
0.330627 0.426849 0.155151
0.497803 0.459564 0.134064
0.678680 0.422180 0.058075
0.743134 0.432343 0.048035
0.783813 0.441284 0.046570
0.828918 0.449646 0.044006
0.864227 0.430389 0.032715
0.873169 0.395599 0.024384
0.881622 0.379913 0.042389
0.885529 0.384552 0.046326
0.885529 0.383942 0.046326
0.885529 0.382965 0.046326
0.885529 0.381378 0.046326
0.887878 0.379059 0.046082
0.887878 0.377441 0.044739
0.887878 0.377441 0.044739
0.026459 0.417145 0.242645
0.027954 0.417145 0.242645
0.027954 0.414948 0.238983
0.027954 0.414703 0.238739
0.030396 0.414703 0.238739
0.030396 0.414703 0.234802
0.030396 0.413239 0.233093
0.031860 0.411652 0.230896
0.031860 0.410797 0.226959
0.031860 0.410797 0.221680
0.031860 0.406860 0.216431
0.031860 0.406860 0.211273
0.032837 0.401947 0.203918
0.043884 0.391174 0.190796
0.066162 0.394348 0.184814
0.093140 0.408081 0.190796
0.142639 0.433838 0.201965
0.271698 0.474396 0.195465
0.414948 0.513489 0.186035
0.581726 0.545471 0.163116
0.752930 0.497070 0.082855
0.805878 0.503418 0.072662
0.843140 0.509552 0.071320
0.875732 0.517639 0.068634
0.888245 0.499023 0.065674
0.898529 0.479889 0.080872
0.902466 0.486267 0.084808
0.902466 0.484802 0.080872
0.902466 0.480896 0.080383
0.902466 0.476959 0.079407
0.902466 0.473053 0.075500
0.902466 0.468994 0.075500
0.902466 0.465210 0.074005
0.047180 0.490570 0.279907
0.047180 0.490570 0.277466
0.047180 0.490570 0.277313
0.049377 0.490570 0.277313
0.049744 0.490570 0.275970
0.051117 0.488617 0.274017
0.051117 0.487976 0.272064
0.051117 0.487976 0.269470
0.051117 0.487976 0.266541
0.053680 0.487976 0.262756
0.055023 0.487976 0.257721
0.055023 0.484070 0.251221
0.055023 0.482971 0.243500
0.055023 0.480133 0.237366
0.063232 0.472809 0.224640
0.093262 0.471191 0.213959
0.128052 0.491180 0.222290
0.213715 0.526337 0.232361
0.370941 0.568390 0.220703
0.507355 0.608215 0.216919
0.668762 0.627319 0.188843
0.817291 0.565063 0.109924
0.862488 0.567657 0.102203
0.886139 0.571320 0.099518
0.900726 0.579041 0.107361
0.916412 0.596069 0.142273
0.919739 0.599152 0.145966
0.920349 0.596558 0.142761
0.920349 0.593506 0.142761
0.920349 0.590088 0.138855
0.920349 0.586151 0.136017
0.920349 0.586029 0.134918
0.920349 0.582245 0.132355
0.066437 0.563965 0.314697
0.066437 0.563965 0.312134
0.069122 0.563965 0.312012
0.069122 0.561279 0.310791
0.070343 0.561279 0.310791
0.070343 0.561279 0.308716
0.070343 0.561279 0.306854
0.073029 0.560059 0.303802
0.073029 0.560059 0.301239
0.073029 0.560059 0.299011
0.074280 0.560059 0.293640
0.074280 0.560059 0.288605
0.074280 0.557343 0.282104
0.074280 0.556122 0.274384
0.074280 0.555145 0.266663
0.079529 0.548645 0.256012
0.115936 0.549744 0.242889
0.172791 0.576111 0.251343
0.321564 0.621063 0.252930
0.469116 0.658447 0.246826
0.598785 0.695587 0.241180
0.741791 0.694244 0.204651
0.870087 0.628174 0.137024
0.897675 0.628296 0.133209
0.911041 0.635284 0.143372
0.926727 0.672180 0.195587
0.930145 0.675232 0.199524
0.930634 0.672546 0.196808
0.930634 0.672546 0.196320
0.930634 0.672546 0.195587
0.933319 0.672546 0.192902
0.934570 0.669861 0.192902
0.934570 0.668640 0.192902
0.083466 0.627319 0.345581
0.084564 0.627319 0.345581
0.084564 0.627319 0.345581
0.084564 0.627319 0.342041
0.087372 0.627319 0.341675
0.087372 0.627319 0.341675
0.088470 0.627319 0.337738
0.088470 0.627319 0.337738
0.088470 0.627319 0.333832
0.091309 0.627319 0.329895
0.091309 0.627319 0.325989
0.092407 0.625854 0.322052
0.092407 0.624512 0.316803
0.092407 0.623413 0.310303
0.092407 0.623413 0.304169
0.092407 0.622437 0.296448
0.093262 0.618622 0.281128
0.130280 0.616669 0.259918
0.223053 0.652313 0.269470
0.401337 0.695953 0.268372
0.535553 0.727203 0.263489
0.668396 0.761139 0.255035
0.798279 0.744843 0.214203
0.904175 0.681122 0.160187
0.921692 0.697906 0.188965
0.933319 0.730377 0.244965
0.933319 0.734314 0.249146
0.934448 0.734314 0.249146
0.937256 0.734314 0.249146
0.937256 0.734314 0.249146
0.937256 0.734314 0.249146
0.937378 0.734314 0.246338
0.938354 0.731506 0.246338
0.095093 0.678436 0.381378
0.095093 0.678436 0.377563
0.095093 0.678436 0.377441
0.095093 0.678436 0.377441
0.097534 0.678436 0.377441
0.099030 0.678436 0.373535
0.099030 0.678436 0.373535
0.099030 0.676361 0.370453
0.099030 0.675476 0.369598
0.100861 0.674500 0.365692
0.102936 0.674500 0.363983
0.102936 0.674500 0.360168
0.102936 0.674500 0.353912
0.102936 0.674500 0.348663
0.102936 0.672302 0.340942
0.102936 0.670593 0.332245
0.102936 0.669617 0.321564
0.102936 0.664825 0.305267
0.130402 0.660034 0.271820
0.260651 0.700745 0.280029
0.447052 0.741669 0.277954
0.584076 0.770477 0.270233
0.724518 0.798279 0.256622
0.852814 0.760406 0.209808
0.924500 0.750000 0.251953
0.937134 0.799988 0.402832
0.937256 0.803680 0.416656
0.937256 0.803925 0.416656
0.937256 0.803925 0.420593
0.937256 0.803925 0.420593
0.941162 0.803925 0.423523
0.941162 0.803925 0.424500
0.941162 0.807831 0.424500
0.098053 0.694977 0.404785
0.098053 0.694977 0.403931
0.098053 0.694977 0.403931
0.101959 0.694977 0.403931
0.101959 0.694977 0.403931
0.101959 0.694122 0.399994
0.101959 0.694122 0.399994
0.101959 0.694122 0.397797
0.105896 0.694122 0.396088
0.105896 0.694122 0.393250
0.105896 0.694122 0.390320
0.105896 0.694122 0.388245
0.105896 0.691040 0.382721
0.105896 0.690186 0.378052
0.106750 0.690186 0.370331
0.109802 0.687134 0.360535
0.108704 0.685181 0.348175
0.109558 0.681366 0.329651
0.158325 0.688843 0.332855
0.250610 0.709930 0.335663
0.405762 0.744598 0.325989
0.552460 0.774017 0.315796
0.695343 0.807220 0.308563
0.832733 0.813599 0.285553
0.918640 0.754913 0.227081
0.933319 0.835297 0.511505
0.937256 0.839203 0.522430
0.937256 0.839203 0.525482
0.937256 0.839203 0.525970
0.937256 0.839569 0.526337
0.937500 0.840088 0.526337
0.941162 0.840088 0.529419
0.941162 0.843140 0.529419
0.098053 0.698029 0.407837
0.098053 0.698029 0.407837
0.101715 0.698029 0.407837
0.101959 0.698029 0.403931
0.101959 0.698029 0.403931
0.101959 0.698029 0.403931
0.101959 0.698029 0.399994
0.105011 0.698029 0.399994
0.105896 0.698029 0.396088
0.105896 0.698029 0.393982
0.105896 0.694855 0.392151
0.105896 0.694855 0.388245
0.105896 0.694855 0.384308
0.108215 0.694122 0.378052
0.109802 0.692657 0.371063
0.109802 0.690186 0.361267
0.109802 0.686279 0.345093
0.113739 0.685181 0.325745
0.170593 0.693634 0.338959
0.260773 0.716187 0.338715
0.417633 0.750977 0.331604
0.562134 0.777954 0.317047
0.698517 0.807587 0.311279
