luts_externos/iwltbap/free-named-looks/IWLTBAP Aspen - V-Log.cube
# Copyright: (C) Copyright 2010-2017 by IWLTBAP SAS
# Cannot be resold, shared or otherwise redistributed
# Website: https://luts.iwltbap.com
TITLE "IWLTBAP Aspen (V-Log)"
LUT_3D_SIZE 5
0.007843 0.015686 0.027466
0.026459 0.015686 0.012756
0.307831 0.078430 0.015686
0.868622 0.187256 0.091187
0.878418 0.176483 0.098053
0.007843 0.046082 0.057831
0.033325 0.052948 0.049988
0.361755 0.102936 0.022552
0.875488 0.201965 0.095093
0.882355 0.192169 0.099030
0.039215 0.227448 0.254913
0.043152 0.237244 0.244110
0.513733 0.376465 0.205872
0.901947 0.274506 0.096069
0.909790 0.272552 0.109802
0.229401 0.733337 0.521576
0.237244 0.737244 0.526459
0.253937 0.750000 0.510773
0.975494 0.860779 0.448029
0.996063 0.892151 0.667633
0.247070 0.764709 0.517639
0.257843 0.772552 0.529419
0.272552 0.782349 0.515686
0.968628 0.905884 0.517639
0.996063 0.945099 0.784302
0.003937 0.015686 0.038239
0.022552 0.015686 0.023529
0.345093 0.082367 0.033325
0.868622 0.183319 0.099030
0.874512 0.169617 0.105896
0.007843 0.046082 0.079407
0.026459 0.046082 0.053925
0.356873 0.104889 0.046082
0.874512 0.195099 0.100006
0.882355 0.184326 0.108826
0.035309 0.218628 0.277466
0.039215 0.235291 0.281372
0.571564 0.435303 0.270599
0.897064 0.250000 0.092163
0.907837 0.263733 0.116669
0.225494 0.733337 0.541168
0.233337 0.737244 0.549011
0.249023 0.749023 0.527466
0.977448 0.867645 0.495087
0.995087 0.896088 0.700989
0.243134 0.764709 0.540192
0.254913 0.772552 0.551971
0.268616 0.780396 0.535309
0.969604 0.911774 0.554901
0.996063 0.945099 0.807831
0.015686 0.019623 0.072540
0.046082 0.027466 0.067657
0.313721 0.086273 0.098053
0.855896 0.165680 0.122559
0.862732 0.150970 0.127441
0.003937 0.046082 0.134308
0.033325 0.046082 0.117645
0.342163 0.108826 0.116669
0.862732 0.180389 0.127441
0.870575 0.165680 0.131378
0.017639 0.207855 0.362732
0.021576 0.219604 0.372559
0.286285 0.299988 0.333344
0.904907 0.305878 0.188232
0.911774 0.292145 0.192169
0.220581 0.729401 0.594116
0.229401 0.733337 0.598053
0.301971 0.784302 0.625488
0.980377 0.892151 0.647064
0.992157 0.909790 0.770599
0.231384 0.760773 0.588226
0.244110 0.768616 0.594116
0.327454 0.821564 0.631378
0.972534 0.928436 0.662750
0.994110 0.952942 0.850983
0.184326 0.067657 0.290192
0.251953 0.080383 0.298035
0.474518 0.147064 0.330383
0.796082 0.133331 0.367645
0.810791 0.143127 0.377441
0.163727 0.075500 0.308838
0.213715 0.099030 0.325500
0.467651 0.177460 0.365692
0.799988 0.150970 0.381378
0.815674 0.170593 0.398041
0.042145 0.260773 0.545105
0.058838 0.264709 0.538239
0.375488 0.334320 0.508820
0.830383 0.255890 0.469604
0.849030 0.280396 0.485291
0.204895 0.720581 0.803925
0.213715 0.721558 0.803925
0.267639 0.753937 0.823517
0.955872 0.922546 0.934326
0.976471 0.918640 0.934326
0.222534 0.755890 0.806854
0.234314 0.761780 0.807831
0.282349 0.793152 0.825500
0.947052 0.962738 0.943146
0.988220 0.968628 0.951965
0.254913 0.078430 0.321564
0.331360 0.094116 0.332367
0.521576 0.162750 0.384308
0.785309 0.135284 0.424500
0.799988 0.164703 0.458832
0.213715 0.082367 0.333344
0.293152 0.116669 0.359802
0.514709 0.195099 0.412750
0.790192 0.152954 0.436279
0.811768 0.192169 0.474518
0.082367 0.288239 0.552948
0.092163 0.287262 0.547058
0.419617 0.345093 0.523529
0.830383 0.274506 0.522552
0.847046 0.311768 0.562744
0.200989 0.715698 0.828430
0.208832 0.716675 0.831360
0.234314 0.729401 0.838226
0.956848 0.922546 0.958832
0.973541 0.922546 0.955872
0.215698 0.745087 0.835297
0.227448 0.752930 0.835297
0.264709 0.772552 0.849030
0.915680 0.959808 0.970581
0.988220 0.976471 0.980377
