luts_externos/iwltbap/free-named-looks/IWLTBAP Arapaho - LOG.cube
# Copyright: (C) Copyright 2010-2017 by IWLTBAP SAS for SmallHD
# Cannot be resold, shared or otherwise redistributed
# Website: https://luts.iwltbap.com
TITLE "IWLTBAP Arapaho (LOG)"
#LUT size
LUT_3D_SIZE 9
#LUT data points
0 0 0
0.001648 0 0
0.144409 0.021271 0
0.316467 0.048798 0
0.479156 0.068665 0
0.639282 0.085846 0.000702
0.789001 0.110901 0.030945
0.835083 0.128326 0.046387
0.835083 0.128326 0.046387
0.018829 0.030151 0
0.022949 0.013245 0
0.119293 0.024292 0
0.279846 0.0466 0
0.444183 0.064026 0
0.614655 0.082397 0
0.777252 0.109558 0.028931
0.835083 0.128326 0.046387
0.835083 0.128326 0.046387
0.121368 0.109711 0
0.120331 0.107758 0
0.199493 0.100281 0
0.32489 0.087463 0
0.490997 0.088501 0
0.657013 0.096893 0
0.824524 0.12738 0.036957
0.846619 0.140625 0.046387
0.846436 0.139771 0.046143
0.262604 0.218353 0
0.267731 0.222015 0
0.314209 0.237671 0
0.414001 0.200653 0
0.576233 0.170319 0
0.726929 0.198944 0
0.862427 0.230927 0.041656
0.888184 0.248596 0.055511
0.88736 0.247131 0.055267
0.484283 0.365356 0
0.493622 0.372345 0.000519
0.519012 0.389557 0.002899
0.570038 0.397827 0.000732
0.689209 0.364807 0
0.829193 0.302368 0
0.946533 0.343384 0.043549
0.979889 0.371735 0.064331
0.979736 0.37149 0.064301
0.675354 0.530396 0.063171
0.685455 0.539734 0.065887
0.699249 0.551483 0.066589
0.721344 0.561371 0.056885
0.782043 0.577972 0.023773
0.906128 0.553589 0
0.999878 0.47052 0
0.999969 0.490875 0.029602
0.999969 0.491272 0.029144
0.829498 0.736023 0.131805
0.838654 0.750885 0.13446
0.849548 0.767609 0.135071
0.856506 0.771667 0.127319
0.892395 0.769745 0.122406
0.969299 0.775421 0.09079
0.999969 0.740845 0
0.999969 0.708618 0.027405
0.999969 0.7099 0.028992
0.939178 0.881012 0.232666
0.939178 0.881012 0.232666
0.938721 0.880859 0.230927
0.940308 0.880432 0.225708
0.976593 0.880615 0.221283
0.999817 0.882568 0.226593
0.999817 0.888 0.168884
0.999878 0.848724 0.211212
0.999878 0.848724 0.211212
0.939178 0.881012 0.232666
0.939178 0.881012 0.232666
0.938568 0.880829 0.230377
0.940521 0.880463 0.225891
0.974396 0.880585 0.221619
0.999817 0.882263 0.224579
0.999878 0.900208 0.196899
0.999878 0.848724 0.211212
0.999878 0.848724 0.211212
0 0 0.017792
0 0.007477 0.031769
0.140869 0.021729 0.015289
0.318146 0.05603 0
0.474274 0.067902 0
0.634613 0.085052 0
0.784637 0.110413 0.030182
0.835083 0.128326 0.046387
0.835083 0.128326 0.046387
0 0.023376 0.030396
0.000092 0.015717 0.020996
0.097748 0.029144 0.014618
0.276611 0.046356 0
0.441986 0.063751 0
0.613373 0.082214 0
0.77771 0.109589 0.028992
0.835083 0.128326 0.046387
0.835083 0.128326 0.046387
0.118042 0.109283 0.00238
0.116058 0.109039 0.003479
0.197601 0.102112 0
0.32489 0.088318 0
0.491943 0.089233 0
0.658173 0.09729 0
0.825378 0.128235 0.037415
0.84671 0.141174 0.04657
0.846558 0.140381 0.046326
0.263245 0.218811 0
0.268768 0.222778 0
0.316467 0.239075 0
0.41684 0.202118 0
0.579742 0.171509 0
0.730133 0.200531 0
0.865417 0.233917 0.042877
0.889313 0.25058 0.055847
0.88858 0.249237 0.055603
0.48645 0.366943 0
0.495697 0.373932 0.000732
0.521851 0.391693 0.003265
0.573059 0.399933 0.000854
0.693024 0.367615 0
0.832275 0.30484 0
0.949799 0.346771 0.044952
0.981262 0.373627 0.064575
0.981171 0.373505 0.064575
0.678131 0.532959 0.063934
0.688049 0.542114 0.066589
0.702637 0.554443 0.066956
0.724792 0.56427 0.057526
0.785614 0.581268 0.024475
0.909454 0.557007 0
0.999969 0.47348 0
0.999969 0.493011 0.027191
0.999969 0.493439 0.026703
0.832031 0.740173 0.132538
0.841248 0.755005 0.13504
0.852142 0.771545 0.135162
0.859406 0.77597 0.127747
0.895782 0.773834 0.123077
0.972107 0.778625 0.092194
0.999969 0.744293 0
0.999969 0.712585 0.032227
0.999969 0.714081 0.034088
0.939178 0.881012 0.232666
0.939178 0.881012 0.232666
0.93866 0.880859 0.230774
0.94046 0.880463 0.22583
0.977631 0.880646 0.221283
0.999817 0.882599 0.226868
0.999817 0.886566 0.167267
0.999878 0.848724 0.211212
0.999878 0.848724 0.211212
0.939178 0.881012 0.232666
0.939178 0.881012 0.232666
0.938507 0.880798 0.230225
0.940674 0.880463 0.225983
0.974426 0.880585 0.221619
0.999817 0.882202 0.224365
0.999878 0.900238 0.197052
0.999878 0.848724 0.211212
0.999878 0.848724 0.211212
0 0.040588 0.090912
0 0.047546 0.102417
0.096619 0.062134 0.115265
0.340485 0.072327 0.056274
0.495361 0.071045 0.009277
0.657501 0.081055 0.022369
0.785828 0.107574 0.039551
0.836029 0.12912 0.057098
0.835693 0.128998 0.053589
0 0.059265 0.113739
0 0.051971 0.10437
0.05835 0.053802 0.100739
0.296661 0.056915 0.04129
0.462952 0.060608 0
0.6362 0.077393 0.010681
0.785126 0.107605 0.03891
0.836334 0.128632 0.058777
0.836121 0.128967 0.057648
0 0.126404 0.162781
0 0.126465 0.163208
0.031097 0.13736 0.165466
0.282471 0.119141 0.091766
0.495331 0.091949 0.006927
0.677734 0.097229 0.032104
0.827454 0.131012 0.062317
0.845276 0.143677 0.071594
0.845123 0.142761 0.070282
0.239594 0.225128 0.04483
0.242737 0.229797 0.049469
0.260712 0.248596 0.067535
0.399719 0.227997 0.000092
0.566925 0.191772 0
0.725769 0.216705 0.011292
0.866089 0.243927 0.057281
0.885742 0.25766 0.070282
0.884094 0.256897 0.072449
0.492645 0.368591 0.000122
0.503235 0.376221 0.00116
0.52066 0.39743 0.013611
0.575165 0.406769 0.012054
0.691711 0.374054 0.005981
0.833771 0.311127 0.01123
0.951355 0.355194 0.059509
0.978851 0.381409 0.082672
0.978241 0.38208 0.0849
0.681091 0.535126 0.063507
0.69101 0.543915 0.065399
0.704956 0.558807 0.074127
0.727081 0.568298 0.066193
0.790161 0.586304 0.032928
0.913635 0.561218 0
0.999969 0.478027 0
0.999969 0.497009 0.031097
0.999969 0.497833 0.032593
0.834839 0.74472 0.133362
0.843842 0.758789 0.13501
0.855042 0.776184 0.136261
0.862488 0.780975 0.129578
0.899323 0.778534 0.125122
0.975586 0.782776 0.094879
0.999969 0.748779 0
0.999969 0.717987 0.03952
0.999969 0.719208 0.04126
0.939178 0.881012 0.232666
0.939056 0.880676 0.23056
0.93808 0.880951 0.232056
0.93985 0.880676 0.228668
0.978058 0.880829 0.223511
0.999817 0.882721 0.228241
0.999817 0.884674 0.16571
0.999878 0.848724 0.211334
0.999878 0.848724 0.211212
0.939117 0.88089 0.231873
0.938995 0.880524 0.229553
0.937683 0.88092 0.231964
0.939789 0.880737 0.229462
0.973724 0.880707 0.22345
0.999817 0.882172 0.224365
0.999878 0.900238 0.197021
0.999878 0.848724 0.211212
0.999878 0.848724 0.211212
0 0.107635 0.173187
0 0.112244 0.179321
0 0.123566 0.201294
0.261627 0.137787 0.178802
0.525696 0.115814 0.083221
0.679718 0.130798 0.105072
0.797943 0.151031 0.123352
0.832947 0.161865 0.128967
0.833496 0.157379 0.122528
0 0.11084 0.177856
0 0.100555 0.164551
0 0.104584 0.174347
0.221497 0.11673 0.162476
0.490387 0.10733 0.074463
0.66806 0.126221 0.098785
0.799683 0.150543 0.122284
0.832825 0.163208 0.130859
0.833069 0.160431 0.126953
0 0.142212 0.216125
0 0.142517 0.216492
0 0.159119 0.240631
0.234375 0.154724 0.214752
0.551849 0.141357 0.108429
0.709991 0.15033 0.125854
0.830109 0.174988 0.147003
0.842499 0.179504 0.149292
0.840942 0.175781 0.144623
0 0.2435 0.296631
0 0.248657 0.302307
0 0.270416 0.327667
0.198639 0.27356 0.289398
0.468414 0.258148 0.229767
0.688416 0.237152 0.147125
0.832916 0.248138 0.171814
0.850067 0.260803 0.181305
0.849762 0.259552 0.180359
0.393829 0.374023 0.14682
0.399719 0.381683 0.155243
0.408936 0.401978 0.178375
0.496033 0.417328 0.129242
0.65451 0.397156 0.080292
0.79245 0.352966 0.096985
0.922058 0.399414 0.142639
0.947205 0.423981 0.163666
0.946991 0.424744 0.16449
0.662048 0.533234 0.114105
0.669525 0.542267 0.123077
0.677582 0.556274 0.141571
0.697632 0.569672 0.150543
0.782379 0.593658 0.111664
0.904633 0.570251 0.039886
0.999969 0.492371 0.08316
0.999969 0.516174 0.122772
0.999969 0.517395 0.124481
0.825409 0.733246 0.141449
0.833527 0.748627 0.147705
0.843536 0.767853 0.155609
0.852844 0.784393 0.170776
0.891418 0.78302 0.169312
0.974304 0.787567 0.133789
0.999969 0.756897 0
0.999969 0.722473 0.064423
0.999969 0.723663 0.066101
0.93158 0.87854 0.231354
0.929993 0.878693 0.236481
0.927948 0.879669 0.244965
0.93042 0.882721 0.263763
0.968781 0.883087 0.260498
0.999817 0.885376 0.258179
0.999817 0.885773 0.195465
0.999878 0.850006 0.230682
0.999878 0.849701 0.226959
0.930939 0.878601 0.233429
0.929352 0.878784 0.238525
0.927246 0.880066 0.247955
0.930359 0.882751 0.264252
0.963867 0.88269 0.256989
0.999817 0.883911 0.246155
0.999878 0.901337 0.215576
0.999878 0.849304 0.22171
0.999878 0.849213 0.220337
0 0.165833 0.250763
0 0.167664 0.253113
0 0.171509 0.258118
0 0.179871 0.294617
0.421906 0.198822 0.225098
0.724915 0.1716 0.148346
0.810364 0.194794 0.180237
0.844452 0.217438 0.201782
0.842896 0.214966 0.199432
0 0.161621 0.244843
0 0.155273 0.236298
0 0.160553 0.243378
0 0.169434 0.274506
0.400482 0.192322 0.220673
0.71521 0.167419 0.144806
0.814026 0.195831 0.181519
0.845032 0.218384 0.202667
0.843933 0.216614 0.200989
0 0.178009 0.266571
0 0.178345 0.266998
0 0.187775 0.279327
0 0.200989 0.317841
0.433472 0.21936 0.250488
0.758575 0.195862 0.167236
0.847015 0.224365 0.207245
0.859894 0.235077 0.219574
0.860046 0.233978 0.21814
0 0.236694 0.336853
0 0.240692 0.341888
0 0.25882 0.364929
0 0.280426 0.418304
0.420776 0.276794 0.32605
0.713745 0.262329 0.228699
0.840149 0.289246 0.265686
0.854095 0.303558 0.281982
0.854187 0.302765 0.280914
0 0.405975 0.485687
0 0.413879 0.495392
0 0.433319 0.51825
0.07254 0.4487 0.527283
0.450592 0.444031 0.439209
0.645355 0.439941 0.416565
0.847107 0.448425 0.34848
0.880341 0.462921 0.357971
0.88028 0.463348 0.358795
0.535065 0.529724 0.313446
0.543823 0.5383 0.324432
0.556549 0.55246 0.34137
0.578522 0.563354 0.353241
0.704468 0.592377 0.272156
0.845795 0.593628 0.228119
0.969299 0.558014 0.263275
0.997864 0.588745 0.293762
0.997955 0.589783 0.2948
0.777405 0.737762 0.27533
0.783386 0.750977 0.282135
0.791107 0.768433 0.290222
0.798981 0.783539 0.302032
0.845947 0.785706 0.301575
0.946533 0.793182 0.285004
0.999969 0.759399 0.130646
0.999969 0.729858 0.195618
0.999969 0.731445 0.196381
0.899658 0.885742 0.341248
0.896973 0.885559 0.343933
0.893341 0.886749 0.350067
0.893921 0.892029 0.367767
0.935883 0.889801 0.367859
0.999817 0.891846 0.359009
0.999878 0.898773 0.302155
0.999908 0.856689 0.31076
0.999908 0.855804 0.300293
0.900879 0.885803 0.339935
0.898224 0.885651 0.342682
0.894592 0.886871 0.348877
0.896698 0.890503 0.360321
0.934967 0.88855 0.349579
0.998016 0.889984 0.331207
0.999878 0.903839 0.296753
0.999908 0.854645 0.288116
0.999908 0.854248 0.283997
0 0.222504 0.324493
0 0.222992 0.325256
0 0.230011 0.334076
0 0.225494 0.332764
0.057983 0.229065 0.380859
0.585541 0.258911 0.275879
0.829102 0.26123 0.266479
0.857239 0.274902 0.291229
0.857178 0.268951 0.279449
0 0.213379 0.312378
0 0.209747 0.307556
0 0.216614 0.316467
0 0.216125 0.319458
0.019257 0.225739 0.37738
0.581299 0.255798 0.269012
0.835541 0.26358 0.271423
0.857025 0.277893 0.297974
0.85733 0.273773 0.288727
0 0.225952 0.329315
0 0.226318 0.329834
0 0.23526 0.342194
0 0.238617 0.350708
0.045258 0.243256 0.410828
0.59256 0.280792 0.329559
0.838654 0.291962 0.336273
0.853973 0.303253 0.362244
0.856903 0.301575 0.356873
0 0.250214 0.357727
0 0.253204 0.36145
0 0.265686 0.377289
0 0.283447 0.412933
0 0.293793 0.497711
0.579712 0.310181 0.402008
0.829346 0.332153 0.411743
0.843933 0.343842 0.433044
0.844025 0.343414 0.431641
0 0.370361 0.513641
0 0.377777 0.52359
0 0.392212 0.541046
0 0.405762 0.569977
0.028168 0.435547 0.655823
0.587219 0.416565 0.542664
0.801605 0.444641 0.50827
0.830597 0.463898 0.528717
0.830658 0.464539 0.529541
0.003021 0.57309 0.688354
0.019745 0.582428 0.697693
0.036072 0.595612 0.712921
0.115875 0.60141 0.716522
0.364288 0.610931 0.691925
0.656555 0.623016 0.616913
0.823578 0.624573 0.600769
0.888336 0.641449 0.598938
0.888275 0.642151 0.600159
0.665741 0.761475 0.452026
0.670471 0.782074 0.457764
0.675415 0.805176 0.462341
0.686615 0.812225 0.462769
0.745544 0.80127 0.48526
0.860016 0.79184 0.488892
0.999176 0.780884 0.36792
0.999969 0.756287 0.396545
0.999969 0.75708 0.396454
0.825165 0.915009 0.469666
0.8172 0.918365 0.482025
0.808319 0.922058 0.494263
0.808289 0.923676 0.500702
0.856812 0.91394 0.52182
0.94754 0.898834 0.534637
0.999878 0.910675 0.501251
0.999939 0.876282 0.465454
0.999939 0.873199 0.451141
0.828979 0.913025 0.462341
0.822113 0.916321 0.474518
0.814117 0.919647 0.485046
0.819885 0.920227 0.487366
0.863678 0.910065 0.491852
0.943695 0.897247 0.49054
0.999908 0.903076 0.467255
0.999969 0.868988 0.428345
0.999969 0.867767 0.419983
0 0.243805 0.352173
0 0.248413 0.358337
0 0.266785 0.38266
0 0.262787 0.374939
0 0.27478 0.416412
0.420288 0.285889 0.439636
0.685211 0.317596 0.433685
0.759003 0.326447 0.452393
0.761353 0.325653 0.447815
0 0.244141 0.352661
0 0.243042 0.351227
0 0.259918 0.373627
0 0.259796 0.370972
0 0.271698 0.408203
0.3992 0.284515 0.443909
0.69281 0.320587 0.445068
0.749756 0.329498 0.472198
0.750977 0.329102 0.469604
0 0.271912 0.390625
0 0.272797 0.391876
0 0.285461 0.408936
0 0.283997 0.404297
0 0.294373 0.447845
0.370209 0.29892 0.509979
0.718384 0.334076 0.516205
0.742432 0.340088 0.541382
0.742645 0.339813 0.539429
0 0.295807 0.423065
0 0.29892 0.427002
0 0.31189 0.444153
0 0.319519 0.456177
0 0.332977 0.504211
0.185822 0.316589 0.613892
0.71048 0.351074 0.597656
0.728455 0.359985 0.622955
0.728333 0.359863 0.623138
0 0.374207 0.519684
0 0.380829 0.528229
0 0.391846 0.541931
0 0.398529 0.556641
0 0.427551 0.624847
0.026245 0.415833 0.731323
0.68985 0.426666 0.701416
0.745758 0.443512 0.718781
0.743958 0.444214 0.721008
0 0.511871 0.693542
0 0.520203 0.703217
0 0.5289 0.712677
0 0.534668 0.722473
0 0.55545 0.781158
0.357056 0.594635 0.815918
0.747803 0.584991 0.752869
0.844818 0.596527 0.757446
0.843567 0.597046 0.759064
0.16394 0.730164 0.859589
0.167786 0.738892 0.869598
0.170105 0.750549 0.882355
0.172302 0.760101 0.894196
0.34137 0.765472 0.877747
0.605011 0.786652 0.835938
0.851257 0.804901 0.776245
0.925049 0.814484 0.784698
0.92514 0.814697 0.784821
0.48468 0.921967 0.767151
0.472961 0.911194 0.800385
0.46048 0.899231 0.838409
0.462036 0.893158 0.872284
0.54245 0.913208 0.824188
0.743439 0.932892 0.730286
0.962097 0.914154 0.706207
0.999969 0.913757 0.644806
0.999969 0.911713 0.622375
0.494843 0.925171 0.750092
0.478821 0.916565 0.783844
0.469482 0.90744 0.813293
0.476532 0.910583 0.815094
0.575378 0.933838 0.720062
0.792938 0.932312 0.662964
0.959442 0.910797 0.657074
0.999969 0.908417 0.590698
0.999969 0.905518 0.580811
0 0.243805 0.352173
0 0.246216 0.355408
0 0.265961 0.381683
0 0.265991 0.378998
0 0.281982 0.418457
0.213379 0.287384 0.512207
0.64502 0.325592 0.513519
0.73111 0.338989 0.541351
0.73111 0.338989 0.541351
0 0.243805 0.352173
0 0.243805 0.352173
0 0.263123 0.377747
0 0.266418 0.37973
0 0.280731 0.413757
0.205078 0.287231 0.511932
0.660828 0.327942 0.515839
0.73111 0.338989 0.541351
0.73111 0.338989 0.541351
0 0.275421 0.394928
0 0.275574 0.395264
0 0.286926 0.410675
0 0.287323 0.40863
0 0.298706 0.450409
0.280579 0.301788 0.547241
0.698181 0.33728 0.555054
0.733368 0.343048 0.567749
0.733368 0.342987 0.567291
0 0.302429 0.4328
0 0.30423 0.434937
0 0.316742 0.450958
0 0.324097 0.462463
0 0.338226 0.508484
0.065521 0.320221 0.63028
0.681061 0.357178 0.634644
0.713715 0.364502 0.647827
0.713837 0.36438 0.647552
0 0.372314 0.516388
0 0.378387 0.524536
0 0.392517 0.541901
0 0.401642 0.559448
0 0.431091 0.625031
0 0.423645 0.741913
0.608887 0.429626 0.73175
0.700256 0.447296 0.753632
0.700348 0.447571 0.753815
0 0.504669 0.681396
0 0.512268 0.690979
0 0.522308 0.702332
0 0.529572 0.714417
0 0.545013 0.762848
0.234711 0.591858 0.862366
0.653046 0.577118 0.799713
0.791809 0.590881 0.810181
0.792236 0.591492 0.810394
0 0.671265 0.878632
0 0.684509 0.891235
0 0.69989 0.904266
0.000092 0.70871 0.909668
0.188232 0.718292 0.919556
0.493744 0.741272 0.89682
0.792084 0.79071 0.836639
0.882507 0.788239 0.845306
0.882416 0.78775 0.845276
0.389587 0.839447 0.951904
0.389587 0.839447 0.951904
0.387451 0.839142 0.952087
0.377747 0.835236 0.953369
0.489227 0.843384 0.946075
0.661743 0.868622 0.920319
0.833801 0.907043 0.873718
0.946686 0.921143 0.868622
0.946686 0.921143 0.868622
0.389587 0.839447 0.951904
0.389587 0.839447 0.951904
0.387634 0.839172 0.952087
0.373627 0.835083 0.953705
0.458466 0.84082 0.947601
0.614532 0.861328 0.927673
0.799713 0.896851 0.877625
0.947479 0.920776 0.860046
0.953583 0.920776 0.854858
0 0.243805 0.352173
0 0.245209 0.354065
0 0.265045 0.380524
0 0.266174 0.379303
0 0.281158 0.4151
0.180115 0.286835 0.510559
0.640686 0.324951 0.512909
0.73111 0.338989 0.541351
0.73111 0.338989 0.541351
0 0.243805 0.352173
0 0.243805 0.352173
0 0.262421 0.376892
0 0.266754 0.38031
0 0.280121 0.411774
0.182098 0.286865 0.510651
0.658356 0.327576 0.515503
0.73111 0.338989 0.541351
0.73111 0.338989 0.541351
0 0.275208 0.394501
0 0.275391 0.394806
0 0.286377 0.409851
0 0.286987 0.408081
0 0.298218 0.448212
0.264648 0.300842 0.546997
0.696808 0.336884 0.553284
0.733337 0.342926 0.566986
0.733337 0.342896 0.566681
0 0.301514 0.431732
0 0.303375 0.433929
0 0.31604 0.450134
0 0.323395 0.461517
0 0.337463 0.506927
0.057495 0.31958 0.628601
0.681641 0.35675 0.633575
0.714081 0.364075 0.646912
0.714172 0.363983 0.646667
0 0.370697 0.514221
0 0.376953 0.522644
0 0.391266 0.540283
0 0.400787 0.558289
0 0.430054 0.623383
0 0.423065 0.740662
0.60849 0.428986 0.731201
0.700043 0.446594 0.753113
0.700165 0.446991 0.753387
0 0.503571 0.680023
0 0.51123 0.689667
0 0.521332 0.70108
0 0.528595 0.713196
0 0.544403 0.761993
0.232574 0.59137 0.862366
0.651917 0.576447 0.799561
0.791199 0.589935 0.809906
0.791595 0.590546 0.810089
0 0.670441 0.877838
0 0.683502 0.890259
0 0.6987 0.903381
0.000061 0.707642 0.908905
0.185608 0.717773 0.919373
0.491669 0.74054 0.896851
0.79071 0.789795 0.836487
0.882263 0.786926 0.845215
0.881805 0.784576 0.845001
0.389587 0.839447 0.951904
0.389587 0.839447 0.951904
0.387543 0.839142 0.952087
0.377563 0.835236 0.953369
0.48761 0.843231 0.946167
0.657471 0.86795 0.921082
0.827728 0.905487 0.874451
0.946686 0.921143 0.868622
0.946289 0.920563 0.868591
0.389587 0.839447 0.951904
0.389587 0.839447 0.951904
0.388214 0.839233 0.952026
0.37204 0.834991 0.953827
0.45517 0.840607 0.947723
0.610138 0.860657 0.928284
0.796875 0.895782 0.878082
0.94104 0.919922 0.86908
0.946686 0.921143 0.868622
