luts_externos/iwltbap/free-named-looks/IWLTBAP Arapaho - V-Log.cube
# Copyright: (C) Copyright 2010-2017 by IWLTBAP SAS
# Cannot be resold, shared or otherwise redistributed
# Website: https://luts.iwltbap.com
TITLE "IWLTBAP Arapaho (V-Log)"
LUT_3D_SIZE 9
0.000000 0.000000 0.000000
0.000000 0.000000 0.000000
0.017639 0.000000 0.000000
0.129913 0.018127 0.000000
0.296082 0.056854 0.000000
0.505890 0.061768 0.000000
0.796082 0.129425 0.094116
0.820099 0.149017 0.117645
0.835297 0.156860 0.121582
0.000000 0.000000 0.000000
0.003937 0.000000 0.000000
0.051483 0.010773 0.000000
0.161285 0.030884 0.000000
0.307343 0.056854 0.000000
0.515198 0.064209 0.000000
0.799011 0.129425 0.094116
0.823517 0.149506 0.117645
0.835297 0.156860 0.121582
0.062744 0.072540 0.000000
0.074005 0.075500 0.000000
0.151947 0.076477 0.000000
0.225006 0.060303 0.000000
0.336273 0.065674 0.000000
0.533813 0.069611 0.000000
0.802948 0.128418 0.090210
0.824005 0.149017 0.111267
0.839203 0.156860 0.117645
0.156372 0.146088 0.007843
0.163727 0.148529 0.007843
0.197052 0.152466 0.000000
0.312744 0.136780 0.000000
0.411285 0.116669 0.000000
0.573029 0.095581 0.000000
0.811279 0.123535 0.079895
0.827942 0.143616 0.102448
0.843140 0.152954 0.109802
0.321564 0.260773 0.000000
0.325500 0.266174 0.001953
0.346069 0.272552 0.000000
0.393127 0.284302 0.000000
0.605896 0.274506 0.000000
0.721558 0.219604 0.000000
0.834320 0.175476 0.041168
0.849030 0.209808 0.086273
0.860779 0.217651 0.094116
0.596069 0.466675 0.062256
0.596069 0.469116 0.066162
0.601471 0.473053 0.066162
0.614227 0.478424 0.055878
0.672058 0.498535 0.023529
0.904907 0.503418 0.000000
0.997559 0.424500 0.067657
0.992645 0.464203 0.166168
0.997559 0.475494 0.174011
0.858826 0.823517 0.234314
0.855896 0.822540 0.230377
0.856873 0.822540 0.227448
0.861755 0.825500 0.220093
0.874512 0.829407 0.196075
0.944122 0.835297 0.146088
1.000000 0.802948 0.156860
1.000000 0.823517 0.343140
1.000000 0.819611 0.359802
0.886780 0.867157 0.306366
0.886261 0.867157 0.302460
0.886261 0.867157 0.298035
0.886780 0.867157 0.290192
0.896088 0.866669 0.265198
0.959320 0.867157 0.242645
1.000000 0.852448 0.205383
1.000000 0.878418 0.482849
1.000000 0.871063 0.475494
0.905884 0.886261 0.329407
0.905884 0.886261 0.325500
0.905884 0.886261 0.321564
0.905884 0.886261 0.313721
0.913727 0.886261 0.292145
0.976959 0.883820 0.269623
1.000000 0.868622 0.254913
1.000000 0.894104 0.524994
1.000000 0.890198 0.517639
0.000000 0.000000 0.000000
0.000000 0.000000 0.000000
0.024994 0.000000 0.003418
0.125000 0.016663 0.000000
0.301971 0.047546 0.000000
0.513245 0.067657 0.006378
0.796082 0.139709 0.108337
0.823029 0.156860 0.125977
0.835297 0.164703 0.132843
0.000000 0.003418 0.003937
0.000000 0.007843 0.011261
0.032349 0.019104 0.015198
0.148529 0.037262 0.002441
0.307343 0.058838 0.000000
0.519104 0.069611 0.006378
0.799988 0.139709 0.105896
0.824005 0.157349 0.128937
0.835297 0.164703 0.132843
0.054413 0.075500 0.011261
0.058838 0.082855 0.015198
0.146088 0.087250 0.000000
0.213226 0.072540 0.000488
0.338226 0.065674 0.000000
0.536285 0.068146 0.001465
0.804901 0.136261 0.102448
0.824005 0.156860 0.125000
0.839203 0.164215 0.129425
0.145111 0.149994 0.025482
0.148529 0.156372 0.025970
0.178436 0.157349 0.009308
0.321564 0.147552 0.000000
0.409790 0.122559 0.000000
0.573029 0.093628 0.000000
0.811279 0.131378 0.093140
0.827454 0.154907 0.116180
0.839203 0.162750 0.124023
0.314209 0.264709 0.019104
0.318146 0.268616 0.021088
0.336273 0.275482 0.003937
0.388733 0.288239 0.000000
0.613220 0.282349 0.000000
0.717651 0.223053 0.000000
0.831360 0.173523 0.047058
0.845093 0.206360 0.100006
0.858826 0.213715 0.105896
0.588226 0.466675 0.077454
0.589691 0.470581 0.081360
0.596069 0.474518 0.079407
0.612732 0.479401 0.063721
0.670105 0.498535 0.029907
0.908813 0.506866 0.000000
0.996582 0.425995 0.078430
0.990204 0.471558 0.177460
0.995087 0.479401 0.186768
0.851959 0.823517 0.252441
0.850983 0.823517 0.249512
0.850983 0.823517 0.242645
0.854889 0.826477 0.235291
0.870575 0.829407 0.207367
0.941162 0.835297 0.149994
1.000000 0.803925 0.166656
1.000000 0.824524 0.362732
1.000000 0.823029 0.375977
0.882843 0.867157 0.314209
0.882355 0.870575 0.317169
0.882355 0.870575 0.310791
0.882843 0.867157 0.302460
0.892151 0.866669 0.278442
0.957855 0.867157 0.253937
1.000000 0.855377 0.216675
1.000000 0.881866 0.494110
1.000000 0.875000 0.487244
0.901947 0.886261 0.337250
0.901947 0.886261 0.337250
0.898529 0.886261 0.333832
0.901947 0.886261 0.325500
0.909790 0.886261 0.303925
0.974518 0.886261 0.280884
1.000000 0.868622 0.263733
1.000000 0.898041 0.533325
1.000000 0.894104 0.529419
0.000000 0.002930 0.029419
0.000000 0.006866 0.033813
0.021576 0.014709 0.045105
0.145599 0.030396 0.042145
0.313721 0.049011 0.013733
0.519104 0.078918 0.023041
0.799988 0.148041 0.120575
0.824005 0.167633 0.140198
0.835297 0.172546 0.144104
0.000000 0.018127 0.045105
0.000000 0.026459 0.059814
0.025482 0.033813 0.064209
0.160797 0.046082 0.056854
0.321075 0.053925 0.014221
0.528442 0.081360 0.025482
0.803925 0.150970 0.121582
0.830383 0.169128 0.141174
0.839203 0.175476 0.145111
0.000000 0.075500 0.094116
0.000000 0.079407 0.101959
0.010773 0.091187 0.113739
0.157349 0.092163 0.084808
0.324524 0.077454 0.026459
0.544128 0.082855 0.025482
0.806854 0.149994 0.119598
0.831360 0.168640 0.140198
0.842163 0.172546 0.144104
0.109314 0.168640 0.053925
0.109314 0.172546 0.053925
0.116669 0.184326 0.061768
0.290680 0.168152 0.019623
0.398041 0.149506 0.016174
0.573517 0.090698 0.000000
0.811279 0.144104 0.110291
0.827942 0.167145 0.132843
0.839203 0.171570 0.139709
0.284302 0.265686 0.068634
0.287262 0.269623 0.069611
0.301971 0.281372 0.074524
0.385773 0.299500 0.000488
0.658813 0.321564 0.002930
0.718628 0.232849 0.003418
0.823517 0.154907 0.055878
0.839691 0.211761 0.123535
0.854889 0.221558 0.132355
0.575012 0.466675 0.102936
0.575012 0.470581 0.106873
0.582855 0.474518 0.104401
0.604889 0.482361 0.083832
0.666168 0.500488 0.040192
0.920593 0.520599 0.000000
0.994110 0.430878 0.092163
0.983826 0.482361 0.193146
0.992645 0.491669 0.200989
0.845093 0.826477 0.270599
0.844116 0.826477 0.268616
0.845093 0.826477 0.263733
0.850494 0.826477 0.252930
0.863739 0.829407 0.222534
0.940186 0.835297 0.153931
1.000000 0.807831 0.181366
1.000000 0.828430 0.375000
1.000000 0.824524 0.387268
0.878418 0.867157 0.322052
0.875000 0.870575 0.325989
0.875000 0.871063 0.325989
0.878418 0.870575 0.318146
0.886780 0.867157 0.293640
0.953918 0.867157 0.270599
1.000000 0.855896 0.228912
1.000000 0.882843 0.506866
1.000000 0.878937 0.502441
0.898041 0.886261 0.345093
0.894104 0.886261 0.348541
0.894104 0.890198 0.349030
0.898041 0.890198 0.341187
0.905884 0.886261 0.316681
0.969116 0.886261 0.296570
1.000000 0.868622 0.275482
1.000000 0.901947 0.549011
1.000000 0.898041 0.545105
0.000000 0.033813 0.080872
0.000000 0.033813 0.087250
0.000000 0.045593 0.099030
0.125977 0.057343 0.099030
0.320099 0.072540 0.069611
0.530884 0.094116 0.050995
0.799988 0.161285 0.136261
0.824005 0.178925 0.155396
0.835297 0.184326 0.159302
0.000000 0.049011 0.102448
0.000000 0.052948 0.107361
0.000000 0.060791 0.121063
0.140686 0.071564 0.111755
0.328918 0.079895 0.075500
0.538239 0.098053 0.052460
0.807831 0.165192 0.140198
0.831360 0.182831 0.159302
0.843140 0.188232 0.163239
0.000000 0.091675 0.149017
0.000000 0.095093 0.153442
0.000000 0.103912 0.169128
0.146576 0.099518 0.142639
0.336761 0.099518 0.094116
0.554413 0.101959 0.056366
0.814697 0.166168 0.142639
0.835785 0.184326 0.159302
0.847046 0.190674 0.167145
0.000000 0.172058 0.211273
0.000000 0.175995 0.215210
0.000000 0.182831 0.225983
0.068634 0.179901 0.207367
0.303925 0.162262 0.150970
0.559326 0.136780 0.071564
0.818634 0.175476 0.148041
0.839203 0.189209 0.161774
0.847046 0.193146 0.168152
0.215210 0.286774 0.112732
0.216675 0.290680 0.112732
0.220093 0.297058 0.118622
0.285797 0.308319 0.136261
0.567169 0.315186 0.049988
0.695587 0.280396 0.065186
0.818634 0.158325 0.098053
0.831848 0.215698 0.161285
0.845093 0.223541 0.165192
0.545593 0.466675 0.147064
0.545593 0.466675 0.148041
0.552460 0.470581 0.146576
0.574005 0.484802 0.151947
0.658325 0.511261 0.089203
0.946564 0.558838 0.013733
0.989716 0.445099 0.134796
0.975006 0.495087 0.211761
0.985291 0.502441 0.218628
0.835297 0.823517 0.287750
0.833832 0.826477 0.288727
0.835297 0.827454 0.288727
0.839203 0.827454 0.279419
0.854889 0.830383 0.249512
0.935303 0.835785 0.157837
1.000000 0.814209 0.211273
1.000000 0.836761 0.394623
1.000000 0.832855 0.404419
0.867157 0.870575 0.336273
0.866669 0.871063 0.341187
0.866669 0.874512 0.343628
0.868622 0.874512 0.339691
0.878937 0.870575 0.318146
0.946075 0.868134 0.287750
1.000000 0.863220 0.274994
1.000000 0.890198 0.530396
1.000000 0.882843 0.528442
0.887756 0.890198 0.359314
0.886261 0.890198 0.363220
0.886261 0.892639 0.364716
0.890198 0.894104 0.363220
0.898041 0.890198 0.341675
0.964203 0.886261 0.311279
1.000000 0.875488 0.320587
1.000000 0.909790 0.572540
1.000000 0.905884 0.572540
0.000000 0.078430 0.139221
0.000000 0.082367 0.143127
0.000000 0.086273 0.152954
0.000000 0.094116 0.180389
0.292145 0.117645 0.147064
0.558838 0.118622 0.087250
0.805878 0.181366 0.165680
0.829407 0.198029 0.182343
0.841187 0.205872 0.190186
0.000000 0.097534 0.162262
0.000000 0.101471 0.166168
0.000000 0.104889 0.174011
0.000000 0.109314 0.199524
0.305389 0.127441 0.156860
0.576477 0.125000 0.095093
0.812744 0.185303 0.169617
0.835785 0.203918 0.186768
0.847046 0.209808 0.194122
0.000000 0.125488 0.195099
0.000000 0.129913 0.202454
0.000000 0.138245 0.216675
0.000000 0.136261 0.232361
0.329407 0.145111 0.173523
0.601471 0.131866 0.103424
0.819611 0.189209 0.173523
0.841187 0.206360 0.190186
0.852936 0.213715 0.198029
0.000000 0.166168 0.238739
0.000000 0.170105 0.242645
0.000000 0.175476 0.251953
0.000000 0.193634 0.289703
0.337250 0.185791 0.214691
0.613739 0.167633 0.132355
0.825500 0.198517 0.181854
0.843628 0.212250 0.196564
0.854889 0.220093 0.201965
0.000000 0.301971 0.349030
0.000000 0.305878 0.354889
0.000000 0.313721 0.363739
0.011780 0.331848 0.376465
0.274506 0.321564 0.323517
0.573517 0.298523 0.256866
0.827454 0.285309 0.233337
0.847046 0.296082 0.247559
0.858826 0.303925 0.254913
0.466675 0.473541 0.253937
0.468628 0.475983 0.253937
0.474030 0.477448 0.253937
0.489227 0.481384 0.258331
0.580872 0.510284 0.235779
0.853912 0.549500 0.186768
0.958832 0.503418 0.222046
0.949005 0.520111 0.253418
0.959320 0.527954 0.261261
0.815674 0.827454 0.324524
0.815674 0.828430 0.326477
0.816681 0.831360 0.324524
0.820587 0.833344 0.320587
0.839203 0.834320 0.328430
0.913727 0.839691 0.233337
1.000000 0.828430 0.298035
1.000000 0.849030 0.440186
1.000000 0.845093 0.446075
0.849518 0.876465 0.373047
0.849518 0.878937 0.376953
0.849518 0.880402 0.378937
0.853424 0.880402 0.375000
0.867157 0.878418 0.376953
0.926971 0.871063 0.331360
1.000000 0.870087 0.336761
1.000000 0.898041 0.586761
1.000000 0.892151 0.582855
0.872559 0.896088 0.394104
0.870575 0.898041 0.398041
0.870575 0.899994 0.399994
0.872559 0.899994 0.398041
0.886261 0.898041 0.399994
0.946564 0.890198 0.354889
1.000000 0.884308 0.377441
1.000000 0.917633 0.617645
1.000000 0.911774 0.617645
0.000000 0.153442 0.235779
0.000000 0.155884 0.237732
0.000000 0.155884 0.239716
0.000000 0.161285 0.256378
0.106873 0.163727 0.277466
0.554413 0.187256 0.164703
0.826965 0.207855 0.191162
0.843628 0.222534 0.206848
0.850983 0.228912 0.214691
0.000000 0.163239 0.247070
0.000000 0.163727 0.249512
0.000000 0.163727 0.251465
0.000000 0.171082 0.267639
0.103424 0.171082 0.288727
0.562256 0.191162 0.172546
0.830872 0.212738 0.194611
0.847534 0.226471 0.210785
0.854401 0.232849 0.220093
0.000000 0.174500 0.262268
0.000000 0.175476 0.264709
0.000000 0.179413 0.268616
0.000000 0.184814 0.285309
0.089691 0.182343 0.307831
0.575500 0.199005 0.176483
0.837738 0.219116 0.200500
0.850983 0.230377 0.218140
0.856384 0.238220 0.227936
0.000000 0.202454 0.295593
0.000000 0.203918 0.298035
0.000000 0.204895 0.300476
0.000000 0.216675 0.320099
0.049988 0.213715 0.355377
0.581848 0.222046 0.212738
0.841675 0.223541 0.208832
0.850983 0.244598 0.233337
0.858826 0.251465 0.243622
0.000000 0.287750 0.397064
0.000000 0.291656 0.402466
0.000000 0.294128 0.407349
0.000000 0.299988 0.419617
0.000000 0.318146 0.485291
0.562744 0.303925 0.340210
0.826477 0.311768 0.304413
0.839691 0.315674 0.310303
0.845581 0.323517 0.322052
0.013245 0.521576 0.612244
0.011261 0.521576 0.614716
0.006866 0.525482 0.622559
0.023529 0.530396 0.625000
0.188721 0.541656 0.623535
0.559814 0.538727 0.536285
0.844116 0.531372 0.488220
0.858826 0.523041 0.486755
0.870575 0.526947 0.484314
0.765198 0.851471 0.418640
0.763733 0.851471 0.417145
0.763733 0.853424 0.415680
0.767639 0.852936 0.411774
0.785797 0.852936 0.424988
0.855377 0.849518 0.459808
1.000000 0.836761 0.363220
1.000000 0.852936 0.468628
1.000000 0.850006 0.477448
0.794128 0.901459 0.466675
0.794128 0.901459 0.462738
0.794617 0.901459 0.462250
0.796570 0.899994 0.457367
0.809326 0.899506 0.463226
0.875977 0.886780 0.496582
1.000000 0.884308 0.436279
1.000000 0.898529 0.614716
1.000000 0.894623 0.611267
0.813721 0.920593 0.485779
0.813721 0.920593 0.483337
0.813721 0.920593 0.481873
0.817657 0.919128 0.477936
0.829407 0.919128 0.482361
0.894104 0.905884 0.516174
1.000000 0.896576 0.463226
1.000000 0.917633 0.640686
1.000000 0.913727 0.640686
0.000000 0.249023 0.359802
0.000000 0.250000 0.359802
0.000000 0.249023 0.359802
0.000000 0.247070 0.359314
0.000000 0.254913 0.388245
0.368134 0.266663 0.390198
0.741180 0.312744 0.408813
0.774017 0.323517 0.440674
0.789215 0.327454 0.451965
0.000000 0.256378 0.367645
0.000000 0.256378 0.368622
0.000000 0.253937 0.367157
0.000000 0.254913 0.368134
0.000000 0.258820 0.395599
0.362732 0.266663 0.400970
0.741180 0.316681 0.419617
0.773529 0.324524 0.448029
0.786285 0.328430 0.458832
0.000000 0.264709 0.379425
0.000000 0.264709 0.381378
0.000000 0.265686 0.382355
0.000000 0.261780 0.379425
0.000000 0.264709 0.404907
0.342163 0.270599 0.424988
0.741180 0.319611 0.435303
0.771576 0.328430 0.460785
0.786285 0.331360 0.470581
0.000000 0.266663 0.385773
0.000000 0.269104 0.388245
0.000000 0.272064 0.393127
0.000000 0.282837 0.405396
0.000000 0.286285 0.432831
0.286285 0.280396 0.483337
0.741180 0.323517 0.454895
0.773041 0.337738 0.489227
0.788239 0.341675 0.498535
0.000000 0.316681 0.446075
0.000000 0.318634 0.448029
0.000000 0.319611 0.449005
0.000000 0.320587 0.449524
0.000000 0.340210 0.498047
0.138245 0.322052 0.598053
0.737244 0.346069 0.540192
0.771088 0.363739 0.558838
0.786285 0.367645 0.564697
0.000000 0.476471 0.648529
0.000000 0.476471 0.648529
0.000000 0.476959 0.650970
0.000000 0.476959 0.650970
0.000000 0.480896 0.659790
0.006378 0.508820 0.784302
0.741180 0.473541 0.721558
0.764709 0.462250 0.706848
0.783813 0.466187 0.710297
0.220581 0.806854 0.933319
0.212738 0.806854 0.933319
0.201965 0.806854 0.933319
0.197540 0.806854 0.933319
0.268616 0.805878 0.928436
0.482849 0.825989 0.912262
0.920593 0.875488 0.828430
0.934326 0.875488 0.828430
0.938232 0.876465 0.828430
0.351959 0.847046 0.940186
0.348053 0.847046 0.940186
0.343140 0.847046 0.940186
0.338226 0.847046 0.940186
0.366669 0.850494 0.936279
0.534302 0.867157 0.909302
0.929413 0.906860 0.808838
0.967651 0.906860 0.805878
0.975494 0.906860 0.801971
0.417633 0.869598 0.937256
0.413727 0.869598 0.937256
0.408813 0.869598 0.937256
0.404907 0.869598 0.937256
0.432343 0.871582 0.932343
0.575012 0.889221 0.900482
0.941162 0.921570 0.803925
0.975983 0.921570 0.804901
0.980377 0.921570 0.800995
0.000000 0.266663 0.380402
0.000000 0.266663 0.380402
0.000000 0.266663 0.380402
0.000000 0.270599 0.386780
0.000000 0.284302 0.423523
0.157837 0.283813 0.508820
0.707855 0.330383 0.498047
0.733337 0.337738 0.545593
0.745087 0.341187 0.557343
0.000000 0.270599 0.388245
0.000000 0.270599 0.388733
0.000000 0.274017 0.388733
0.000000 0.276947 0.394623
0.000000 0.286774 0.427460
0.138733 0.283813 0.520111
0.708344 0.330383 0.509308
0.729889 0.341187 0.552948
0.744598 0.341187 0.561279
0.000000 0.274506 0.392639
0.000000 0.277466 0.396088
0.000000 0.281372 0.400482
0.000000 0.282349 0.402954
0.000000 0.293152 0.438232
0.103912 0.287750 0.535309
0.711761 0.334320 0.520599
0.729401 0.341187 0.565186
0.741180 0.345093 0.575500
0.000000 0.274506 0.396088
0.000000 0.278442 0.396576
0.000000 0.282349 0.403931
0.000000 0.296570 0.424500
0.000000 0.308319 0.457855
0.053925 0.299500 0.566681
0.711273 0.334320 0.534790
0.723541 0.349030 0.591187
0.734802 0.352936 0.602448
0.000000 0.335297 0.470581
0.000000 0.336761 0.472534
0.000000 0.335297 0.471558
0.000000 0.327454 0.464203
0.000000 0.350983 0.511780
0.009308 0.335297 0.634308
0.699524 0.354401 0.615204
0.709808 0.374512 0.652954
0.721558 0.378418 0.660797
0.000000 0.483337 0.654907
0.000000 0.483337 0.654907
0.000000 0.483337 0.654907
0.000000 0.480896 0.653442
0.000000 0.480896 0.656860
0.000000 0.501953 0.778931
0.681854 0.470093 0.754425
0.715698 0.476959 0.758820
0.733826 0.480896 0.762756
0.192169 0.789703 0.946075
0.175995 0.789215 0.946075
0.161285 0.789215 0.946075
0.148529 0.789215 0.946075
0.182343 0.788727 0.942169
0.407349 0.798523 0.933319
0.902954 0.872559 0.852448
0.910797 0.869598 0.852936
0.914703 0.869598 0.855896
0.334320 0.827454 0.949005
0.326477 0.827454 0.949005
0.319611 0.827454 0.949005
0.310791 0.827454 0.949005
0.326477 0.823517 0.949005
0.498535 0.837250 0.935791
0.871582 0.900482 0.862244
0.941162 0.909790 0.858826
0.945099 0.909790 0.858826
0.392151 0.847046 0.952942
0.384796 0.846558 0.952942
0.380402 0.843140 0.952942
0.376465 0.843140 0.952942
0.386261 0.843140 0.952942
0.539703 0.860291 0.935791
0.877441 0.921570 0.858337
0.949005 0.921570 0.854889
0.956848 0.921570 0.854889
0.000000 0.270599 0.388245
0.000000 0.270599 0.388245
0.000000 0.270599 0.385284
0.000000 0.274506 0.390686
0.000000 0.288239 0.427460
0.093628 0.286285 0.520599
0.700012 0.330383 0.517639
0.725983 0.341187 0.560791
0.737244 0.345093 0.572540
0.000000 0.274506 0.392151
0.000000 0.277954 0.396088
0.000000 0.277954 0.396088
0.000000 0.281860 0.402466
0.000000 0.292145 0.431366
0.081360 0.287750 0.529419
0.700012 0.334320 0.528931
0.725494 0.341187 0.568634
0.737244 0.345093 0.580383
0.000000 0.278442 0.399994
0.000000 0.282349 0.403442
0.000000 0.286285 0.407837
0.000000 0.286285 0.410309
0.000000 0.298035 0.443146
0.059326 0.291656 0.543152
0.700012 0.334320 0.541168
0.722046 0.345093 0.580872
0.734314 0.345093 0.592163
0.000000 0.279907 0.401459
0.000000 0.282349 0.403931
0.000000 0.286285 0.411774
0.000000 0.300476 0.432343
0.000000 0.312256 0.463226
0.022064 0.303436 0.570587
0.702942 0.337250 0.555389
0.713715 0.351471 0.608337
0.726959 0.352936 0.618134
0.000000 0.339203 0.472534
0.000000 0.339203 0.476471
0.000000 0.339203 0.476471
0.000000 0.332855 0.472046
0.000000 0.354889 0.515686
0.004425 0.341187 0.632355
0.682343 0.357849 0.634308
0.696075 0.376465 0.668640
0.709808 0.382355 0.674500
0.000000 0.483337 0.653442
0.000000 0.483337 0.653442
0.000000 0.483337 0.653442
0.000000 0.480896 0.650970
0.000000 0.480896 0.655396
0.000000 0.504425 0.776459
0.656372 0.470093 0.761261
0.692657 0.476959 0.766663
0.719604 0.483337 0.773041
0.179413 0.781372 0.943146
0.159790 0.778442 0.943146
0.141174 0.778442 0.943146
0.122559 0.777466 0.946075
0.154907 0.777466 0.946075
0.399506 0.790680 0.937256
0.896088 0.872559 0.856873
0.903442 0.866669 0.856873
0.910797 0.866669 0.860779
0.315186 0.820099 0.952942
0.307831 0.819611 0.952942
0.300476 0.816162 0.952942
0.291168 0.816162 0.952942
0.307343 0.816162 0.952942
0.486755 0.829407 0.943634
0.867157 0.893616 0.866669
0.933319 0.906372 0.866669
0.937744 0.909790 0.870575
0.388245 0.839203 0.952942
0.380890 0.839203 0.952942
0.376465 0.839203 0.952942
0.372559 0.839203 0.956848
0.380402 0.835297 0.954895
0.534302 0.852448 0.939697
0.871582 0.915680 0.870575
0.941162 0.921570 0.870575
0.949005 0.921570 0.870575
