luts_externos/iwltbap/free-named-looks/IWLTBAP Arapaho - LOG.cube
# Copyright: (C) Copyright 2010-2017 by IWLTBAP SAS for SmallHD
# Cannot be resold, shared or otherwise redistributed
# Website: https://luts.iwltbap.com
TITLE "IWLTBAP Arapaho (LOG)"
#LUT size
LUT_3D_SIZE 5
#LUT data points
0 0 0
0.144409 0.021271 0
0.479156 0.068665 0
0.789001 0.110901 0.030945
0.835083 0.128326 0.046387
0.121368 0.109711 0
0.199493 0.100281 0
0.490997 0.088501 0
0.824524 0.12738 0.036957
0.846436 0.139771 0.046143
0.484283 0.365356 0
0.519012 0.389557 0.002899
0.689209 0.364807 0
0.946533 0.343384 0.043549
0.979736 0.37149 0.064301
0.829498 0.736023 0.131805
0.849548 0.767609 0.135071
0.892395 0.769745 0.122406
0.999969 0.740845 0
0.999969 0.7099 0.028992
0.939178 0.881012 0.232666
0.938568 0.880829 0.230377
0.974396 0.880585 0.221619
0.999878 0.900208 0.196899
0.999878 0.848724 0.211212
0 0.040588 0.090912
0.096619 0.062134 0.115265
0.495361 0.071045 0.009277
0.785828 0.107574 0.039551
0.835693 0.128998 0.053589
0 0.126404 0.162781
0.031097 0.13736 0.165466
0.495331 0.091949 0.006927
0.827454 0.131012 0.062317
0.845123 0.142761 0.070282
0.492645 0.368591 0.000122
0.52066 0.39743 0.013611
0.691711 0.374054 0.005981
0.951355 0.355194 0.059509
0.978241 0.38208 0.0849
0.834839 0.74472 0.133362
0.855042 0.776184 0.136261
0.899323 0.778534 0.125122
0.999969 0.748779 0
0.999969 0.719208 0.04126
0.939117 0.88089 0.231873
0.937683 0.88092 0.231964
0.973724 0.880707 0.22345
0.999878 0.900238 0.197021
0.999878 0.848724 0.211212
0 0.165833 0.250763
0 0.171509 0.258118
0.421906 0.198822 0.225098
0.810364 0.194794 0.180237
0.842896 0.214966 0.199432
0 0.178009 0.266571
0 0.187775 0.279327
0.433472 0.21936 0.250488
0.847015 0.224365 0.207245
0.860046 0.233978 0.21814
0 0.405975 0.485687
0 0.433319 0.51825
0.450592 0.444031 0.439209
0.847107 0.448425 0.34848
0.88028 0.463348 0.358795
0.777405 0.737762 0.27533
0.791107 0.768433 0.290222
0.845947 0.785706 0.301575
0.999969 0.759399 0.130646
0.999969 0.731445 0.196381
0.900879 0.885803 0.339935
0.894592 0.886871 0.348877
0.934967 0.88855 0.349579
0.999878 0.903839 0.296753
0.999908 0.854248 0.283997
0 0.243805 0.352173
0 0.266785 0.38266
0 0.27478 0.416412
0.685211 0.317596 0.433685
0.761353 0.325653 0.447815
0 0.271912 0.390625
0 0.285461 0.408936
0 0.294373 0.447845
0.718384 0.334076 0.516205
0.742645 0.339813 0.539429
0 0.374207 0.519684
0 0.391846 0.541931
0 0.427551 0.624847
0.68985 0.426666 0.701416
0.743958 0.444214 0.721008
0.16394 0.730164 0.859589
0.170105 0.750549 0.882355
0.34137 0.765472 0.877747
0.851257 0.804901 0.776245
0.92514 0.814697 0.784821
0.494843 0.925171 0.750092
0.469482 0.90744 0.813293
0.575378 0.933838 0.720062
0.959442 0.910797 0.657074
0.999969 0.905518 0.580811
0 0.243805 0.352173
0 0.265045 0.380524
0 0.281158 0.4151
0.640686 0.324951 0.512909
0.73111 0.338989 0.541351
0 0.275208 0.394501
0 0.286377 0.409851
0 0.298218 0.448212
0.696808 0.336884 0.553284
0.733337 0.342896 0.566681
0 0.370697 0.514221
0 0.391266 0.540283
0 0.430054 0.623383
0.60849 0.428986 0.731201
0.700165 0.446991 0.753387
0 0.670441 0.877838
0 0.6987 0.903381
0.185608 0.717773 0.919373
0.79071 0.789795 0.836487
0.881805 0.784576 0.845001
0.389587 0.839447 0.951904
0.388214 0.839233 0.952026
0.45517 0.840607 0.947723
0.796875 0.895782 0.878082
0.946686 0.921143 0.868622
