luts_externos/iwltbap/free-named-looks/IWLTBAP Arapaho - LOG.cube
# Copyright: (C) Copyright 2010-2017 by IWLTBAP SAS for SmallHD
# Cannot be resold, shared or otherwise redistributed
# Website: https://luts.iwltbap.com
TITLE "IWLTBAP Arapaho (LOG)"
#LUT size
LUT_3D_SIZE 33
#LUT data points
0 0 0
0 0 0
0 0 0
0.000305 0 0
0.001648 0 0
0.021027 0 0
0.051575 0.002808 0
0.093445 0.0112 0
0.144409 0.021271 0
0.194214 0.031342 0
0.23822 0.039276 0
0.279114 0.04599 0
0.316467 0.048798 0
0.356537 0.052917 0
0.398529 0.057953 0
0.439545 0.063446 0
0.479156 0.068665 0
0.517029 0.073364 0
0.556671 0.077637 0
0.597015 0.080811 0
0.639282 0.085846 0.000702
0.677704 0.092651 0.00885
0.715149 0.099152 0.019043
0.747742 0.104797 0.025604
0.789001 0.110901 0.030945
0.825226 0.122192 0.041565
0.835083 0.128326 0.046387
0.835083 0.128326 0.046387
0.835083 0.128326 0.046387
0.835083 0.128326 0.046387
0.835083 0.128326 0.046387
0.835083 0.128326 0.046387
0.835083 0.128326 0.046387
0 0 0
0 0 0
0 0 0
0 0 0
0.001221 0 0
0.013763 0 0
0.041687 0.001709 0
0.078918 0.008301 0
0.125549 0.017273 0
0.177734 0.028137 0
0.222748 0.036377 0
0.264984 0.044067 0
0.302185 0.047668 0
0.340332 0.051147 0
0.381104 0.055664 0
0.420319 0.060944 0
0.460999 0.066132 0
0.498108 0.071136 0
0.53833 0.075684 0
0.57959 0.07959 0
0.622314 0.083405 0
0.663605 0.090057 0.005157
0.701813 0.096863 0.015533
0.737488 0.102905 0.024597
0.770599 0.108765 0.027771
0.819611 0.118683 0.038818
0.835083 0.128326 0.046387
0.835083 0.128326 0.046387
0.835083 0.128326 0.046387
0.835083 0.128326 0.046387
0.835083 0.128326 0.046387
0.835083 0.128326 0.046387
0.835083 0.128326 0.046387
0 0.000549 0
0 0.000275 0
0.000031 0 0
0 0 0
0.000763 0 0
0.0065 0 0
0.031647 0.00058 0
0.066528 0.005737 0
0.110352 0.014404 0
0.162903 0.025208 0
0.207825 0.033783 0
0.25 0.041565 0
0.28775 0.046844 0
0.324005 0.0495 0
0.364624 0.053802 0
0.405945 0.05899 0
0.447723 0.064453 0
0.487091 0.069763 0
0.527435 0.074493 0
0.569275 0.078735 0
0.612213 0.082062 0
0.655609 0.088623 0.003418
0.694855 0.095673 0.01358
0.732391 0.102051 0.023346
0.764221 0.107941 0.026825
0.816925 0.117004 0.037506
0.835083 0.128326 0.046387
0.835083 0.128326 0.046387
0.835083 0.128326 0.046387
0.835083 0.128326 0.046387
0.835083 0.128326 0.046387
0.835083 0.128326 0.046387
0.835083 0.128326 0.046387
0 0.003998 0
0 0.00354 0
0 0.003143 0
0.006104 0.002838 0
0.016418 0.003815 0
0.028351 0.004852 0
0.044922 0.007385 0
0.070831 0.010406 0
0.10318 0.014557 0
0.147217 0.022156 0
0.194611 0.031586 0
0.237885 0.039215 0
0.278564 0.045929 0
0.316132 0.048767 0
0.35675 0.052917 0
0.399353 0.058075 0
0.441742 0.063721 0
0.482513 0.069153 0
0.522949 0.074005 0
0.565643 0.07843 0
0.609253 0.081665 0
0.653778 0.088318 0.003113
0.694275 0.095581 0.013397
0.733826 0.102295 0.023712
0.766144 0.108246 0.027008
0.817596 0.117432 0.037842
0.835083 0.128326 0.046387
0.835083 0.128326 0.046387
0.835083 0.128326 0.046387
0.835083 0.128326 0.046387
0.835083 0.128326 0.046387
0.835083 0.128326 0.046387
0.835083 0.128326 0.046387
0.018829 0.030151 0
0.014709 0.024567 0
0.010956 0.01947 0
0.015045 0.015533 0
0.022949 0.013245 0
0.045166 0.012543 0
0.061768 0.013611 0
0.088745 0.020752 0
0.119293 0.024292 0
0.156799 0.02829 0
0.19873 0.034973 0
0.238953 0.040161 0
0.279846 0.0466 0
0.317535 0.049225 0
0.358429 0.053192 0
0.401215 0.05835 0
0.444183 0.064026 0
0.485382 0.06955 0
0.526947 0.074463 0
0.570221 0.078796 0
0.614655 0.082397 0
0.659271 0.089264 0.003998
0.700562 0.096649 0.015167
0.740601 0.103455 0.025055
0.777252 0.109558 0.028931
0.821625 0.119934 0.039825
0.835083 0.128326 0.046387
0.835083 0.128326 0.046387
0.835083 0.128326 0.046387
0.835083 0.128326 0.046387
0.835083 0.128326 0.046387
0.835083 0.128326 0.046387
0.835083 0.128326 0.046387
0.04129 0.057556 0
0.036438 0.054016 0
0.030914 0.046539 0
0.033142 0.041687 0
0.039642 0.039337 0
0.057098 0.035583 0
0.084839 0.03183 0
0.109253 0.032715 0
0.14151 0.036072 0
0.181641 0.040741 0
0.216034 0.046082 0
0.25119 0.048645 0
0.28772 0.051819 0
0.324036 0.053101 0
0.364624 0.055481 0
0.407684 0.05954 0
0.450684 0.065002 0
0.490997 0.070312 0
0.53302 0.075165 0
0.576447 0.079376 0
0.621307 0.083282 0
0.665039 0.090302 0.005524
0.707489 0.097839 0.01709
0.747681 0.104797 0.025604
0.789093 0.110931 0.030945
0.825958 0.12265 0.041931
0.835083 0.128326 0.046387
0.835083 0.128326 0.046387
0.835083 0.128326 0.046387
0.835083 0.128326 0.046387
0.835083 0.128326 0.046387
0.835083 0.128326 0.046387
0.835083 0.128326 0.046387
0.06366 0.073212 0
0.05899 0.069946 0
0.054901 0.067078 0
0.055176 0.066223 0
0.063568 0.066254 0
0.076996 0.065796 0
0.102783 0.060181 0
0.132416 0.053711 0
0.163361 0.048828 0
0.198883 0.05127 0
0.229492 0.054779 0
0.263306 0.059326 0
0.299377 0.061157 0
0.337555 0.06311 0
0.379425 0.064148 0
0.423218 0.064026 0
0.463715 0.067383 0
0.500183 0.072052 0
0.541809 0.076477 0
0.58493 0.080658 0
0.628876 0.0849 0
0.67157 0.09201 0.006531
0.715424 0.099609 0.018677
0.755737 0.106689 0.02597
0.801514 0.113312 0.033112
0.831024 0.126343 0.044067
0.83606 0.129486 0.046539
0.836029 0.129425 0.046539
0.835999 0.129364 0.046509
0.835938 0.129303 0.046509
0.835876 0.129242 0.046509
0.835815 0.129181 0.046509
0.835754 0.12912 0.046478
0.092957 0.090729 0
0.088715 0.088379 0
0.085297 0.086487 0
0.084259 0.085815 0
0.090027 0.087433 0
0.100616 0.089386 0
0.119019 0.09021 0
0.153534 0.082245 0
0.183716 0.070068 0
0.219391 0.062683 0
0.246307 0.066254 0
0.276398 0.07074 0
0.310944 0.07486 0
0.349731 0.076508 0
0.393768 0.076904 0
0.438477 0.07312 0
0.479614 0.071991 0
0.515625 0.074799 0
0.556152 0.079285 0
0.600891 0.084503 0
0.643402 0.089478 0
0.682953 0.096008 0.006775
0.729126 0.103333 0.020782
0.767639 0.110504 0.025879
0.816284 0.118866 0.035522
0.838867 0.133362 0.046295
0.840302 0.134308 0.047119
0.840118 0.134155 0.04715
0.839935 0.133942 0.047119
0.839813 0.133789 0.047089
0.839661 0.133606 0.047058
0.839508 0.133423 0.047058
0.839386 0.133301 0.047028
0.121368 0.109711 0
0.119019 0.107758 0
0.117432 0.106445 0
0.117188 0.106201 0
0.120331 0.107758 0
0.129333 0.110413 0
0.142578 0.112823 0
0.166626 0.114502 0
0.199493 0.100281 0
0.231476 0.08493 0
0.26358 0.078827 0
0.291504 0.082092 0
0.32489 0.087463 0
0.360901 0.092163 0
0.402344 0.09491 0
0.446838 0.092468 0
0.490997 0.088501 0
0.535431 0.08551 0
0.57666 0.086792 0
0.614777 0.091949 0
0.657013 0.096893 0
0.695923 0.101105 0.006622
0.742065 0.108582 0.020538
0.783356 0.115631 0.025909
0.824524 0.12738 0.036957
0.846741 0.141266 0.0466
0.84668 0.141052 0.046539
0.846649 0.140839 0.046478
0.846619 0.140625 0.046387
0.846558 0.140411 0.046326
0.846527 0.140167 0.046234
0.846466 0.139954 0.046173
0.846436 0.139771 0.046143
0.147736 0.131805 0
0.145813 0.130157 0
0.144958 0.129456 0
0.145477 0.129883 0
0.148499 0.131866 0
0.157562 0.134491 0
0.170044 0.136658 0
0.189819 0.138428 0
0.213257 0.137024 0
0.243439 0.118927 0
0.278076 0.104736 0
0.31073 0.097198 0
0.343262 0.099976 0
0.378571 0.105103 0
0.415466 0.110291 0
0.456055 0.114563 0
0.498627 0.113525 0
0.544922 0.111481 0
0.593262 0.109436 0
0.636169 0.107666 0
0.678955 0.108063 0
0.715179 0.112457 0.005402
0.753204 0.116516 0.019531
0.796814 0.124084 0.025787
0.829163 0.139709 0.039978
0.848297 0.153687 0.05072
0.848267 0.153381 0.050598
0.848267 0.153137 0.050537
0.848236 0.152893 0.050446
0.848206 0.152557 0.050323
0.848206 0.152313 0.050262
0.848175 0.152069 0.050171
0.848175 0.151886 0.05011
0.181702 0.157318 0
0.17981 0.156006 0
0.179535 0.155823 0
0.180725 0.156647 0
0.184143 0.158875 0
0.191406 0.161926 0
0.205811 0.165375 0
0.222473 0.16745 0
0.241577 0.167419 0
0.265625 0.163239 0
0.294342 0.14151 0
0.330414 0.127686 0
0.364594 0.118988 0
0.402832 0.119934 0
0.437195 0.124481 0
0.476379 0.130127 0
0.5159 0.135681 0
0.557556 0.138367 0
0.60437 0.140198 0
0.648773 0.140991 0
0.690735 0.140167 0
0.730377 0.140839 0.003296
0.76712 0.138824 0.019165
0.806061 0.14502 0.02948
0.836395 0.16333 0.042328
0.856171 0.17807 0.053772
0.856293 0.177704 0.053955
0.85611 0.177216 0.053925
0.855988 0.176819 0.053894
0.855743 0.17627 0.053833
0.855591 0.175781 0.053802
0.855408 0.175354 0.053741
0.855225 0.174866 0.053711
0.219666 0.18573 0
0.218475 0.184784 0
0.218567 0.184875 0
0.219879 0.185883 0
0.223114 0.188354 0
0.228485 0.191437 0
0.24234 0.196259 0
0.25766 0.200348 0
0.277313 0.201904 0
0.295135 0.199646 0
0.318512 0.194641 0
0.350739 0.168945 0
0.38797 0.155396 0
0.429352 0.144867 0
0.469116 0.142426 0
0.503571 0.146759 0
0.54303 0.15213 0
0.585175 0.15683 0
0.625977 0.163208 0
0.665253 0.169983 0
0.704346 0.173309 0
0.742889 0.175629 0.000732
0.777557 0.175018 0.013947
0.81546 0.180389 0.028107
0.846832 0.197083 0.041504
0.868439 0.213104 0.052277
0.870148 0.214111 0.053223
0.869904 0.213593 0.053253
0.86972 0.213226 0.053284
0.869446 0.212585 0.053345
0.869232 0.212128 0.053375
0.869019 0.21167 0.053436
0.868774 0.211121 0.053467
0.262604 0.218353 0
0.261383 0.217468 0
0.261749 0.217743 0
0.263672 0.219116 0
0.267731 0.222015 0
0.272736 0.225037 0
0.284332 0.229614 0
0.299713 0.234833 0
0.314209 0.237671 0
0.334076 0.237946 0
0.351501 0.234802 0
0.376129 0.230438 0
0.414001 0.200653 0
0.456329 0.185699 0
0.503113 0.172668 0
0.543091 0.166382 0
0.576233 0.170319 0
0.614594 0.176392 0
0.655457 0.183228 0
0.692474 0.190979 0
0.726929 0.198944 0
0.761841 0.207733 0.005066
0.793945 0.210571 0.015381
0.829987 0.215485 0.027527
0.862427 0.230927 0.041656
0.884399 0.24646 0.053345
0.888489 0.249115 0.055603
0.888306 0.24881 0.055542
0.888184 0.248596 0.055511
0.88797 0.24823 0.05545
0.887756 0.247833 0.055389
0.887573 0.247528 0.055328
0.88736 0.247131 0.055267
0.311951 0.252502 0
0.310883 0.251801 0
0.311737 0.25235 0
0.313904 0.253784 0
0.318512 0.256836 0
0.323242 0.259766 0
0.331848 0.263519 0
0.346649 0.268921 0
0.359802 0.272949 0
0.373596 0.274414 0
0.394806 0.273071 0
0.412567 0.272369 0
0.440277 0.267334 0
0.482605 0.238129 0
0.531525 0.221375 0
0.575562 0.206085 0
0.616577 0.196777 0
0.649872 0.198761 0
0.684814 0.205841 0
0.720612 0.212677 0
0.755707 0.220093 0
0.787048 0.230499 0.010925
0.820496 0.241364 0.02298
0.850464 0.249542 0.03421
0.880829 0.264465 0.047913
0.901886 0.280762 0.059082
0.908386 0.285278 0.062469
0.908386 0.285217 0.062439
0.908203 0.284943 0.062408
0.908051 0.284668 0.062378
0.907837 0.284332 0.062347
0.907745 0.284149 0.062317
0.907532 0.283813 0.062256
0.365356 0.287628 0
0.364349 0.286987 0
0.365326 0.287628 0
0.368286 0.289459 0
0.373596 0.292694 0
0.378571 0.295715 0
0.384674 0.299286 0
0.397919 0.305084 0
0.411041 0.309113 0
0.422455 0.311249 0
0.439087 0.31131 0
0.456482 0.310669 0
0.478882 0.313019 0
0.508759 0.308441 0
0.553162 0.280792 0
0.604736 0.261047 0
0.644562 0.24295 0
0.684814 0.23291 0
0.718994 0.22998 0
0.749664 0.237854 0
0.781311 0.245361 0.002747
0.814453 0.254395 0.013062
0.846283 0.265533 0.025116
0.878326 0.27832 0.034973
0.905365 0.293518 0.047455
0.924683 0.310059 0.058563
0.932098 0.31662 0.063202
0.932037 0.316559 0.063202
0.931915 0.316467 0.063232
0.931885 0.316406 0.063232
0.931702 0.316223 0.063263
0.931458 0.315979 0.063293
0.931274 0.315796 0.063293
0.425873 0.325073 0
0.425079 0.324554 0
0.426422 0.325439 0
0.429779 0.327576 0
0.435272 0.331116 0
0.440247 0.33432 0
0.445251 0.337463 0
0.454437 0.343018 0
0.465332 0.349121 0
0.475128 0.350525 0
0.488464 0.351776 0
0.505951 0.352386 0
0.521606 0.352631 0
0.549408 0.358063 0
0.575928 0.351379 0
0.623749 0.322144 0
0.670471 0.302765 0
0.709381 0.284363 0
0.745575 0.27124 0
0.778534 0.264343 0
0.805328 0.271057 0.004333
0.836029 0.280518 0.014618
0.869904 0.291473 0.021667
0.900238 0.30304 0.030548
0.927948 0.317841 0.042786
0.948273 0.33548 0.055481
0.95752 0.343994 0.061615
0.95752 0.343994 0.061615
0.95752 0.343994 0.061615
0.95755 0.344055 0.061615
0.957489 0.343964 0.061615
0.957336 0.34375 0.061584
0.957184 0.343567 0.061584
0.484283 0.365356 0
0.483795 0.365021 0
0.485321 0.366119 0
0.488434 0.368378 0
0.493622 0.372345 0.000519
0.498322 0.375946 0.000977
0.502411 0.378967 0.001404
0.509491 0.383484 0.001923
0.519012 0.389557 0.002899
0.525848 0.392181 0.003174
0.536407 0.394318 0.00351
0.553314 0.396851 0.002167
0.570038 0.397827 0.000732
0.583618 0.398193 0.000336
0.61319 0.406097 0.000366
0.639252 0.397919 0.005524
0.689209 0.364807 0
0.729279 0.345642 0
0.766876 0.32547 0
0.799622 0.31073 0
0.829193 0.302368 0
0.859406 0.306702 0.006012
0.887939 0.317932 0.02359
0.920258 0.330414 0.030579
0.946533 0.343384 0.043549
0.968018 0.361206 0.056671
0.979797 0.371582 0.064331
0.979858 0.371674 0.064331
0.979889 0.371735 0.064331
0.979919 0.371765 0.064331
0.979889 0.371735 0.064331
0.979858 0.371674 0.064331
0.979736 0.37149 0.064301
0.538788 0.40799 0.010284
0.538391 0.407623 0.010071
0.539917 0.408936 0.010864
0.54306 0.41156 0.012451
0.547821 0.415588 0.014862
0.551941 0.419037 0.016937
0.555328 0.421844 0.018585
0.56015 0.425323 0.020172
0.567108 0.429596 0.021301
0.572723 0.432495 0.022064
0.579071 0.433868 0.021362
0.592834 0.437134 0.017395
0.610962 0.440033 0.00885
0.626434 0.441376 0.003754
0.640381 0.443176 0.000885
0.67337 0.453644 0
0.696289 0.441559 0.001221
0.748627 0.410522 0
0.783813 0.389008 0
0.819061 0.368347 0
0.850006 0.353363 0
0.880127 0.343933 0
0.91214 0.345581 0.00708
0.938904 0.357941 0.032501
0.968079 0.373352 0.044769
0.98764 0.39032 0.060028
0.996307 0.401154 0.068512
0.996338 0.401276 0.068512
0.996399 0.401367 0.068542
0.996429 0.401459 0.068542
0.99646 0.40152 0.068542
0.996429 0.401489 0.068542
0.996399 0.401398 0.068542
0.585419 0.4487 0.034302
0.58551 0.448761 0.034332
0.587006 0.450104 0.035126
0.589752 0.452576 0.036346
0.594086 0.456451 0.038086
0.597839 0.459839 0.039612
0.600769 0.462463 0.040802
0.603973 0.465179 0.041443
0.609283 0.468689 0.040741
0.615204 0.471649 0.038239
0.619995 0.472961 0.036072
0.630493 0.47522 0.030731
0.64621 0.478607 0.022217
0.664154 0.482025 0.01239
0.677216 0.483582 0.007721
0.693665 0.487946 0.003662
0.728027 0.498718 0
0.749817 0.484772 0
0.801392 0.455811 0
0.835938 0.430756 0
0.868256 0.41272 0
0.898865 0.397614 0
0.931488 0.387451 0
0.963867 0.386353 0.01239
0.984955 0.399872 0.036896
0.998688 0.418457 0.057373
0.999878 0.431427 0.06958
0.999969 0.431946 0.069946
0.999969 0.432068 0.069946
0.999969 0.432251 0.069916
0.999969 0.43222 0.069916
0.999969 0.432251 0.069916
0.999969 0.432251 0.069916
0.629852 0.488861 0.051178
0.630127 0.489136 0.051239
0.631561 0.490417 0.051666
0.634399 0.493011 0.052521
0.638733 0.497009 0.053833
0.642517 0.500488 0.054962
0.645477 0.503174 0.055786
0.648407 0.505707 0.055817
0.652405 0.50882 0.054138
0.656921 0.512024 0.051514
0.662231 0.514221 0.049835
0.669525 0.515778 0.045319
0.680664 0.518585 0.039642
0.697205 0.522736 0.030396
0.716492 0.527466 0.018311
0.729309 0.529938 0.014374
0.746643 0.536011 0.011932
0.780151 0.547668 0.000092
0.803894 0.533356 0
0.855347 0.505096 0
0.88913 0.481079 0
0.916107 0.460693 0
0.948303 0.443848 0
0.982025 0.429169 0
0.998657 0.427765 0.010315
0.999969 0.444214 0.039825
0.999969 0.458618 0.057434
0.999969 0.460602 0.059845
0.999969 0.460754 0.059692
0.999969 0.460938 0.05954
0.999969 0.460938 0.05954
0.999969 0.461029 0.059448
0.999969 0.461029 0.059448
0.675354 0.530396 0.063171
0.675781 0.530792 0.063293
0.677551 0.53241 0.063751
0.680725 0.535339 0.064606
0.685455 0.539734 0.065887
0.689606 0.543549 0.067017
0.692749 0.546448 0.067841
0.695679 0.549042 0.068237
0.699249 0.551483 0.066589
0.703522 0.553986 0.062744
0.707672 0.557098 0.063171
0.712799 0.559204 0.06192
0.721344 0.561371 0.056885
0.734589 0.564911 0.049683
0.752838 0.569977 0.036163
0.770294 0.574921 0.025543
0.782043 0.577972 0.023773
0.798584 0.584229 0.019836
0.830933 0.596191 0.000763
0.855103 0.582001 0
0.906128 0.553589 0
0.941589 0.531952 0
0.967072 0.508362 0
0.99295 0.485962 0
0.999878 0.47052 0
0.999969 0.473175 0.006653
0.999969 0.486542 0.025238
0.999969 0.490631 0.029877
0.999969 0.490875 0.029602
0.999969 0.490967 0.02948
0.999969 0.49115 0.029266
0.999969 0.491302 0.029114
0.999969 0.491272 0.029144
0.721771 0.574799 0.07843
0.722015 0.575073 0.078552
0.723969 0.577057 0.079376
0.727051 0.58017 0.080658
0.731415 0.584595 0.08252
0.734833 0.588989 0.084747
0.737274 0.592133 0.086304
0.739502 0.594971 0.087646
0.742126 0.597748 0.08725
0.74527 0.600037 0.08371
0.74823 0.602112 0.082214
0.751526 0.603943 0.082184
0.757538 0.605774 0.07962
0.769928 0.609283 0.071777
0.785339 0.613129 0.059723
0.80368 0.618683 0.046051
0.820984 0.623901 0.036194
0.832947 0.626617 0.033142
0.848694 0.632233 0.02829
0.879913 0.64389 0.006775
0.903656 0.631256 0
0.956482 0.599304 0
0.986725 0.578186 0
0.997528 0.551514 0
0.999969 0.528442 0
0.999969 0.519043 0
0.999969 0.526672 0.000549
0.999969 0.531342 0.002472
0.999969 0.531647 0.002411
0.999969 0.532074 0.00235
0.999969 0.532227 0.002319
0.999969 0.532471 0.002289
0.999969 0.53244 0.002289
0.75946 0.622681 0.101349
0.759735 0.623138 0.101562
0.760986 0.625275 0.10257
0.763092 0.628815 0.104218
0.766022 0.633759 0.106537
0.768738 0.638306 0.108673
0.770874 0.641907 0.110352
0.772705 0.644989 0.111786
0.774475 0.647491 0.111267
0.776123 0.648895 0.107422
0.778137 0.650513 0.105682
0.780609 0.652191 0.106018
0.785187 0.654694 0.10556
0.79422 0.657135 0.101227
0.808167 0.661072 0.092316
0.827698 0.664917 0.077942
0.849121 0.670074 0.063019
0.867737 0.674408 0.050873
0.87973 0.675537 0.046478
0.894775 0.67984 0.042358
0.927643 0.692535 0.021454
0.950836 0.67807 0.000427
0.993835 0.64389 0
0.999878 0.624573 0
0.999908 0.596069 0
0.999939 0.575867 0
0.999969 0.58078 0
0.999969 0.584686 0
0.999969 0.585114 0
0.999969 0.585632 0
0.999969 0.585815 0
0.999969 0.585968 0
0.999969 0.586151 0
0.79126 0.675049 0.121613
0.791718 0.675812 0.121857
0.793213 0.678192 0.12262
0.795868 0.682404 0.12326
0.799835 0.68866 0.124176
0.803314 0.694122 0.124969
0.805969 0.698303 0.12558
0.808319 0.702026 0.126129
0.810211 0.704681 0.125275
0.811249 0.705139 0.120697
0.81308 0.705902 0.116821
0.81604 0.708618 0.118469
0.818268 0.709778 0.119629
0.824005 0.711212 0.119263
0.833374 0.711884 0.116974
0.847229 0.713776 0.111633
0.866974 0.716492 0.101257
0.890137 0.721344 0.087463
0.911163 0.724884 0.071777
0.923981 0.725128 0.065552
0.939301 0.728241 0.061981
0.973785 0.739227 0.037476
0.992554 0.719849 0.001251
0.999939 0.69104 0
0.999908 0.674286 0
0.999847 0.646606 0
0.999847 0.639679 0
0.999817 0.641418 0
0.999817 0.642181 0
0.999817 0.642578 0
0.999817 0.642944 0
0.999817 0.642944 0
0.999817 0.64328 0
0.829498 0.736023 0.131805
0.830139 0.737061 0.131989
0.83194 0.73999 0.132507
0.834808 0.744629 0.133331
0.838654 0.750885 0.13446
0.842163 0.756348 0.135132
0.84494 0.760559 0.135437
0.847504 0.764404 0.135712
0.849548 0.767609 0.135071
0.850311 0.768677 0.130798
0.85022 0.766998 0.124359
0.854218 0.770447 0.125793
0.856506 0.771667 0.127319
0.860382 0.771271 0.127899
0.868866 0.770996 0.126862
0.879303 0.770416 0.125275
0.892395 0.769745 0.122406
0.910065 0.770752 0.121124
0.931702 0.772583 0.113953
0.956116 0.77594 0.09613
0.969299 0.775421 0.09079
0.983551 0.777985 0.085236
0.99884 0.787384 0.060486
0.999969 0.766327 0.001953
0.999969 0.740845 0
0.999969 0.722137 0
0.999939 0.70816 0.004578
0.999969 0.707947 0.02655
0.999969 0.708618 0.027405
0.999969 0.709259 0.028198
0.999969 0.709381 0.028351
0.999969 0.709839 0.0289
0.999969 0.7099 0.028992
0.868652 0.796295 0.138763
0.869537 0.797607 0.139069
0.871521 0.800598 0.13974
0.874573 0.805176 0.140747
0.87851 0.811096 0.142059
0.881989 0.816315 0.143219
0.884705 0.820404 0.144135
0.887207 0.824188 0.144958
0.889221 0.827393 0.144867
0.890015 0.828674 0.144318
0.889099 0.828369 0.140656
0.892944 0.830231 0.144135
0.895386 0.830811 0.145752
0.898102 0.829987 0.144348
0.904877 0.829315 0.142853
0.913879 0.828247 0.140564
0.925873 0.827057 0.137634
0.939484 0.825714 0.135162
0.956665 0.822693 0.134949
0.974609 0.82074 0.130554
0.993256 0.821991 0.119232
0.998016 0.821869 0.112823
0.999878 0.829041 0.10318
0.999878 0.834686 0.078033
0.999908 0.811218 0.000793
0.999969 0.78479 0.008942
0.999969 0.768585 0.042755
0.999969 0.766083 0.084686
0.999969 0.766785 0.088135
0.999969 0.767365 0.088715
0.999969 0.767548 0.088928
0.999969 0.7677 0.089081
0.999969 0.767944 0.089355
0.906128 0.845734 0.172333
0.907227 0.846954 0.174103
0.909485 0.849396 0.177704
0.912537 0.852722 0.182617
0.916168 0.856659 0.188721
0.918396 0.859009 0.192932
0.920197 0.860901 0.19635
0.921936 0.862732 0.199707
0.923309 0.86441 0.201813
0.923676 0.865692 0.200775
0.92337 0.866241 0.197449
0.92691 0.867889 0.201477
0.92926 0.868561 0.204468
0.9328 0.868317 0.204254
0.940552 0.867584 0.201935
0.950531 0.866913 0.199921
0.961609 0.866028 0.196442
0.976868 0.865112 0.194489
0.987579 0.863251 0.191437
0.996857 0.861786 0.189178
0.999817 0.861816 0.185211
0.999786 0.862427 0.181641
0.999786 0.867371 0.169647
0.999786 0.877808 0.150238
0.999786 0.865662 0.101471
0.999878 0.834442 0.06665
0.999908 0.812195 0.124268
0.999908 0.811157 0.150391
0.999908 0.811646 0.15509
0.999908 0.81192 0.15567
0.999908 0.812256 0.156342
0.999908 0.812347 0.156464
0.999908 0.812317 0.156433
0.932007 0.873413 0.218964
0.933075 0.874542 0.221008
0.934784 0.876343 0.224274
0.937073 0.878754 0.228607
0.939178 0.881012 0.232666
0.939178 0.881012 0.232666
0.939178 0.881012 0.232666
0.939178 0.881012 0.232666
0.938751 0.88089 0.23114
