luts_externos/iwltbap/free-named-looks/IWLTBAP Arapaho - V-Log.cube
# Copyright: (C) Copyright 2010-2017 by IWLTBAP SAS
# Cannot be resold, shared or otherwise redistributed
# Website: https://luts.iwltbap.com
TITLE "IWLTBAP Arapaho (V-Log)"
LUT_3D_SIZE 33
0.000000 0.000000 0.000000
0.000000 0.000000 0.000000
0.000000 0.000000 0.000000
0.000000 0.000000 0.000000
0.000000 0.000000 0.000000
0.000000 0.000000 0.000000
0.000000 0.000000 0.000000
0.003052 0.000000 0.000000
0.017639 0.000000 0.000000
0.039825 0.000000 0.000000
0.062988 0.002686 0.000000
0.092651 0.010406 0.000000
0.129913 0.018127 0.000000
0.170837 0.028198 0.000000
0.211029 0.037506 0.000000
0.253540 0.049133 0.000000
0.296082 0.056854 0.000000
0.340454 0.058838 0.000000
0.392395 0.057098 0.000000
0.446442 0.052582 0.000000
0.505890 0.061768 0.000000
0.578186 0.073273 0.013245
0.655396 0.092651 0.044128
0.732605 0.109192 0.073883
0.796082 0.129425 0.094116
0.811768 0.145111 0.113739
0.815674 0.145844 0.113739
0.816284 0.149017 0.114349
0.820099 0.149017 0.117645
0.823883 0.152954 0.117645
0.827454 0.152954 0.121582
0.831360 0.156860 0.121582
0.835297 0.156860 0.121582
0.000000 0.000000 0.000000
0.000000 0.000000 0.000000
0.000000 0.000000 0.000000
0.000000 0.000000 0.000000
0.000000 0.000000 0.000000
0.003296 0.000000 0.000000
0.003784 0.000000 0.000000
0.010040 0.000000 0.000000
0.024384 0.000000 0.000000
0.043640 0.003784 0.000000
0.069489 0.007721 0.000000
0.096558 0.014343 0.000000
0.133698 0.021942 0.000000
0.174744 0.029785 0.000000
0.214813 0.039703 0.000000
0.255646 0.049133 0.000000
0.298035 0.056854 0.000000
0.344238 0.060669 0.000000
0.392395 0.057098 0.000000
0.448029 0.054901 0.000000
0.507355 0.064087 0.000000
0.578186 0.073273 0.013245
0.655396 0.092651 0.044128
0.732605 0.109192 0.073883
0.796082 0.129425 0.094116
0.811768 0.145111 0.113739
0.815674 0.145844 0.113739
0.816284 0.149017 0.114349
0.820099 0.149506 0.117645
0.823883 0.152954 0.117645
0.827698 0.152954 0.121582
0.831360 0.156860 0.121582
0.835297 0.156860 0.121582
0.000000 0.000000 0.000000
0.000000 0.000000 0.000000
0.000000 0.000000 0.000000
0.000000 0.000000 0.000000
0.000000 0.000000 0.000000
0.006622 0.000000 0.000000
0.011505 0.000000 0.000000
0.014587 0.003052 0.000000
0.029175 0.003937 0.000000
0.051361 0.007599 0.000000
0.074524 0.011505 0.000000
0.104156 0.018250 0.000000
0.138977 0.025726 0.000000
0.180023 0.033447 0.000000
0.218628 0.041412 0.000000
0.257477 0.049133 0.000000
0.299744 0.056854 0.000000
0.344360 0.062744 0.000000
0.394348 0.060791 0.000000
0.448029 0.056488 0.000000
0.509796 0.064209 0.000000
0.582123 0.073273 0.013245
0.655396 0.092651 0.044128
0.732605 0.109192 0.073883
0.796082 0.129425 0.094116
0.811768 0.145111 0.113739
0.815674 0.145844 0.113739
0.819611 0.149017 0.114349
0.820099 0.149506 0.117645
0.823883 0.152954 0.117645
0.827698 0.152954 0.121582
0.831482 0.156860 0.121582
0.835297 0.156860 0.121582
0.000000 0.000000 0.000000
0.000000 0.000000 0.000000
0.000000 0.000000 0.000000
0.003540 0.000000 0.000000
0.003540 0.000000 0.000000
0.006866 0.000000 0.000000
0.018860 0.003174 0.000000
0.022308 0.003540 0.000000
0.036896 0.007477 0.000000
0.059082 0.010651 0.000000
0.082245 0.014465 0.000000
0.111877 0.022186 0.000000
0.145233 0.027069 0.000000
0.183838 0.034912 0.000000
0.220215 0.041412 0.000000
0.259552 0.049133 0.000000
0.301971 0.056854 0.000000
0.346191 0.062744 0.000000
0.396332 0.062744 0.000000
0.450378 0.058838 0.000000
0.511261 0.064209 0.000000
0.582123 0.073273 0.013245
0.659302 0.092651 0.044128
0.732605 0.109192 0.072784
0.799011 0.129425 0.094116
0.811768 0.145111 0.113739
0.815674 0.145844 0.113739
0.819611 0.149017 0.114349
0.823517 0.149506 0.117645
0.823883 0.152954 0.117645
0.827698 0.152954 0.118256
0.831482 0.156860 0.121582
0.835297 0.156860 0.121582
0.000000 0.000000 0.000000
0.000000 0.000000 0.000000
0.000000 0.000000 0.000000
0.003540 0.000000 0.000000
0.003937 0.000000 0.000000
0.010529 0.003296 0.000000
0.029419 0.003937 0.000000
0.036530 0.006989 0.000000
0.051483 0.010773 0.000000
0.073639 0.015198 0.000000
0.096802 0.019104 0.000000
0.126465 0.026093 0.000000
0.161285 0.030884 0.000000
0.192657 0.037628 0.000000
0.229645 0.045349 0.000000
0.264832 0.052582 0.000000
0.307343 0.056854 0.000000
0.351715 0.062744 0.000000
0.400238 0.062744 0.000000
0.453796 0.062256 0.000000
0.515198 0.064209 0.000000
0.586029 0.073273 0.013245
0.659302 0.092651 0.044128
0.736023 0.109192 0.072784
0.799011 0.129425 0.094116
0.812622 0.145111 0.110657
0.815674 0.145844 0.113739
0.819611 0.149017 0.113739
0.823517 0.149506 0.117645
0.827454 0.152954 0.117645
0.827698 0.152954 0.117889
0.831482 0.156860 0.121582
0.835297 0.156860 0.121582
0.003296 0.007233 0.000000
0.003296 0.007233 0.000000
0.006622 0.007233 0.000000
0.006866 0.007233 0.000000
0.010529 0.010529 0.000000
0.024994 0.010529 0.000000
0.040436 0.013733 0.000000
0.059204 0.014221 0.000000
0.074646 0.018005 0.000000
0.097412 0.022919 0.000000
0.119965 0.026825 0.000000
0.149628 0.033325 0.000000
0.180511 0.037140 0.000000
0.208099 0.041534 0.000000
0.239594 0.046448 0.000000
0.273773 0.053070 0.000000
0.311157 0.058197 0.000000
0.355530 0.064575 0.000000
0.405762 0.066681 0.000000
0.458221 0.062744 0.000000
0.517639 0.066040 0.000000
0.589325 0.073273 0.013245
0.663239 0.092651 0.044128
0.736511 0.109192 0.069977
0.799988 0.128418 0.093140
0.812622 0.145111 0.109802
0.816437 0.145844 0.113739
0.819611 0.149017 0.113739
0.823517 0.149017 0.114838
0.827454 0.152954 0.117645
0.831360 0.152954 0.117645
0.831482 0.156860 0.121582
0.835297 0.156860 0.121582
0.018127 0.029175 0.000000
0.018127 0.029175 0.000000
0.022064 0.029175 0.000000
0.022064 0.029175 0.000000
0.029175 0.029419 0.000000
0.033325 0.033081 0.000000
0.062256 0.033081 0.000000
0.081604 0.033081 0.000000
0.097046 0.033081 0.000000
0.116058 0.033447 0.000000
0.136505 0.034546 0.000000
0.164948 0.038483 0.000000
0.193390 0.042389 0.000000
0.220337 0.046326 0.000000
0.250488 0.050232 0.000000
0.282104 0.053070 0.000000
0.318878 0.058838 0.000000
0.363220 0.064575 0.000000
0.411285 0.066681 0.000000
0.462128 0.066681 0.000000
0.522308 0.066681 0.000000
0.591797 0.073273 0.011902
0.665924 0.092651 0.044128
0.739716 0.109192 0.069977
0.802216 0.128418 0.090210
0.812622 0.145111 0.109802
0.816437 0.145111 0.111267
0.820221 0.149017 0.113739
0.823517 0.149017 0.113739
0.827454 0.152954 0.117645
0.831360 0.152954 0.117645
0.835297 0.153076 0.117645
0.838470 0.156860 0.121582
0.036652 0.056244 0.000000
0.040436 0.056244 0.000000
0.040558 0.056244 0.000000
0.044495 0.052338 0.000000
0.047913 0.055756 0.000000
0.055634 0.056244 0.000000
0.067657 0.056366 0.000000
0.108582 0.056244 0.000000
0.124023 0.052338 0.000000
0.139465 0.049255 0.000000
0.162384 0.046204 0.000000
0.185547 0.048767 0.000000
0.208710 0.050110 0.000000
0.231995 0.052460 0.000000
0.258942 0.056244 0.000000
0.289825 0.057953 0.000000
0.326599 0.058838 0.000000
0.367889 0.064575 0.000000
0.417267 0.068390 0.000000
0.469116 0.070587 0.000000
0.526947 0.068146 0.000000
0.596924 0.075012 0.011902
0.669006 0.090820 0.044128
0.742401 0.108093 0.068878
0.802948 0.128418 0.090210
0.814819 0.142883 0.109802
0.816437 0.145111 0.109802
0.820221 0.146576 0.111267
0.824005 0.149017 0.113739
0.827454 0.149384 0.113739
0.831360 0.152954 0.117645
0.835297 0.152954 0.117645
0.839203 0.156860 0.118500
0.062744 0.072540 0.000000
0.063599 0.072540 0.000000
0.063721 0.072540 0.000000
0.067291 0.075500 0.000000
0.074005 0.075500 0.000000
0.078796 0.075867 0.000000
0.089691 0.079407 0.000000
0.102692 0.079407 0.000000
0.151947 0.076477 0.000000
0.170227 0.068756 0.000000
0.185547 0.061035 0.000000
0.205139 0.056854 0.000000
0.225006 0.060303 0.000000
0.244843 0.061768 0.000000
0.269623 0.063965 0.000000
0.300476 0.065674 0.000000
0.336273 0.065674 0.000000
0.375854 0.062744 0.000000
0.423767 0.068390 0.000000
0.473907 0.070587 0.000000
0.533813 0.069611 0.000000
0.603302 0.075867 0.011902
0.672791 0.089966 0.040192
0.746216 0.108093 0.067047
0.802948 0.128418 0.090210
0.815674 0.141174 0.105896
0.819611 0.145111 0.109802
0.820221 0.145111 0.109802
0.824005 0.149017 0.111267
0.827820 0.149017 0.113739
0.831604 0.152954 0.113983
0.835297 0.152954 0.117645
0.839203 0.156860 0.117645
0.089691 0.091919 0.000000
0.089691 0.091919 0.002808
0.090576 0.091919 0.002808
0.090820 0.091919 0.002808
0.098175 0.091919 0.000000
0.105896 0.091919 0.000000
0.109680 0.095825 0.000000
0.117645 0.095825 0.000000
0.140564 0.099640 0.000000
0.190552 0.087982 0.000000
0.208710 0.077454 0.000000
0.225128 0.072296 0.000000
0.244720 0.069489 0.000000
0.263611 0.071808 0.000000
0.285675 0.073395 0.000000
0.312012 0.076233 0.000000
0.348785 0.076233 0.000000
0.387390 0.071564 0.000000
0.432709 0.066681 0.000000
0.480652 0.072174 0.000000
0.541534 0.071930 0.000000
0.607117 0.075867 0.007965
0.677704 0.088715 0.040192
0.750000 0.108093 0.064941
0.805878 0.128418 0.087372
0.815674 0.141174 0.105896
0.819611 0.143005 0.105896
0.823517 0.145111 0.109802
0.824005 0.145599 0.109802
0.827820 0.149017 0.111267
0.831604 0.149261 0.113739
0.835419 0.152954 0.113739
0.839203 0.152954 0.117645
0.113983 0.107361 0.002686
0.113983 0.107361 0.003937
0.113983 0.107361 0.003937
0.115204 0.110046 0.003937
0.121338 0.110046 0.003174
0.126343 0.110657 0.000000
0.133575 0.111267 0.000000
0.140564 0.113983 0.000000
0.152466 0.115204 0.000000
0.176483 0.118866 0.000000
0.225250 0.099518 0.000000
0.244598 0.091797 0.000000
0.263733 0.084076 0.000000
0.281738 0.083832 0.000000
0.304901 0.083832 0.000000
0.331360 0.087738 0.000000
0.362244 0.088959 0.000000
0.401947 0.087738 0.000000
0.445343 0.076477 0.000000
0.487854 0.070587 0.000000
0.546570 0.077209 0.000000
0.614838 0.078552 0.005402
0.684326 0.088715 0.036285
0.755035 0.105255 0.062134
0.807587 0.127441 0.085297
0.815674 0.139343 0.101959
0.819611 0.141174 0.103912
0.823517 0.143005 0.105896
0.827454 0.145111 0.107117
0.830139 0.146698 0.109802
0.831604 0.149017 0.109802
0.835419 0.150360 0.113739
0.839203 0.152954 0.113739
0.133209 0.125366 0.006500
0.133209 0.126709 0.006500
0.133209 0.126709 0.006500
0.134552 0.126709 0.006500
0.140564 0.129303 0.003937
0.148285 0.129303 0.000000
0.153442 0.129303 0.000000
0.161163 0.130646 0.000000
0.171814 0.133209 0.000000
0.187256 0.134552 0.000000
0.213837 0.134186 0.000000
0.262512 0.114960 0.000000
0.285797 0.107239 0.000000
0.304901 0.099518 0.000000
0.326721 0.095337 0.000000
0.353302 0.099274 0.000000
0.384186 0.103180 0.000000
0.416901 0.103180 0.000000
0.458588 0.098419 0.000000
0.504913 0.082977 0.000000
0.548767 0.077087 0.000000
0.621338 0.080994 0.002686
0.690674 0.088715 0.033691
0.761505 0.104156 0.057098
0.809814 0.124512 0.083710
0.816559 0.137268 0.098053
0.819611 0.139343 0.100128
0.823517 0.141174 0.101959
0.827454 0.143005 0.103790
0.831360 0.145111 0.105896
0.835297 0.146698 0.107483
0.837860 0.149017 0.109802
0.841797 0.150360 0.111145
0.156372 0.146088 0.007843
0.156372 0.148529 0.007843
0.156372 0.148529 0.010284
0.156372 0.148529 0.010284
0.163727 0.148529 0.007843
0.171448 0.148529 0.003937
0.179169 0.148529 0.000000
0.185425 0.151581 0.000000
0.197052 0.152466 0.000000
0.211517 0.155273 0.000000
0.228424 0.156372 0.000000
0.255035 0.156128 0.000000
0.312744 0.136780 0.000000
0.338470 0.125122 0.000000
0.357605 0.117401 0.000000
0.383209 0.114716 0.000000
0.411285 0.116669 0.000000
0.444000 0.118622 0.000000
0.478668 0.119354 0.000000
0.521942 0.111633 0.000000
0.573029 0.095581 0.000000
0.619598 0.087250 0.000000
0.694611 0.092651 0.024750
0.766785 0.104156 0.051849
0.811279 0.123535 0.079895
0.816559 0.137268 0.096436
0.820343 0.140442 0.100494
0.824127 0.143616 0.101959
0.827942 0.143616 0.102448
0.831360 0.147552 0.105896
0.835297 0.149261 0.106140
0.839203 0.151459 0.109802
0.843140 0.152954 0.109802
0.188110 0.167755 0.007843
0.188110 0.171570 0.007843
0.188110 0.171692 0.011505
0.188110 0.171692 0.011780
0.193146 0.171692 0.008331
0.200867 0.171692 0.004547
0.208588 0.174011 0.003052
0.216309 0.175598 0.000000
0.224640 0.177948 0.000000
0.238495 0.179535 0.000000
0.253937 0.181854 0.000000
0.269867 0.182098 0.000000
0.303925 0.185425 0.000000
0.371582 0.162262 0.000000
0.398651 0.150604 0.000000
0.420227 0.138489 0.000000
0.450867 0.136383 0.000000
0.477814 0.136383 0.000000
0.512024 0.138000 0.000000
0.548279 0.138000 0.000000
0.597687 0.130280 0.000000
0.647797 0.108215 0.000000
0.694611 0.097534 0.009308
0.770721 0.105377 0.046936
0.812744 0.122192 0.076111
0.819611 0.142029 0.098907
0.821930 0.147430 0.101959
0.825867 0.148041 0.102570
0.829773 0.151337 0.105896
0.831726 0.151703 0.106262
0.835541 0.155273 0.108215
0.839325 0.155273 0.109802
0.843140 0.159180 0.112122
0.225006 0.194855 0.005646
0.225006 0.197052 0.007843
0.225006 0.197052 0.007843
0.225006 0.197052 0.009552
0.226715 0.198761 0.009552
0.233948 0.200989 0.005646
0.241669 0.200989 0.004669
0.249390 0.204895 0.000000
0.257843 0.204895 0.000000
0.269348 0.208832 0.000000
0.284790 0.211517 0.000000
0.300232 0.214966 0.000000
0.318390 0.215210 0.000000
0.354279 0.218506 0.000000
0.439453 0.191437 0.000000
0.474884 0.177704 0.000000
0.497803 0.163971 0.000000
0.525116 0.156006 0.000000
0.551727 0.159546 0.000000
0.589813 0.159546 0.000000
0.628418 0.161041 0.000000
0.673523 0.153442 0.000000
0.722046 0.126953 0.003662
0.774628 0.112000 0.032471
0.812744 0.120575 0.065430
0.820465 0.148163 0.098907
0.824280 0.153442 0.101959
0.827454 0.155762 0.102570
0.831360 0.159058 0.105896
0.835297 0.161285 0.106262
0.839203 0.163239 0.109802
0.843140 0.165192 0.109924
0.847046 0.169128 0.113739
0.269226 0.226105 0.003937
0.271332 0.227936 0.003937
0.271332 0.227936 0.007599
0.271332 0.230011 0.007843
0.271332 0.231384 0.007843
0.275238 0.231873 0.007843
0.280273 0.233948 0.003937
0.287994 0.234924 0.000000
0.297791 0.237854 0.000000
0.306244 0.239716 0.000000
0.317780 0.242401 0.000000
0.333221 0.246216 0.000000
0.355011 0.249634 0.000000
0.372192 0.249878 0.000000
0.416901 0.257111 0.000000
0.520966 0.230011 0.000000
0.559814 0.210785 0.000000
0.578796 0.193390 0.000000
0.606140 0.184814 0.000000
0.636139 0.184814 0.000000
0.673279 0.188721 0.000000
0.709442 0.190063 0.000000
0.749878 0.181366 0.003296
0.794250 0.145477 0.025726
0.815552 0.129425 0.054413
0.822540 0.164215 0.097046
0.826355 0.166168 0.098297
0.830139 0.169373 0.100739
0.833954 0.171448 0.102203
0.837738 0.173279 0.104034
0.841553 0.177216 0.106140
0.845337 0.177338 0.107971
0.849152 0.181122 0.110046
0.321564 0.260773 0.000000
0.323395 0.264709 0.001831
0.323517 0.264709 0.001953
0.325500 0.264709 0.003937
0.325500 0.266174 0.001953
0.329407 0.268616 0.001953
0.330627 0.268616 0.000732
0.338348 0.272552 0.000000
0.346069 0.272552 0.000000
0.353790 0.273407 0.000000
0.365448 0.277191 0.000000
0.377075 0.281006 0.000000
0.393127 0.284302 0.000000
0.412872 0.288239 0.000000
0.434570 0.290436 0.000000
0.488617 0.303680 0.000000
0.605896 0.274506 0.000000
0.640808 0.253418 0.000000
0.662018 0.230133 0.000000
0.691040 0.218018 0.000000
0.721558 0.219604 0.000000
0.755768 0.220947 0.001343
0.790436 0.225494 0.013000
0.825989 0.212372 0.024628
0.834320 0.175476 0.041168
0.836151 0.195831 0.081238
0.841919 0.204651 0.083099
0.845703 0.205872 0.084320
0.849030 0.209808 0.086273
0.852936 0.209808 0.088226
0.856873 0.213715 0.090210
0.858948 0.213715 0.092163
0.860779 0.217651 0.094116
0.389099 0.301239 0.001831
0.389099 0.305145 0.001831
0.389099 0.305145 0.001831
0.389099 0.305145 0.001831
0.393005 0.308563 0.000000
0.394867 0.309082 0.000000
0.396942 0.310425 0.000000
0.399994 0.312988 0.000000
0.403809 0.312988 0.000000
0.411530 0.316925 0.000000
0.418274 0.317780 0.000000
0.429779 0.321564 0.000000
0.443756 0.324768 0.000000
0.461151 0.328674 0.000000
0.482239 0.332611 0.000000
0.505890 0.338837 0.000000
0.565918 0.355652 0.000000
0.685059 0.324768 0.000000
0.719971 0.297913 0.000000
0.742889 0.274506 0.000000
0.772308 0.256989 0.000000
0.800232 0.258087 0.006622
0.837372 0.263245 0.022064
0.869965 0.265930 0.037506
0.874878 0.254913 0.045837
0.870697 0.272675 0.076965
0.877686 0.283447 0.079773
0.881622 0.284546 0.083710
0.885529 0.287140 0.083710
0.889465 0.288483 0.087616
0.891785 0.292389 0.087616
0.893494 0.292389 0.087738
0.897308 0.296326 0.091553
0.460297 0.353180 0.000000
0.460297 0.353180 0.003784
0.460297 0.353180 0.003937
0.462128 0.353180 0.003937
0.462494 0.357117 0.005646
0.466431 0.357117 0.003937
0.469604 0.358582 0.002441
0.471680 0.361023 0.001709
0.474274 0.361023 0.001709
0.479279 0.364960 0.000000
0.484802 0.365936 0.000000
0.490814 0.368866 0.000000
0.499268 0.372803 0.000000
0.514709 0.376709 0.000000
0.536285 0.382843 0.000000
0.557343 0.388489 0.000000
0.577698 0.392883 0.000000
0.641418 0.417145 0.000000
0.756622 0.378418 0.000000
0.793274 0.349762 0.000000
0.814697 0.321075 0.000000
0.846680 0.302582 0.001343
0.881378 0.307831 0.024261
0.917755 0.313354 0.037506
0.922058 0.310059 0.050995
0.911407 0.340576 0.098419
0.918396 0.348297 0.103180
0.921204 0.351471 0.107117
0.922791 0.353180 0.107117
0.926239 0.355774 0.111023
0.930145 0.359314 0.111023
0.934082 0.359436 0.113373
0.936279 0.363220 0.114960
0.531982 0.408813 0.023651
0.531982 0.408813 0.027466
0.531982 0.408813 0.027588
0.531982 0.410797 0.027588
0.531982 0.411163 0.027588
0.535919 0.412750 0.027588
0.535919 0.412750 0.027588
0.538239 0.415070 0.027588
0.541168 0.416656 0.025970
0.544983 0.417877 0.024750
0.549988 0.419006 0.023651
0.553925 0.422913 0.021088
0.558716 0.422913 0.018127
0.567169 0.426849 0.018127
0.584808 0.431366 0.016541
0.606384 0.439087 0.010529
0.629181 0.446442 0.005524
0.647186 0.452698 0.001587
0.710907 0.475128 0.000000
0.830017 0.436279 0.000000
0.864960 0.403931 0.000000
0.889221 0.372925 0.000000
0.925476 0.356628 0.010773
0.960297 0.365204 0.042511
0.963837 0.361755 0.057098
0.953064 0.394745 0.125610
0.956970 0.402466 0.130280
0.959930 0.406250 0.134186
0.960907 0.407227 0.134186
0.964813 0.409912 0.138123
0.965088 0.411163 0.138123
0.968750 0.413605 0.142029
0.972687 0.417389 0.142029
0.596069 0.466675 0.062256
0.596069 0.466675 0.063721
0.596069 0.466675 0.066162
0.596069 0.468750 0.066162
0.596069 0.469116 0.066162
0.596069 0.470581 0.066162
0.600006 0.470581 0.066162
0.600006 0.470581 0.066162
0.601471 0.473053 0.066162
0.603912 0.474518 0.066162
0.607849 0.474518 0.062256
0.610413 0.478424 0.060791
0.614227 0.478424 0.055878
0.621948 0.479279 0.046692
0.632843 0.483093 0.037506
0.648895 0.490814 0.033081
0.672058 0.498535 0.023529
0.696686 0.507721 0.014343
0.718140 0.515930 0.010529
0.780396 0.543884 0.000000
0.904907 0.503418 0.000000
0.936035 0.464813 0.000000
0.966675 0.431122 0.000000
0.992645 0.415680 0.025238
0.997559 0.424500 0.067657
0.986267 0.453430 0.155273
0.990204 0.460541 0.161530
0.990204 0.463715 0.162262
0.992645 0.464203 0.166168
0.992645 0.467651 0.166534
0.995087 0.469116 0.170105
0.995087 0.471558 0.170227
0.997559 0.475494 0.174011
0.663116 0.529785 0.099518
0.663116 0.529785 0.100861
0.663116 0.529785 0.100861
0.663116 0.529785 0.103424
0.663116 0.533691 0.103424
0.664459 0.533691 0.103424
0.664459 0.533691 0.103424
0.666168 0.533691 0.103424
0.667023 0.536652 0.101837
0.669861 0.537628 0.100861
0.670959 0.537628 0.098175
0.674866 0.541534 0.096924
0.678802 0.541534 0.090576
0.685059 0.545471 0.082855
0.692780 0.546814 0.069000
0.703796 0.551483 0.059570
0.721191 0.559204 0.054413
0.744843 0.567413 0.042267
0.775360 0.580261 0.027588
0.796448 0.590698 0.026215
0.853790 0.620941 0.007843
0.978058 0.575500 0.000000
0.994843 0.529175 0.000000
1.000000 0.492645 0.000000
1.000000 0.483459 0.028931
1.000000 0.512268 0.150970
1.000000 0.516663 0.161285
1.000000 0.519226 0.165070
1.000000 0.523163 0.168884
1.000000 0.523163 0.172668
1.000000 0.527069 0.176483
1.000000 0.527069 0.177582
1.000000 0.531006 0.181488
0.734070 0.606873 0.138000
0.734070 0.606873 0.141785
0.734070 0.606873 0.141907
0.734070 0.606873 0.141907
0.734070 0.606873 0.141907
0.734070 0.608948 0.141907
0.734070 0.610779 0.141907
0.734070 0.610779 0.141907
0.734070 0.610779 0.141907
0.734070 0.612366 0.141907
0.736755 0.614716 0.139221
0.737976 0.614716 0.138000
0.741913 0.618622 0.134064
0.744232 0.618622 0.129059
0.751953 0.623535 0.123047
0.762390 0.626465 0.106750
0.770844 0.631134 0.093628
0.790802 0.640686 0.088470
0.815674 0.652191 0.074280
0.847809 0.666412 0.059204
0.879669 0.677704 0.048035
0.927216 0.699402 0.037750
1.000000 0.648773 0.000000
1.000000 0.604645 0.000000
1.000000 0.585541 0.010773
1.000000 0.598785 0.142029
1.000000 0.602692 0.149750
1.000000 0.602692 0.152954
1.000000 0.605377 0.154175
1.000000 0.605377 0.157227
1.000000 0.605377 0.160797
1.000000 0.605377 0.162018
1.000000 0.605377 0.164703
0.798157 0.711761 0.184814
0.798157 0.714447 0.185913
0.798157 0.715698 0.185913
0.798157 0.715698 0.185913
0.798157 0.715698 0.185913
0.798157 0.715698 0.185913
0.798157 0.717773 0.185913
0.799255 0.719604 0.185913
0.799255 0.719604 0.184814
0.800995 0.719604 0.184814
0.802094 0.722412 0.183197
0.802094 0.723541 0.180878
0.806000 0.723541 0.176971
0.807220 0.726349 0.173035
0.811035 0.728546 0.168030
0.816681 0.730255 0.159302
0.823395 0.734192 0.141052
0.834930 0.738861 0.122681
0.854279 0.745453 0.123169
0.878540 0.752075 0.119354
0.913727 0.762634 0.111755
0.955994 0.773163 0.092651
0.989227 0.789215 0.080383
1.000000 0.732605 0.003296
1.000000 0.718384 0.036530
1.000000 0.719604 0.144867
1.000000 0.720703 0.158447
1.000000 0.720093 0.166168
1.000000 0.719604 0.169983
1.000000 0.719604 0.174500
1.000000 0.719604 0.178680
1.000000 0.719604 0.182465
1.000000 0.719604 0.190186
0.858826 0.823517 0.234314
0.856018 0.823517 0.231506
0.855896 0.820587 0.231384
0.855896 0.819611 0.231384
0.855896 0.822540 0.230377
0.854889 0.822540 0.230377
0.854889 0.822540 0.229401
0.854889 0.822540 0.229401
0.856873 0.822540 0.227448
0.858826 0.822540 0.226471
0.858826 0.822540 0.225494
0.858826 0.825500 0.223907
0.861755 0.825500 0.220093
0.862732 0.825500 0.216309
0.865692 0.825500 0.212494
0.869598 0.826599 0.205750
0.874512 0.829407 0.196075
0.882233 0.829285 0.175873
0.895599 0.831360 0.147308
0.913239 0.832977 0.146088
0.944122 0.835297 0.146088
0.975006 0.835297 0.147064
1.000000 0.839691 0.139954
1.000000 0.861267 0.109070
1.000000 0.802948 0.156860
1.000000 0.824524 0.323395
1.000000 0.824524 0.337006
1.000000 0.824524 0.340210
1.000000 0.823517 0.343140
1.000000 0.820587 0.349030
1.000000 0.820587 0.352203
1.000000 0.819611 0.355896
1.000000 0.819611 0.359802
0.871460 0.854889 0.287140
0.871460 0.854889 0.287140
0.871460 0.854889 0.287140
0.871460 0.854889 0.287140
0.871460 0.852325 0.283691
0.871460 0.851837 0.283203
0.871460 0.851837 0.283203
0.871460 0.851837 0.279297
0.871460 0.851837 0.277191
0.871460 0.851837 0.275360
0.871460 0.851837 0.275360
0.871460 0.851837 0.271454
0.873047 0.851837 0.269867
0.875366 0.851837 0.267517
0.875366 0.851837 0.261383
0.879303 0.851837 0.255768
0.883209 0.850983 0.247925
0.888123 0.850983 0.236389
0.901459 0.850983 0.224884
0.919373 0.851837 0.214966
0.946442 0.851837 0.215454
0.978790 0.855774 0.228424
1.000000 0.860046 0.250366
1.000000 0.869720 0.254181
1.000000 0.830261 0.158936
1.000000 0.863617 0.437866
1.000000 0.863617 0.448761
1.000000 0.863617 0.448761
1.000000 0.862732 0.448273
1.000000 0.859680 0.444855
1.000000 0.859436 0.444855
1.000000 0.858826 0.444000
1.000000 0.855774 0.444855
0.878418 0.859558 0.294861
0.878418 0.859558 0.294861
0.875488 0.859558 0.294861
0.875244 0.859558 0.294128
0.875244 0.859558 0.290924
0.875244 0.859558 0.290924
0.875244 0.858826 0.290192
0.875244 0.858826 0.287018
0.875244 0.858826 0.286285
0.875244 0.856750 0.283081
0.875244 0.857605 0.282349
0.875244 0.858826 0.279175
0.878418 0.857117 0.278442
0.879181 0.855652 0.274506
0.880646 0.855652 0.269104
0.883087 0.855652 0.264587
0.888245 0.855652 0.252930
0.892761 0.855652 0.240204
0.906128 0.855652 0.232605
0.927094 0.855652 0.225006
0.951721 0.856384 0.228668
0.985779 0.859558 0.240082
1.000000 0.864716 0.262024
