luts_externos/iwltbap/free-named-looks/IWLTBAP Humble - V-Log.cube
# Copyright: (C) Copyright 2010-2017 by IWLTBAP SAS
# Cannot be resold, shared or otherwise redistributed
# Website: https://luts.iwltbap.com
TITLE "IWLTBAP Humble (V-Log)"
LUT_3D_SIZE 9
0.000000 0.000000 0.000000
0.015198 0.000000 0.000000
0.056854 0.007843 0.000000
0.132843 0.032349 0.000000
0.280396 0.064697 0.000000
0.526947 0.091675 0.000000
0.827454 0.141174 0.000000
0.855377 0.145111 0.000000
0.870575 0.149017 0.000000
0.015198 0.011261 0.000000
0.026459 0.015198 0.000000
0.063721 0.023041 0.003937
0.140198 0.041168 0.000000
0.291656 0.072052 0.000000
0.534790 0.104889 0.000000
0.831360 0.156372 0.000000
0.859314 0.160309 0.000000
0.874512 0.164215 0.000000
0.028442 0.052948 0.010773
0.043640 0.056366 0.009796
0.084320 0.072540 0.010773
0.155884 0.082855 0.015686
0.316681 0.096069 0.000000
0.553436 0.125977 0.000000
0.841187 0.173523 0.000977
0.865692 0.176483 0.003937
0.878418 0.180389 0.003937
0.000000 0.136780 0.093628
0.000000 0.140686 0.087250
0.006378 0.152466 0.071564
0.192657 0.174500 0.051971
0.333344 0.196075 0.068634
0.586273 0.187256 0.000000
0.849030 0.194611 0.000000
0.873535 0.216187 0.002441
0.888733 0.220093 0.000000
0.000000 0.270599 0.170593
0.000000 0.274506 0.166656
0.000000 0.285309 0.149994
0.142639 0.310303 0.153442
0.421570 0.374512 0.152954
0.642639 0.415680 0.154419
0.858826 0.309814 0.000000
0.886261 0.321564 0.001953
0.899994 0.325500 0.001953
0.000000 0.496582 0.303925
0.000000 0.500488 0.298035
0.007355 0.508331 0.288239
0.117157 0.524994 0.269104
0.440674 0.574005 0.302460
0.712738 0.617157 0.306854
0.915192 0.674011 0.335297
0.926971 0.652954 0.354889
0.938721 0.656860 0.352448
0.000000 0.713715 0.450989
0.000000 0.716675 0.448029
0.019623 0.720581 0.447052
0.048035 0.726959 0.441681
0.130402 0.744110 0.425476
0.800995 0.882843 0.534790
0.952942 0.905884 0.617645
0.966187 0.924500 0.738220
0.973541 0.928436 0.741180
0.003937 0.737244 0.474518
0.003937 0.737732 0.474518
0.026459 0.741669 0.474518
0.053436 0.745575 0.468140
0.105896 0.757355 0.452942
0.781372 0.899017 0.567657
0.955872 0.927460 0.667633
0.972534 0.949005 0.807831
0.976471 0.949005 0.804413
0.003937 0.745087 0.482361
0.011780 0.749023 0.482361
0.034302 0.752930 0.478424
0.061279 0.756866 0.474518
0.113739 0.770599 0.456848
0.794128 0.914215 0.579407
0.962738 0.941162 0.685303
0.976471 0.956848 0.819611
0.976471 0.956848 0.815674
0.011780 0.000000 0.000000
0.034302 0.000000 0.003418
0.068146 0.006866 0.000000
0.136780 0.026459 0.000000
0.284302 0.060791 0.000000
0.530884 0.084320 0.000000
0.827454 0.134796 0.000977
0.855377 0.138245 0.007843
0.870575 0.145111 0.007355
0.015198 0.015198 0.007843
0.030396 0.015198 0.000000
0.068146 0.019104 0.003937
0.144104 0.037750 0.000000
0.292145 0.068634 0.000000
0.538239 0.099518 0.000000
0.832367 0.152466 0.004913
0.862244 0.156372 0.011780
0.874512 0.160309 0.007843
0.032349 0.052948 0.021576
0.043640 0.056366 0.018127
0.090698 0.079407 0.024994
0.159790 0.080383 0.018616
0.323029 0.092163 0.000000
0.557343 0.118622 0.000000
0.841675 0.169617 0.005402
0.866669 0.172546 0.011780
0.881378 0.176483 0.011261
0.000000 0.136780 0.099030
0.000000 0.140686 0.097534
0.000488 0.152954 0.082367
0.199524 0.181366 0.066681
0.340698 0.194122 0.070587
0.589203 0.181854 0.000000
0.850494 0.190674 0.000977
0.875488 0.212250 0.016174
0.888733 0.216187 0.012756
0.000000 0.266663 0.180389
0.000000 0.272552 0.177948
0.000000 0.284302 0.163239
0.118134 0.310303 0.161285
0.428925 0.381866 0.164215
0.644104 0.411774 0.158325
0.860779 0.303436 0.000000
0.888733 0.316162 0.005402
0.901947 0.320099 0.001953
0.000000 0.496582 0.313232
0.000000 0.500488 0.307831
0.000000 0.505890 0.299988
0.077454 0.521088 0.280884
0.425995 0.571075 0.304413
0.715210 0.621063 0.314697
0.915192 0.667145 0.339203
0.926971 0.649017 0.357361
0.938721 0.650970 0.352448
0.000977 0.712738 0.459808
0.000977 0.716675 0.458344
0.017639 0.720093 0.455872
0.041656 0.724518 0.450989
0.109802 0.740204 0.433319
0.795593 0.882843 0.532837
0.952942 0.905884 0.625488
0.969116 0.924988 0.748535
0.973541 0.928436 0.748535
0.007843 0.737244 0.486267
0.015686 0.737732 0.485779
0.031372 0.741180 0.482361
0.053436 0.745087 0.478424
0.093140 0.754913 0.460785
0.766174 0.898529 0.566162
0.955872 0.930389 0.675476
0.972534 0.949005 0.815186
0.976471 0.949005 0.812256
0.007843 0.745087 0.490204
0.023041 0.749023 0.490204
0.038727 0.752930 0.489716
0.061279 0.756866 0.482361
0.100006 0.766663 0.464691
0.779907 0.914215 0.578918
0.962738 0.942169 0.693146
0.976471 0.956848 0.827454
0.980377 0.956848 0.823517
0.023529 0.003937 0.018616
0.042145 0.003937 0.019623
0.080383 0.003937 0.022552
0.151459 0.015198 0.000000
0.293152 0.046082 0.000000
0.533325 0.075989 0.000000
0.827454 0.129425 0.015686
0.855377 0.133331 0.026459
0.870575 0.137268 0.022552
0.019623 0.019104 0.029907
0.034790 0.019104 0.033813
0.080872 0.015198 0.032837
0.155396 0.026947 0.000000
0.300995 0.057343 0.000000
0.538727 0.093628 0.005402
0.834808 0.146088 0.020599
0.862732 0.149017 0.030396
0.877441 0.152954 0.026459
0.013733 0.063721 0.060791
0.035797 0.060791 0.063721
0.069611 0.064697 0.048035
0.151947 0.071075 0.032837
0.307831 0.095093 0.017639
0.553436 0.123535 0.010773
0.842163 0.164703 0.021576
0.867157 0.167633 0.034302
0.882355 0.171570 0.030396
0.000000 0.137268 0.113220
0.000000 0.140686 0.109802
0.002441 0.152466 0.109802
0.187744 0.177460 0.098053
0.355896 0.196564 0.087738
0.593628 0.163239 0.000000
0.852936 0.186768 0.014709
0.876953 0.205872 0.036285
0.891663 0.209808 0.032349
0.000000 0.266663 0.195099
0.000000 0.270599 0.193146
0.000000 0.282349 0.190186
0.078918 0.316162 0.177460
0.472534 0.424500 0.207855
0.652954 0.406372 0.163239
0.855896 0.274506 0.000000
0.894104 0.315674 0.032349
0.905884 0.319611 0.026459
0.000000 0.492645 0.326477
0.000000 0.496582 0.322540
0.000000 0.504425 0.315674
0.014221 0.516174 0.298035
0.404907 0.571075 0.306854
0.725983 0.631378 0.331848
0.912750 0.662750 0.340698
0.925995 0.642151 0.361267
0.938721 0.645111 0.355377
0.001953 0.712738 0.471558
0.003937 0.713715 0.471069
0.021576 0.717651 0.467651
0.040680 0.723053 0.462738
0.087250 0.733337 0.444122
0.788239 0.879425 0.531372
0.955872 0.908813 0.638245
0.969604 0.928436 0.756866
0.973541 0.928436 0.756866
0.015686 0.733826 0.498047
0.030396 0.737244 0.498047
0.042633 0.741180 0.494598
0.059326 0.745087 0.490204
0.082367 0.750977 0.471558
0.742645 0.892151 0.567657
0.955872 0.930878 0.686768
0.972534 0.949005 0.820099
0.980377 0.949524 0.819611
0.018616 0.745087 0.501953
0.037750 0.749023 0.501953
0.049988 0.752930 0.500977
0.065674 0.756378 0.494598
0.090210 0.762756 0.476471
0.757843 0.907837 0.580383
0.962738 0.942169 0.704895
0.976471 0.956848 0.834320
0.980377 0.956848 0.831360
0.041656 0.019623 0.087250
0.050476 0.018127 0.079895
0.077454 0.014221 0.067657
0.147064 0.011780 0.075500
0.301971 0.025482 0.012268
0.533325 0.065674 0.031372
0.827454 0.120087 0.047546
0.855377 0.123047 0.059326
0.870575 0.126953 0.055878
0.037750 0.037262 0.097046
0.049500 0.033325 0.093628
0.079895 0.026947 0.075012
0.151947 0.023529 0.080383
0.307343 0.044128 0.023529
0.539703 0.083832 0.036285
0.832367 0.137268 0.053925
0.862732 0.140686 0.065186
0.877930 0.145111 0.061279
0.000977 0.080383 0.109802
0.008820 0.079895 0.110291
0.069122 0.068634 0.113739
0.158813 0.060791 0.094116
0.316162 0.081848 0.047546
0.555878 0.110779 0.044617
0.842163 0.155884 0.055389
0.867157 0.157349 0.067657
0.882355 0.161285 0.063721
0.000000 0.144623 0.148529
0.000000 0.148529 0.150970
0.002441 0.152466 0.152466
0.136780 0.140686 0.135284
0.309814 0.162262 0.109802
0.576477 0.197052 0.084320
0.863220 0.215698 0.072540
0.879425 0.198517 0.074005
0.895111 0.201965 0.070099
0.000000 0.270599 0.220093
0.000000 0.270599 0.218628
0.000000 0.277466 0.215698
0.020111 0.301971 0.218628
0.407837 0.378418 0.239227
0.658813 0.394623 0.195587
0.868622 0.266663 0.009796
0.898529 0.311279 0.086761
0.911774 0.315186 0.082855
0.000000 0.492645 0.344116
0.000000 0.496582 0.342163
0.000000 0.500488 0.337738
0.085297 0.518616 0.333832
0.322052 0.565674 0.327454
0.756866 0.667633 0.390686
0.911285 0.650970 0.350494
0.925995 0.632355 0.360291
0.938721 0.633331 0.353912
0.011780 0.709808 0.489716
0.023041 0.713715 0.488739
0.035309 0.717651 0.486755
0.053436 0.720581 0.480896
0.071075 0.729401 0.461761
0.771088 0.875977 0.519104
0.955872 0.912750 0.662262
0.969604 0.928436 0.770599
0.976471 0.931366 0.770599
0.038239 0.733826 0.516174
0.053436 0.737244 0.516174
0.065186 0.741180 0.513733
0.073029 0.741669 0.508331
0.080872 0.747070 0.490692
0.695587 0.881866 0.558319
0.958832 0.934814 0.716675
0.972534 0.949005 0.831848
0.980377 0.951477 0.831360
0.045593 0.745087 0.521576
0.057343 0.749023 0.520111
0.069122 0.749023 0.520111
0.076965 0.752930 0.513733
0.086273 0.758820 0.496063
0.707367 0.897552 0.569122
0.962738 0.946075 0.732849
0.976471 0.960785 0.845581
0.980377 0.960785 0.843140
0.072540 0.050995 0.182343
0.072540 0.045105 0.176971
0.087250 0.033325 0.157837
0.141174 0.027466 0.146576
0.307831 0.011780 0.135284
0.538727 0.034790 0.091675
0.824524 0.100006 0.106873
0.854889 0.103912 0.115204
0.870575 0.107849 0.111755
0.075989 0.067657 0.198517
0.076477 0.060303 0.187744
0.089203 0.048523 0.165192
0.144623 0.041168 0.150970
0.311279 0.023529 0.141174
0.544617 0.057343 0.097534
0.831360 0.116669 0.111755
0.862244 0.121582 0.119598
0.874512 0.125488 0.117645
0.032349 0.109802 0.197052
0.051971 0.109802 0.199524
0.095093 0.090210 0.206848
0.148529 0.075500 0.173035
0.321564 0.056854 0.155884
0.561279 0.076965 0.103912
0.839203 0.136261 0.115692
0.867157 0.139221 0.123535
0.882355 0.143127 0.121582
0.000000 0.170105 0.214691
0.000000 0.170105 0.216187
0.000000 0.173523 0.226959
0.120575 0.152466 0.233337
0.325500 0.132843 0.189209
0.586273 0.171570 0.142151
0.860779 0.186768 0.127441
0.879425 0.176971 0.130402
0.893127 0.180878 0.127930
0.000000 0.282349 0.290192
0.000000 0.282349 0.290192
0.000000 0.286285 0.290192
0.007355 0.294128 0.290680
0.262756 0.280396 0.270599
0.596558 0.322540 0.222046
0.891174 0.355896 0.189209
0.912262 0.349030 0.190186
0.927460 0.352936 0.188232
0.000000 0.496582 0.378418
0.000000 0.497070 0.374512
0.000000 0.500488 0.372559
0.058319 0.508331 0.365204
0.227936 0.537750 0.378418
0.699005 0.628937 0.439209
0.911285 0.627441 0.373535
0.925995 0.606384 0.355377
0.941162 0.606873 0.349030
0.054901 0.709808 0.524506
0.066681 0.713715 0.523529
0.076477 0.715698 0.521576
0.085297 0.718140 0.516663
0.215698 0.752930 0.516663
0.631866 0.848541 0.512756
0.961761 0.923523 0.724518
0.969604 0.931366 0.791168
0.977448 0.934326 0.790192
0.080872 0.733337 0.549011
0.090210 0.737244 0.549011
0.098053 0.737732 0.547546
0.103912 0.741669 0.543152
0.192169 0.767151 0.537262
0.556366 0.853424 0.549500
0.959808 0.938721 0.750977
0.972534 0.949005 0.847046
0.980377 0.952942 0.847046
0.084320 0.745087 0.554901
0.092163 0.749023 0.554901
0.100006 0.749023 0.552948
0.106384 0.752930 0.547058
0.196075 0.778442 0.543152
0.567657 0.867157 0.561279
0.966675 0.950989 0.766663
0.972534 0.960785 0.860779
0.980377 0.964691 0.860779
0.132355 0.100983 0.340698
0.132355 0.093628 0.336761
0.132355 0.082367 0.322540
0.151459 0.063232 0.300476
0.281860 0.051971 0.281372
0.547546 0.000000 0.229401
0.815674 0.030884 0.197540
0.846069 0.037262 0.204407
0.861267 0.041168 0.204407
0.135773 0.116180 0.351959
0.135773 0.112244 0.344604
0.136261 0.100494 0.330872
0.153931 0.081360 0.306854
0.279419 0.071075 0.287262
0.549011 0.013733 0.237244
0.823517 0.057831 0.201965
0.850983 0.062256 0.208344
0.866669 0.069611 0.208344
0.145599 0.157837 0.378937
0.148041 0.148529 0.384308
0.147064 0.139221 0.359314
0.159790 0.116180 0.328918
0.276459 0.101959 0.303925
0.560791 0.028931 0.249023
0.832855 0.080872 0.209320
0.858826 0.084808 0.216187
0.874512 0.092651 0.215210
0.024017 0.236755 0.373535
0.048035 0.235291 0.374512
0.091187 0.233826 0.389709
0.167633 0.196075 0.386261
0.273529 0.159302 0.335785
0.575012 0.112732 0.291656
0.845093 0.103912 0.217163
0.878418 0.149994 0.235779
0.892639 0.154907 0.234314
0.000000 0.322052 0.391663
0.000000 0.324524 0.395111
0.000000 0.327454 0.401947
0.012268 0.328430 0.417145
0.198029 0.293152 0.427460
0.600494 0.263245 0.355377
0.894104 0.298523 0.284302
0.911774 0.292145 0.284302
0.927460 0.295593 0.280884
0.000000 0.491180 0.488739
0.001465 0.491180 0.488739
0.007355 0.495087 0.488739
0.064209 0.499023 0.490204
0.144623 0.510773 0.492645
0.482361 0.523041 0.489227
0.913239 0.544128 0.386261
0.933319 0.540192 0.379425
0.946564 0.541168 0.377930
0.122559 0.709808 0.591675
0.129913 0.712250 0.591675
0.135773 0.713715 0.591675
0.142151 0.717651 0.587738
0.222534 0.744598 0.587738
0.436768 0.802460 0.613220
0.961761 0.924988 0.760773
0.969116 0.931366 0.799988
0.977448 0.931366 0.799988
0.136261 0.732361 0.612244
0.143616 0.733337 0.612244
0.148041 0.737244 0.612244
0.154419 0.741180 0.608337
0.209320 0.760773 0.606384
0.409302 0.819122 0.625977
0.959320 0.941681 0.784790
0.969116 0.949005 0.854889
0.980377 0.952942 0.854889
0.136261 0.741180 0.616180
0.144104 0.745087 0.616180
0.151947 0.749023 0.616180
0.155884 0.751465 0.612244
0.210785 0.774506 0.612244
0.417145 0.834320 0.633331
0.966187 0.955872 0.802460
0.972534 0.960785 0.868134
0.980377 0.964691 0.868134
0.197052 0.152954 0.573517
0.197052 0.149017 0.570587
0.198029 0.145111 0.564697
0.201965 0.138245 0.550476
0.233337 0.122559 0.522552
0.499512 0.109802 0.493622
0.802948 0.000000 0.353912
0.831848 0.006866 0.361267
0.843140 0.010773 0.355896
0.198029 0.168152 0.580872
0.200500 0.165680 0.578430
0.200989 0.161774 0.570587
0.207367 0.157349 0.557831
0.237244 0.141663 0.529419
0.494598 0.126953 0.501465
0.805878 0.000000 0.362732
0.835785 0.025970 0.369110
0.847046 0.029907 0.361755
0.202942 0.187256 0.595093
0.204895 0.183319 0.594116
0.207855 0.195099 0.588226
0.215210 0.188232 0.573029
0.244110 0.171570 0.543152
0.487732 0.155396 0.516174
0.809814 0.000000 0.370575
0.843628 0.060791 0.382355
0.856873 0.063721 0.375488
0.207367 0.260284 0.620575
0.209320 0.245575 0.619598
0.209320 0.218628 0.614227
0.226959 0.245087 0.607361
0.251953 0.220581 0.573517
0.479889 0.201965 0.543640
0.817657 0.001465 0.385773
0.858826 0.122070 0.411285
0.872070 0.125977 0.402466
0.063721 0.418640 0.623535
0.072540 0.418640 0.627441
0.092163 0.415680 0.636261
0.118622 0.410309 0.656860
0.250000 0.329407 0.644104
0.467651 0.291168 0.603912
0.854889 0.158813 0.464691
0.883331 0.219604 0.460785
0.897064 0.219604 0.450989
0.055878 0.513733 0.638733
0.062256 0.513733 0.640198
0.067169 0.513733 0.642639
0.075989 0.516663 0.650482
0.139221 0.522552 0.673523
0.311279 0.474518 0.703430
0.897552 0.451965 0.605896
0.915680 0.428436 0.569122
0.931366 0.428436 0.551483
0.114716 0.676483 0.720581
0.118622 0.677460 0.720581
0.122559 0.680389 0.721558
0.126465 0.680389 0.724518
0.170593 0.697052 0.734314
0.261261 0.724030 0.753418
0.846069 0.870575 0.853912
0.938232 0.899506 0.856384
0.968628 0.912750 0.865692
0.121582 0.697052 0.730377
0.125488 0.700012 0.731384
0.129425 0.700500 0.733337
0.133331 0.703918 0.734314
0.170105 0.716675 0.742157
0.263733 0.748535 0.763245
0.769623 0.888245 0.844116
0.934326 0.936768 0.892151
0.971558 0.952942 0.897064
0.125488 0.707855 0.738220
0.129425 0.711761 0.738220
0.133331 0.711761 0.738220
0.140198 0.715698 0.738220
0.175476 0.728424 0.750000
0.265686 0.766663 0.771088
0.771576 0.906860 0.848053
0.933319 0.952454 0.899506
0.970581 0.967651 0.911774
0.203918 0.156860 0.608337
0.203918 0.152954 0.608337
0.207855 0.150482 0.607849
0.214203 0.149017 0.603912
0.239227 0.145111 0.596069
0.463226 0.134796 0.602448
0.812744 0.000000 0.409790
0.835297 0.000000 0.427460
0.839203 0.000000 0.415680
0.207855 0.172058 0.615204
0.207855 0.172058 0.615204
0.211761 0.168152 0.612244
0.218140 0.165192 0.609314
0.243134 0.162262 0.601959
0.455872 0.150482 0.606873
0.816162 0.000000 0.420105
0.839203 0.007843 0.438721
0.843140 0.003418 0.423523
0.207855 0.188232 0.619598
0.211273 0.187256 0.619598
0.215698 0.199005 0.623535
0.224030 0.195099 0.620575
0.249023 0.189209 0.611755
0.451477 0.176971 0.615692
0.817657 0.001465 0.429413
0.839691 0.060303 0.453430
0.850983 0.035309 0.438232
0.211761 0.221558 0.629913
0.211761 0.215210 0.626953
0.215698 0.217163 0.627930
0.233826 0.248047 0.637756
0.258820 0.230896 0.628418
0.444122 0.215698 0.632843
0.822540 0.016174 0.440186
0.850983 0.117645 0.473053
0.862732 0.092651 0.459320
0.109802 0.433319 0.686279
0.111755 0.433319 0.688232
0.116669 0.428436 0.689697
0.130890 0.409790 0.685791
0.260773 0.327454 0.661285
0.442657 0.295593 0.666168
0.848053 0.176971 0.509308
0.872559 0.211761 0.517639
0.887756 0.194122 0.501953
0.075989 0.527466 0.690186
0.079895 0.527466 0.690674
0.084320 0.527466 0.691681
0.091675 0.527466 0.695587
0.141663 0.531372 0.707367
0.312744 0.467651 0.717163
0.880402 0.436768 0.635773
0.903931 0.429901 0.620575
0.926971 0.419617 0.603912
0.114716 0.672546 0.733337
0.118622 0.672546 0.734314
0.121582 0.673035 0.734314
0.124023 0.676483 0.734314
0.139221 0.681366 0.740204
0.218628 0.702454 0.759308
0.816162 0.850006 0.880402
0.917633 0.889221 0.882355
0.957855 0.908813 0.895111
0.117645 0.686279 0.737244
0.121582 0.690186 0.737732
0.125488 0.690186 0.741180
0.129425 0.690186 0.741180
0.149017 0.700012 0.747070
0.227936 0.726959 0.770111
0.598541 0.833344 0.853912
0.902954 0.929901 0.902466
0.960297 0.949524 0.913727
0.121582 0.698029 0.741180
0.125488 0.698029 0.741669
0.129425 0.698029 0.745087
0.133331 0.701965 0.745087
0.152954 0.709808 0.750977
0.232849 0.738739 0.774017
0.600494 0.851471 0.855896
0.899017 0.945099 0.905884
0.956360 0.964691 0.922058
0.207855 0.160797 0.623535
0.207855 0.156860 0.619598
0.210785 0.152954 0.619598
0.215698 0.152954 0.617157
0.237244 0.147064 0.609802
0.441681 0.138733 0.619598
0.813721 0.000000 0.421570
0.831848 0.003418 0.439209
0.839203 0.000000 0.423523
0.207855 0.175995 0.627441
0.211273 0.175995 0.627441
0.211761 0.172058 0.627441
0.219604 0.168152 0.623535
0.241180 0.164703 0.615692
0.436279 0.153931 0.623535
0.816681 0.000000 0.431854
0.835785 0.014221 0.447052
0.843140 0.000000 0.434814
0.211761 0.191162 0.631378
0.211761 0.191162 0.631378
0.218628 0.202942 0.635284
0.226471 0.199005 0.635284
0.249023 0.191162 0.623535
0.432343 0.176971 0.631378
0.819611 0.007843 0.441162
0.839203 0.055878 0.462738
0.850006 0.026459 0.447052
0.214203 0.223053 0.641663
0.211761 0.219116 0.641663
0.216187 0.218628 0.641663
0.233826 0.251953 0.650970
0.258820 0.234314 0.641663
0.426971 0.218140 0.648529
0.821564 0.030884 0.450989
0.847046 0.123535 0.484314
0.857361 0.099030 0.470581
0.113739 0.437256 0.700012
0.113739 0.437256 0.700012
0.116669 0.432343 0.700989
0.134796 0.412750 0.697540
0.262756 0.329407 0.674500
0.426483 0.295593 0.679901
0.848053 0.173523 0.517639
0.868622 0.213715 0.525482
0.880402 0.200012 0.513733
0.079895 0.527466 0.699524
0.083832 0.529907 0.701965
0.089203 0.529907 0.703430
0.095581 0.531372 0.705872
0.145599 0.532837 0.719116
0.307831 0.470093 0.728424
0.876953 0.430389 0.647064
0.899994 0.424988 0.631866
0.922058 0.414703 0.616669
0.114716 0.668640 0.737244
0.117645 0.668640 0.738220
0.121582 0.672546 0.738220
0.122559 0.672546 0.738220
0.138245 0.677460 0.744110
0.210785 0.697540 0.763245
0.794128 0.839203 0.895111
0.905396 0.884796 0.893616
0.953918 0.908813 0.905884
0.117645 0.682831 0.741180
0.121582 0.686279 0.741180
0.125488 0.686279 0.741669
0.125488 0.686279 0.745087
0.145111 0.694611 0.749512
0.217651 0.719116 0.770111
0.557343 0.815674 0.852936
0.883331 0.922058 0.910309
0.952942 0.949005 0.921570
0.121582 0.694122 0.745087
0.121582 0.694122 0.745087
0.125488 0.694122 0.745087
0.129425 0.694122 0.745087
0.149017 0.703918 0.752930
0.220093 0.730896 0.774017
0.546082 0.834320 0.851959
0.875977 0.937744 0.906372
0.945099 0.960785 0.925476
