luts_externos/iwltbap/free-named-looks/IWLTBAP Sedona - LOG.cube
# Copyright: (C) Copyright 2010-2017 by IWLTBAP SAS
# Cannot be resold, shared or otherwise redistributed
# Website: https://luts.iwltbap.com
TITLE "IWLTBAP Sedona (LOG)"
LUT_3D_SIZE 5
DOMAIN_MIN 0.000000 0.000000 0.000000
DOMAIN_MAX 0.903226 0.903226 0.903226
0.000000 0.000000 0.013947
0.173210 0.004084 0.010221
0.446067 0.060752 0.009926
0.676978 0.125343 0.011139
0.792023 0.165744 0.012180
0.000000 0.027804 0.038427
0.067090 0.030421 0.020431
0.425932 0.092141 0.008392
0.702077 0.167139 0.009331
0.817067 0.204082 0.009381
0.000000 0.213227 0.113303
0.032387 0.214973 0.115537
0.388608 0.248180 0.048321
0.748102 0.325367 0.012041
0.853835 0.333962 0.010314
0.047511 0.499659 0.225891
0.097995 0.503280 0.225921
0.424670 0.605427 0.229063
0.781096 0.572438 0.122745
0.890638 0.593065 0.112448
0.080682 0.637139 0.266573
0.134029 0.646197 0.262922
0.424583 0.726056 0.275340
0.805315 0.778624 0.227460
0.903518 0.710828 0.175766
0.000000 0.000069 0.102392
0.188117 0.003426 0.085850
0.460142 0.041850 0.044141
0.656696 0.076155 0.040573
0.777727 0.142532 0.043609
0.000000 0.052209 0.122505
0.052980 0.068538 0.115295
0.448333 0.120709 0.044415
0.721453 0.177285 0.029126
0.829700 0.217594 0.032559
0.000127 0.253501 0.190933
0.013551 0.245204 0.157283
0.422273 0.271093 0.067710
0.779033 0.300620 0.022807
0.866903 0.315098 0.024355
0.056433 0.525980 0.269343
0.075728 0.548815 0.258778
0.383173 0.629509 0.264286
0.824562 0.616341 0.150898
0.912678 0.627067 0.140727
0.086556 0.652693 0.304094
0.104211 0.668823 0.291653
0.368613 0.733045 0.299307
0.815018 0.811012 0.253120
0.920123 0.739953 0.201470
0.000000 0.114124 0.292463
0.076648 0.005350 0.209707
0.457599 0.060221 0.202340
0.671603 0.078408 0.181092
0.765003 0.095117 0.168018
0.000000 0.190525 0.314164
0.009910 0.150613 0.307996
0.450113 0.103638 0.208564
0.696151 0.099670 0.157644
0.785455 0.128579 0.097467
0.013407 0.302889 0.351285
0.033453 0.321379 0.369204
0.300805 0.327013 0.314586
0.746904 0.369192 0.193065
0.858763 0.376722 0.161016
0.070634 0.565959 0.431145
0.093763 0.601500 0.429658
0.195634 0.595817 0.392333
0.813451 0.636210 0.231392
0.928312 0.669194 0.212820
0.098303 0.685525 0.448321
0.116037 0.702272 0.431681
0.248012 0.719596 0.416561
0.779968 0.818441 0.314291
0.930971 0.769839 0.259303
0.018041 0.215911 0.480802
0.065494 0.075757 0.395075
0.317126 0.058926 0.348133
0.680516 0.124894 0.348557
0.783667 0.151359 0.342086
0.019124 0.311054 0.511727
0.038041 0.250947 0.515589
0.268574 0.075717 0.373760
0.715183 0.157164 0.369234
0.815389 0.200143 0.352212
0.035605 0.404429 0.539844
0.052567 0.421529 0.567454
0.128807 0.393530 0.560488
0.738728 0.313670 0.372889
0.840305 0.332234 0.350261
0.077242 0.572794 0.600018
0.104809 0.619336 0.639739
0.157425 0.639527 0.650405
0.701121 0.717484 0.610403
0.907386 0.706509 0.521809
0.116278 0.727115 0.653737
0.135089 0.749570 0.666211
0.176196 0.755123 0.648795
0.649153 0.818662 0.616420
0.926236 0.843238 0.566552
0.026036 0.295413 0.584439
0.087635 0.101447 0.474857
0.327449 0.071302 0.425394
0.628996 0.133961 0.430600
0.786405 0.164028 0.431500
0.031851 0.369437 0.606327
0.044866 0.318408 0.612649
0.282340 0.110629 0.452095
0.638192 0.172856 0.445136
0.817298 0.212540 0.446640
0.051397 0.467062 0.637215
0.067021 0.472333 0.651346
0.122206 0.418476 0.641689
0.588196 0.298024 0.468040
0.842553 0.333385 0.450201
0.084867 0.596353 0.686340
0.104035 0.615014 0.705324
0.150451 0.630940 0.718739
0.557357 0.673921 0.699507
0.879390 0.658189 0.593363
0.117514 0.717847 0.730323
0.138611 0.743646 0.752903
0.184923 0.762100 0.765116
0.413758 0.811552 0.795666
0.887547 0.904183 0.745759
