luts_externos/iwltbap/free-named-looks/IWLTBAP Sedona - V-Log.cube
# Copyright: (C) Copyright 2010-2017 by IWLTBAP SAS
# Cannot be resold, shared or otherwise redistributed
# Website: https://luts.iwltbap.com
TITLE "IWLTBAP Sedona (V-Log)"
LUT_3D_SIZE 9
0.000000 0.000000 0.011780
0.000000 0.000000 0.011780
0.092163 0.000000 0.007843
0.263245 0.018127 0.007843
0.421570 0.050995 0.011780
0.599518 0.086273 0.024994
0.774506 0.117645 0.056854
0.788727 0.125488 0.062744
0.799988 0.137268 0.062744
0.000000 0.000000 0.011780
0.000000 0.000000 0.011780
0.083832 0.000000 0.007843
0.257355 0.022064 0.007843
0.419617 0.060303 0.011780
0.608337 0.100983 0.023529
0.786285 0.151459 0.055878
0.800476 0.152954 0.062744
0.811768 0.164215 0.062744
0.000000 0.002930 0.027466
0.000000 0.003937 0.026947
0.051971 0.010773 0.015686
0.242645 0.034302 0.007843
0.434326 0.070587 0.007843
0.625977 0.122070 0.019623
0.799988 0.175476 0.051971
0.812256 0.179413 0.058838
0.823517 0.187256 0.058838
0.000000 0.070099 0.061279
0.000000 0.070099 0.059814
0.000000 0.077942 0.061279
0.213226 0.100006 0.019623
0.432831 0.123047 0.007843
0.654419 0.147552 0.007843
0.814209 0.202454 0.048035
0.830383 0.222046 0.054901
0.840210 0.229401 0.054901
0.000000 0.192169 0.119598
0.000000 0.190186 0.113739
0.000000 0.184326 0.104889
0.036774 0.199005 0.109802
0.450989 0.254913 0.037262
0.702454 0.271576 0.007843
0.839203 0.225494 0.009796
0.852936 0.251465 0.031372
0.856873 0.254913 0.031372
0.026459 0.417145 0.242645
0.030396 0.414703 0.238739
0.031860 0.410797 0.226959
0.032837 0.401947 0.203918
0.142639 0.433838 0.201965
0.752930 0.497070 0.082855
0.888245 0.499023 0.065674
0.902466 0.480896 0.080383
0.902466 0.465210 0.074005
0.095093 0.678436 0.381378
0.097534 0.678436 0.377441
0.099030 0.675476 0.369598
0.102936 0.674500 0.353912
0.102936 0.669617 0.321564
0.447052 0.741669 0.277954
0.924500 0.750000 0.251953
0.937256 0.803925 0.420593
0.941162 0.807831 0.424500
0.098053 0.705872 0.411774
0.101959 0.705872 0.407837
0.105896 0.702454 0.399994
0.109802 0.701965 0.388245
0.109802 0.694122 0.349030
0.409302 0.753937 0.340210
0.914703 0.774506 0.248047
0.937256 0.839203 0.517151
0.941162 0.843140 0.521088
0.101959 0.717651 0.419617
0.105896 0.717651 0.412262
0.108826 0.717651 0.407837
0.109802 0.715210 0.393616
0.113739 0.707855 0.354889
0.392639 0.761261 0.358337
0.907837 0.791168 0.258820
0.937256 0.843140 0.509308
0.941162 0.843140 0.498047
0.000000 0.000000 0.023529
0.003418 0.000000 0.023041
0.092651 0.000000 0.015198
0.269623 0.014221 0.011780
0.423523 0.045105 0.019104
0.597046 0.074524 0.032837
0.767639 0.105896 0.063721
0.784302 0.113739 0.070587
0.796082 0.121582 0.070099
0.000000 0.000000 0.026947
0.000000 0.000000 0.023041
0.069611 0.000000 0.019104
0.251465 0.022064 0.015198
0.419617 0.056854 0.015686
0.604889 0.091675 0.030884
0.781860 0.133331 0.060791
0.796082 0.137756 0.066681
0.807831 0.152466 0.066681
0.000000 0.003937 0.038727
0.000000 0.006866 0.038727
0.065674 0.020111 0.023041
0.249023 0.036774 0.011780
0.438721 0.074005 0.011780
0.623535 0.118134 0.024994
0.796082 0.166656 0.059326
0.807343 0.167633 0.063232
0.819122 0.179413 0.062744
0.000000 0.074005 0.072540
0.000000 0.074005 0.068634
0.000000 0.078430 0.065186
0.228912 0.110779 0.025970
0.440674 0.123047 0.011780
0.658325 0.149994 0.011780
0.810303 0.194611 0.051971
0.828430 0.216675 0.058838
0.836273 0.224518 0.058838
0.000000 0.201477 0.136780
0.000000 0.198029 0.130890
0.000000 0.190186 0.112244
0.033325 0.199005 0.113739
0.462250 0.260284 0.039215
0.706360 0.269623 0.011780
0.839203 0.226471 0.013733
0.852936 0.258820 0.037262
0.856873 0.260284 0.037262
0.029907 0.424500 0.258331
0.031860 0.422546 0.254425
0.034302 0.418640 0.244598
0.034302 0.409790 0.214203
0.136261 0.433838 0.206360
0.758331 0.499023 0.084320
0.891174 0.496063 0.066681
0.902466 0.475006 0.083344
0.902466 0.461273 0.075500
0.095093 0.681854 0.396576
0.099030 0.681854 0.392639
0.102936 0.678436 0.385284
0.102936 0.678436 0.371582
0.105896 0.672058 0.331360
0.439209 0.738220 0.281860
0.927460 0.751953 0.259796
0.937256 0.810303 0.444122
0.941162 0.811768 0.449005
0.101959 0.709320 0.426971
0.105377 0.709320 0.423035
0.105896 0.706360 0.415680
0.109802 0.705872 0.403931
0.109802 0.698029 0.366180
0.400482 0.752930 0.356384
0.914703 0.776947 0.252930
0.937256 0.847046 0.533325
0.941162 0.847046 0.536774
0.101959 0.721558 0.431366
0.105896 0.721558 0.427460
0.109802 0.721558 0.423035
0.112244 0.717651 0.408813
0.113739 0.711761 0.372559
0.384308 0.760773 0.371582
0.907837 0.795105 0.262756
0.937256 0.850006 0.524506
0.941162 0.847046 0.513733
0.000000 0.000000 0.064697
0.000000 0.000000 0.058319
0.102936 0.000000 0.052948
0.281860 0.010773 0.038727
0.432343 0.037262 0.034302
0.595581 0.060303 0.044617
0.766663 0.099030 0.071564
0.784302 0.105896 0.078430
0.792145 0.109802 0.074524
0.000000 0.000000 0.068634
0.000000 0.000000 0.075500
0.080872 0.000000 0.049988
0.269623 0.015686 0.035797
0.424988 0.044617 0.030884
0.597046 0.071075 0.042145
0.771088 0.113220 0.068634
0.785797 0.114227 0.074524
0.799988 0.130402 0.074524
0.000000 0.013733 0.079407
0.000000 0.013733 0.079895
0.017639 0.028442 0.084320
0.215210 0.050995 0.049011
0.413727 0.085297 0.030396
0.615692 0.113220 0.036774
0.786285 0.147064 0.066681
0.796570 0.145599 0.070587
0.811768 0.160797 0.070587
0.000000 0.089691 0.110291
0.000000 0.088715 0.106384
0.000000 0.090210 0.103424
0.226471 0.125977 0.057343
0.455872 0.135284 0.026459
0.659302 0.152954 0.019623
0.806366 0.186768 0.059814
0.821564 0.205872 0.066681
0.832367 0.213715 0.065674
0.000000 0.216675 0.173523
0.000000 0.212738 0.165680
0.001953 0.208832 0.155884
0.028442 0.209320 0.132843
0.511780 0.294128 0.049988
0.715698 0.263733 0.017151
0.836273 0.221558 0.019623
0.852936 0.272552 0.049011
0.858826 0.272552 0.047058
0.031860 0.432831 0.283325
0.035797 0.431854 0.280884
0.038239 0.430389 0.271576
0.038239 0.423035 0.241180
0.123047 0.430389 0.210297
0.771576 0.511261 0.092163
0.892151 0.492157 0.068146
0.902466 0.471558 0.088715
0.902466 0.457367 0.083344
0.095093 0.685303 0.412750
0.099030 0.685303 0.411774
0.102936 0.685303 0.404907
0.106873 0.682343 0.393127
0.106873 0.676483 0.351959
0.423523 0.738220 0.285797
0.927460 0.757843 0.271576
0.937256 0.815186 0.466187
0.941162 0.818634 0.471558
0.101959 0.710297 0.443146
0.105896 0.710297 0.439697
0.109802 0.710297 0.434326
0.109802 0.709808 0.423523
0.113739 0.701965 0.387268
0.393127 0.753418 0.375488
0.914703 0.778442 0.259796
0.937256 0.850983 0.549011
0.941162 0.853424 0.552460
0.101959 0.725494 0.450012
0.105896 0.725494 0.446564
0.109802 0.725494 0.439209
0.113739 0.721558 0.427948
0.113739 0.715698 0.393127
0.376465 0.761261 0.393127
0.907837 0.799011 0.270599
0.933838 0.853912 0.539703
0.941162 0.850983 0.528442
0.000000 0.010284 0.140686
0.000000 0.002930 0.129913
0.075989 0.000000 0.100494
0.290680 0.018127 0.104401
0.443634 0.037750 0.091187
0.599518 0.062744 0.066162
0.767639 0.099030 0.083344
0.784302 0.105896 0.088715
0.792145 0.109802 0.086273
0.000000 0.031372 0.156860
0.000000 0.017639 0.144623
0.059326 0.000000 0.103912
0.282349 0.022064 0.103912
0.439697 0.041168 0.086273
0.600983 0.065186 0.061279
0.770111 0.105377 0.081848
0.784790 0.110291 0.086273
0.795593 0.114716 0.084808
0.000000 0.057831 0.151459
0.000000 0.055389 0.152466
0.002930 0.051483 0.163727
0.249512 0.043640 0.103424
0.424500 0.052948 0.072540
0.604889 0.074524 0.057343
0.774506 0.116180 0.077942
0.788239 0.121582 0.082367
0.799988 0.126465 0.081848
0.000000 0.118134 0.182343
0.000000 0.114716 0.182343
0.000000 0.107849 0.174500
0.111755 0.127441 0.160309
0.375000 0.158325 0.107361
0.639221 0.200989 0.078918
0.810303 0.210785 0.071564
0.813232 0.188232 0.076965
0.824524 0.199005 0.074524
0.000000 0.241669 0.230896
0.001953 0.239716 0.227448
0.006378 0.231873 0.216675
0.026459 0.231873 0.208832
0.444611 0.289703 0.129913
0.724518 0.277466 0.053436
0.839203 0.250000 0.047546
0.852936 0.296082 0.074524
0.860779 0.297546 0.069122
0.036774 0.440674 0.318146
0.039703 0.441681 0.318146
0.042145 0.443146 0.312744
0.059326 0.446075 0.299988
0.120087 0.448029 0.254913
0.808838 0.552460 0.120575
0.898041 0.485291 0.075989
0.902466 0.467163 0.096069
0.902466 0.452942 0.090698
0.099030 0.690186 0.438721
0.102936 0.690186 0.437744
0.105896 0.690186 0.431854
0.108337 0.690186 0.420593
0.110779 0.682831 0.384796
0.390198 0.731873 0.292145
0.930389 0.765198 0.290680
0.937256 0.825012 0.500977
0.941162 0.828918 0.507843
0.101959 0.714203 0.469116
0.105896 0.716187 0.465210
0.109802 0.714203 0.461273
0.113739 0.714203 0.449524
0.113739 0.709808 0.418152
0.362732 0.749023 0.393616
0.915680 0.790680 0.289215
0.937256 0.861267 0.576477
0.941162 0.862732 0.579895
0.105896 0.729401 0.476959
0.109802 0.729401 0.473053
0.112732 0.729401 0.465210
0.113739 0.725494 0.454895
0.117645 0.721558 0.424500
0.347046 0.757355 0.411285
0.911774 0.807831 0.301483
0.933319 0.862732 0.564697
0.941162 0.858826 0.552948
0.000000 0.072540 0.245087
0.000000 0.038727 0.222534
0.070587 0.000000 0.168640
0.229889 0.014221 0.160797
0.441162 0.052948 0.164703
0.611267 0.068634 0.152954
0.771576 0.099030 0.155884
0.788727 0.106384 0.160309
0.796082 0.111755 0.149017
0.000000 0.101959 0.267151
0.000000 0.066681 0.241180
0.048035 0.004425 0.175995
0.208832 0.014709 0.160797
0.437256 0.054901 0.162750
0.611267 0.070099 0.149506
0.772552 0.106873 0.141663
0.790192 0.113739 0.149017
0.796082 0.117157 0.131378
0.000000 0.142151 0.261780
0.000000 0.139709 0.265198
0.005890 0.100006 0.258820
0.167145 0.036774 0.167145
0.434326 0.071564 0.164703
0.619110 0.075989 0.147064
0.774506 0.111755 0.122559
0.790192 0.117645 0.133331
0.796082 0.121582 0.116669
0.000000 0.183319 0.273041
0.000000 0.181366 0.273041
0.002441 0.181366 0.277466
0.045105 0.157837 0.275970
0.406860 0.134796 0.168640
0.626465 0.140198 0.130402
0.783813 0.135773 0.094116
0.792633 0.129913 0.101471
0.800995 0.136261 0.096069
0.005890 0.268616 0.315674
0.009796 0.268616 0.315674
0.016663 0.267639 0.315674
0.029419 0.262756 0.309814
0.264709 0.282349 0.272552
0.627930 0.321075 0.187744
0.838226 0.346069 0.162750
0.849030 0.339203 0.160797
0.856873 0.345093 0.158813
0.042145 0.454895 0.378937
0.046082 0.456848 0.378937
0.049988 0.460785 0.378937
0.067657 0.462250 0.371063
0.125488 0.467651 0.359314
0.750977 0.540192 0.210297
0.900970 0.480377 0.121063
0.898529 0.463715 0.159790
0.898529 0.453430 0.149506
0.101959 0.698029 0.486267
0.103912 0.698029 0.482849
0.106873 0.698029 0.479401
0.110779 0.698029 0.470581
0.141174 0.699005 0.433319
0.309326 0.724030 0.370575
0.933319 0.790192 0.345093
0.937256 0.843628 0.550476
0.941162 0.847046 0.557831
0.105896 0.722046 0.512268
0.109802 0.722046 0.509796
0.112732 0.722046 0.505890
0.115692 0.722046 0.498047
0.139709 0.719604 0.460785
0.307343 0.742645 0.436279
0.918640 0.809814 0.378937
0.937256 0.878418 0.615692
0.941162 0.878418 0.619110
0.105896 0.735291 0.517639
0.109802 0.735291 0.514221
0.113739 0.735291 0.509796
0.117645 0.733337 0.501953
0.141174 0.731384 0.468628
0.293152 0.750488 0.446564
0.911774 0.828430 0.393127
0.933319 0.874512 0.600006
0.941162 0.870575 0.588226
0.021088 0.103424 0.366669
0.030396 0.073029 0.341675
0.087250 0.029907 0.291656
0.201965 0.024994 0.260773
0.378937 0.061279 0.253418
0.616669 0.100983 0.256866
0.784790 0.137268 0.261780
0.801483 0.148041 0.264709
0.809326 0.151947 0.260773
0.018616 0.136261 0.386780
0.026459 0.107361 0.368134
0.058838 0.052948 0.314209
0.183838 0.027466 0.263733
0.364227 0.066681 0.253418
0.620087 0.104889 0.258331
0.787750 0.145111 0.257843
0.804413 0.153931 0.264709
0.809326 0.155396 0.256866
0.006378 0.240204 0.442657
0.013245 0.214691 0.441162
0.034302 0.147552 0.390686
0.133331 0.064697 0.294128
0.341187 0.083344 0.257355
0.627441 0.112732 0.263733
0.791656 0.152954 0.257843
0.805389 0.159790 0.260773
0.811768 0.159790 0.254425
0.009308 0.277466 0.416656
0.013245 0.278931 0.420105
0.020111 0.286774 0.438232
0.050995 0.241669 0.443634
0.298523 0.142151 0.288727
0.641663 0.164215 0.268616
0.794617 0.160797 0.255402
0.809326 0.181854 0.253937
0.813232 0.181854 0.246582
0.017639 0.325989 0.428925
0.021576 0.327942 0.432343
0.025482 0.332855 0.440674
0.043152 0.345581 0.458344
0.142151 0.325500 0.466187
0.648041 0.273041 0.286774
0.811279 0.260773 0.237244
0.821075 0.256378 0.233337
0.825500 0.255402 0.222046
0.046082 0.460297 0.494110
0.049988 0.464203 0.498047
0.056854 0.469604 0.501953
0.079895 0.486267 0.513733
0.113739 0.501465 0.523529
0.523529 0.548523 0.485291
0.881378 0.547058 0.348053
0.885284 0.540192 0.341187
0.889221 0.532349 0.328430
0.107361 0.714203 0.577942
0.111267 0.715210 0.577942
0.114716 0.715698 0.577454
0.118622 0.718140 0.571564
0.148041 0.722046 0.553925
0.299988 0.742645 0.542633
0.933319 0.814697 0.462738
0.937256 0.853912 0.578918
0.941162 0.857849 0.586273
0.111267 0.738739 0.598053
0.115204 0.738739 0.594604
0.117645 0.738739 0.594116
0.121582 0.738739 0.589203
0.144623 0.738739 0.570099
0.269104 0.748535 0.546082
0.912750 0.834320 0.470093
0.937256 0.886261 0.635773
0.941162 0.887268 0.636261
0.113739 0.750488 0.601959
0.117645 0.750488 0.600494
0.119110 0.750488 0.598053
0.123047 0.750488 0.593140
0.145111 0.750488 0.572540
0.263733 0.755890 0.552460
0.904907 0.851959 0.477936
0.933319 0.882355 0.616669
0.941162 0.875977 0.603912
0.129425 0.085297 0.451965
0.164215 0.074524 0.440186
0.210785 0.064697 0.430389
0.264709 0.063721 0.418152
0.339203 0.082367 0.399994
0.557831 0.130402 0.397064
0.798035 0.162750 0.408813
0.820587 0.199005 0.404907
0.832367 0.205872 0.404907
0.097534 0.107361 0.476959
0.128418 0.096558 0.459808
0.177460 0.082855 0.442169
0.247070 0.075989 0.423523
0.330383 0.089691 0.402954
0.553925 0.139709 0.397552
0.801971 0.170593 0.408813
0.824524 0.206848 0.404907
0.835297 0.214691 0.404907
0.066681 0.162750 0.529419
0.085297 0.141174 0.507843
0.102936 0.141174 0.498047
0.191162 0.117645 0.453430
0.310791 0.109802 0.413727
0.545105 0.156860 0.399994
0.804901 0.182343 0.412750
0.828430 0.222534 0.405884
0.839203 0.228424 0.404907
0.032837 0.370575 0.614227
0.033813 0.360291 0.612244
0.059814 0.270599 0.590698
0.092163 0.236267 0.558838
0.276947 0.167145 0.454895
0.530884 0.191681 0.407837
0.809814 0.194122 0.415680
0.836273 0.251465 0.408813
0.845581 0.258331 0.408813
0.046082 0.450989 0.615692
0.049988 0.450989 0.617645
0.053925 0.453918 0.623535
0.062256 0.456360 0.635773
0.145111 0.339203 0.601959
0.514221 0.267639 0.445099
0.833344 0.270599 0.423523
0.847046 0.302948 0.416656
0.854889 0.307831 0.414703
0.065186 0.530396 0.646088
0.069122 0.531860 0.647064
0.073029 0.534302 0.649994
0.076965 0.538239 0.654907
0.109314 0.553925 0.673035
0.339691 0.517639 0.656372
0.856873 0.444611 0.458832
0.864227 0.432343 0.450500
0.872070 0.436279 0.451477
0.118622 0.728424 0.736267
0.122559 0.728424 0.737244
0.126465 0.732361 0.737244
0.130402 0.732361 0.740204
0.165680 0.748047 0.750977
0.222534 0.771088 0.764221
0.898041 0.909790 0.748047
0.928436 0.909790 0.738220
0.937256 0.909790 0.734314
0.125488 0.755402 0.747070
0.129425 0.758331 0.747070
0.132843 0.759308 0.747070
0.136261 0.759308 0.750000
0.159790 0.771088 0.754913
0.206848 0.787750 0.764221
0.830872 0.910797 0.748047
0.925476 0.926483 0.738220
0.936279 0.926483 0.737244
0.128418 0.770599 0.750977
0.129425 0.774506 0.753937
0.133331 0.774506 0.754913
0.137268 0.774506 0.754913
0.162750 0.784302 0.758820
0.206848 0.796570 0.766663
0.812744 0.903931 0.734314
0.924500 0.923523 0.727448
0.936279 0.923523 0.723541
0.164703 0.082367 0.458832
0.199524 0.074524 0.450989
0.241180 0.070587 0.447052
0.295105 0.074524 0.443146
0.362732 0.103912 0.439209
0.555878 0.151947 0.435303
0.808838 0.186279 0.447052
0.827454 0.219604 0.447052
0.835297 0.223541 0.447052
0.133820 0.101471 0.477936
0.165192 0.093628 0.467163
0.210785 0.089691 0.458344
0.275970 0.089691 0.450500
0.353424 0.115204 0.441681
0.549988 0.161285 0.435791
0.809326 0.191162 0.447052
0.827942 0.227448 0.447052
0.839203 0.231873 0.447052
0.083344 0.146088 0.523529
0.107361 0.135284 0.507843
0.123535 0.149994 0.511780
0.226959 0.131866 0.474030
0.337250 0.134308 0.450989
0.545593 0.176971 0.439209
0.812744 0.199005 0.447052
0.831848 0.239716 0.447052
0.843140 0.246063 0.447052
0.041168 0.315674 0.611267
0.052460 0.280396 0.601471
0.075012 0.224030 0.572052
0.101959 0.230896 0.569611
0.306854 0.179413 0.479401
0.538239 0.206848 0.444122
0.815186 0.208832 0.450989
0.835785 0.262756 0.447540
0.847046 0.269104 0.447052
0.052948 0.478424 0.656860
0.056854 0.476471 0.656860
0.060791 0.474030 0.656860
0.065186 0.462250 0.652954
0.154907 0.325500 0.601959
0.535797 0.272064 0.469604
0.832367 0.279419 0.452454
0.847046 0.309814 0.450989
0.854889 0.317657 0.450989
0.072052 0.557343 0.683838
0.075989 0.557831 0.683838
0.079895 0.558838 0.683838
0.083832 0.558838 0.685303
0.109314 0.563232 0.692169
0.339203 0.492645 0.649994
0.852936 0.431366 0.474030
0.864227 0.440674 0.475494
0.872070 0.448517 0.478912
0.118622 0.728424 0.750000
0.122559 0.731384 0.753418
0.126465 0.731384 0.753937
0.130402 0.732361 0.753937
0.146088 0.740204 0.758331
0.196564 0.760284 0.770599
0.897064 0.910797 0.766174
0.925476 0.910797 0.759308
0.933319 0.907837 0.755402
0.121582 0.749023 0.756866
0.125488 0.749023 0.757355
0.129425 0.749512 0.760773
0.133331 0.752930 0.760773
0.152954 0.757355 0.764709
0.200500 0.774017 0.776459
0.719604 0.893127 0.795105
0.921570 0.933838 0.769104
0.932831 0.933838 0.768616
0.125488 0.760773 0.764709
0.129425 0.764221 0.764709
0.133331 0.764709 0.764709
0.137268 0.764709 0.764709
0.154907 0.770599 0.769104
0.202942 0.785797 0.780396
0.667145 0.886261 0.797058
0.913727 0.933838 0.765198
0.929413 0.937256 0.764709
0.164703 0.086273 0.466675
0.195587 0.078430 0.455383
0.237244 0.074524 0.450989
0.295105 0.074524 0.447052
0.362732 0.103912 0.443146
0.551971 0.153442 0.443146
0.808838 0.190186 0.454895
0.827454 0.223541 0.454895
0.839203 0.227448 0.450989
0.126465 0.105377 0.485779
0.160797 0.097534 0.474030
0.206360 0.089691 0.463226
0.274506 0.089691 0.454895
0.353424 0.115204 0.447052
0.545593 0.164703 0.443146
0.809814 0.195099 0.454895
0.830872 0.231384 0.454895
0.839203 0.235291 0.454895
0.075500 0.150970 0.531372
0.103424 0.135773 0.512756
0.119598 0.149994 0.515686
0.223053 0.131378 0.479401
0.337250 0.133331 0.455872
0.538727 0.179901 0.443146
0.812744 0.202942 0.454895
0.831848 0.243134 0.454895
0.843140 0.250000 0.454895
0.041168 0.319611 0.619110
0.052460 0.283813 0.607361
0.072052 0.226959 0.579895
0.101959 0.238739 0.577454
0.305389 0.179413 0.483337
0.532837 0.209320 0.451965
0.817657 0.212738 0.457367
0.837738 0.266663 0.454895
0.847046 0.270599 0.454895
0.054901 0.482361 0.660797
0.056854 0.480377 0.660797
0.060791 0.476471 0.660797
0.065186 0.466187 0.656860
0.150970 0.329407 0.607849
0.528931 0.270111 0.473541
0.832367 0.283325 0.458832
0.845093 0.313721 0.458832
0.854889 0.317657 0.458832
0.075989 0.561279 0.689209
0.075989 0.561279 0.689209
0.079895 0.562744 0.691681
0.083832 0.562744 0.691681
0.109314 0.566681 0.697540
0.326477 0.485291 0.649994
0.849518 0.428436 0.478912
0.860779 0.439697 0.482849
0.872070 0.448517 0.486755
0.118622 0.728424 0.757843
0.122559 0.728424 0.757843
0.126465 0.731384 0.757843
0.130402 0.731384 0.757843
0.146088 0.737244 0.763733
0.196075 0.756378 0.774994
0.890198 0.909790 0.774506
0.922058 0.907837 0.766663
0.933319 0.907837 0.763733
0.121582 0.745575 0.764709
0.125488 0.749023 0.764709
0.129425 0.749023 0.764709
0.133331 0.749512 0.764709
0.151459 0.756866 0.769104
0.200500 0.773041 0.780396
0.694611 0.887268 0.803436
0.917633 0.933838 0.780396
0.929413 0.937256 0.776459
0.125488 0.760773 0.768616
0.129425 0.760773 0.768616
0.133331 0.760773 0.768616
0.137268 0.760773 0.768616
0.154907 0.768616 0.772552
0.202942 0.781860 0.781860
0.613739 0.877441 0.816681
0.898529 0.937256 0.780396
0.925476 0.941162 0.776459
