luts_externos/iwltbap/free-named-looks/IWLTBAP Aspen - V-Log.cube
# Copyright: (C) Copyright 2010-2017 by IWLTBAP SAS
# Cannot be resold, shared or otherwise redistributed
# Website: https://luts.iwltbap.com
TITLE "IWLTBAP Aspen (V-Log)"
LUT_3D_SIZE 33
0.007843 0.015686 0.027466
0.007843 0.015686 0.023529
0.007843 0.015686 0.023529
0.007843 0.015686 0.023529
0.007843 0.015686 0.019623
0.011139 0.015686 0.016296
0.011780 0.015686 0.015686
0.018738 0.015686 0.015686
0.026459 0.015686 0.012756
0.043762 0.018494 0.011780
0.069611 0.022308 0.009064
0.093994 0.027466 0.007843
0.119598 0.033813 0.007843
0.148895 0.041534 0.007843
0.187988 0.049255 0.010040
0.238098 0.062988 0.011780
0.307831 0.078430 0.015686
0.409790 0.101471 0.023285
0.495575 0.121063 0.029175
0.565674 0.140442 0.036896
0.635773 0.157349 0.049988
0.710175 0.177826 0.060181
0.777191 0.189453 0.071808
0.837982 0.198883 0.083466
0.868622 0.187256 0.091187
0.874512 0.180389 0.098053
0.874512 0.180389 0.098053
0.874512 0.180389 0.098053
0.875000 0.180389 0.098053
0.878418 0.180023 0.098053
0.878418 0.176483 0.098053
0.878418 0.176483 0.098053
0.878418 0.176483 0.098053
0.007843 0.019470 0.027466
0.007843 0.015686 0.027466
0.007843 0.015686 0.023651
0.007843 0.015686 0.023529
0.007843 0.015686 0.023529
0.011139 0.015686 0.019623
0.014954 0.015686 0.016296
0.018738 0.015686 0.015686
0.026459 0.015686 0.015686
0.043762 0.018494 0.012756
0.070709 0.023407 0.011780
0.093994 0.030029 0.007843
0.119598 0.033813 0.007843
0.148895 0.041534 0.007843
0.189575 0.051483 0.011627
0.241913 0.062988 0.011780
0.309814 0.078430 0.017639
0.409790 0.103302 0.025238
0.495575 0.121063 0.029175
0.565674 0.140442 0.038483
0.635773 0.161285 0.049988
0.710175 0.179169 0.060181
0.777191 0.189453 0.071808
0.837982 0.198883 0.083466
0.871582 0.190063 0.091187
0.874512 0.184326 0.098053
0.874512 0.184204 0.098053
0.875122 0.180389 0.098053
0.878418 0.180389 0.098053
0.878418 0.180389 0.098053
0.878418 0.180389 0.098053
0.878418 0.180267 0.098053
0.878418 0.176483 0.098053
0.007843 0.019623 0.031128
0.007843 0.019623 0.027466
0.007843 0.019623 0.027466
0.007843 0.019623 0.027466
0.007843 0.019623 0.023773
0.011139 0.016052 0.020233
0.014954 0.015686 0.019623
0.018738 0.015686 0.016296
0.026459 0.018616 0.015686
0.043762 0.019623 0.015686
0.070831 0.026215 0.011780
0.093994 0.030029 0.008942
0.119598 0.037750 0.007843
0.150482 0.045227 0.007843
0.189697 0.052948 0.011780
0.242035 0.064819 0.015442
0.311768 0.080383 0.017639
0.409790 0.105377 0.025360
0.495575 0.122803 0.029175
0.565674 0.142029 0.040802
0.635773 0.161285 0.049988
0.710175 0.181488 0.060181
0.778442 0.189453 0.071808
0.837982 0.200012 0.086273
0.871582 0.191162 0.091187
0.874512 0.184326 0.098053
0.878174 0.184326 0.098053
0.878418 0.184326 0.098053
0.878418 0.184326 0.098053
0.878418 0.183716 0.098053
0.878418 0.180389 0.098053
0.878418 0.180389 0.098053
0.878418 0.180389 0.098053
0.007843 0.019623 0.031372
0.007843 0.019623 0.031372
0.007843 0.019623 0.031006
0.007843 0.019623 0.027466
0.007843 0.019623 0.027466
0.011139 0.019623 0.023529
0.014954 0.019623 0.019989
0.018738 0.019623 0.019623
0.029419 0.019623 0.015686
0.044495 0.022430 0.015686
0.070831 0.026215 0.015686
0.093994 0.031372 0.011780
0.119598 0.037750 0.011383
0.152832 0.045471 0.011383
0.191925 0.055389 0.011780
0.244110 0.066925 0.015686
0.313354 0.082367 0.017639
0.411530 0.105377 0.025360
0.495575 0.125000 0.031372
0.561768 0.143982 0.040802
0.635773 0.161285 0.049988
0.710175 0.181732 0.060181
0.778442 0.193390 0.071808
0.837982 0.202454 0.086273
0.871582 0.191162 0.091187
0.875366 0.188232 0.098053
0.878418 0.187866 0.098053
0.878418 0.184326 0.098053
0.878418 0.184326 0.098053
0.878418 0.184326 0.098053
0.878418 0.184326 0.098053
0.878418 0.183838 0.098053
0.878418 0.180389 0.098053
0.007843 0.023529 0.034790
0.007843 0.023529 0.034790
0.007843 0.023529 0.031372
0.007843 0.023529 0.031372
0.007843 0.023529 0.030884
0.011139 0.023041 0.027466
0.015198 0.019867 0.023529
0.022675 0.019623 0.019623
0.033325 0.022552 0.019623
0.051727 0.026337 0.015686
0.076965 0.030151 0.015686
0.101349 0.033936 0.011780
0.126953 0.041168 0.011780
0.157837 0.048889 0.011780
0.199280 0.056610 0.011780
0.249390 0.068268 0.015686
0.321075 0.084320 0.017639
0.416901 0.108826 0.025360
0.499023 0.126709 0.033081
0.565674 0.144348 0.040802
0.639221 0.164703 0.049988
0.714081 0.185181 0.060181
0.778442 0.193390 0.073029
0.839081 0.202820 0.086273
0.871582 0.195099 0.091187
0.877930 0.188232 0.098053
0.878418 0.188232 0.098053
0.878418 0.188232 0.098053
0.878418 0.187744 0.098053
0.878418 0.184326 0.098053
0.878418 0.184326 0.098053
0.878418 0.184326 0.098053
0.881866 0.184326 0.098053
0.007843 0.027466 0.039215
0.007843 0.027466 0.038605
0.007843 0.027466 0.038605
0.007843 0.026825 0.035309
0.007843 0.026947 0.035187
0.011139 0.027466 0.031372
0.015564 0.026825 0.027588
0.025726 0.026825 0.023529
0.037262 0.026825 0.019989
0.059448 0.030273 0.019623
0.082611 0.034058 0.016296
0.105774 0.037872 0.012512
0.134674 0.044983 0.011780
0.167145 0.052704 0.011780
0.208099 0.060425 0.013977
0.261017 0.072052 0.015686
0.330750 0.088226 0.019623
0.421448 0.111389 0.025360
0.499512 0.128937 0.033081
0.567413 0.148285 0.040802
0.639709 0.165192 0.049988
0.714081 0.185669 0.060181
0.782349 0.196686 0.073029
0.841309 0.203918 0.086273
0.873901 0.195099 0.094482
0.878418 0.192169 0.098053
0.878418 0.190796 0.098053
0.878418 0.188232 0.098053
0.878418 0.188232 0.098053
0.878418 0.188232 0.098053
0.878662 0.188232 0.098053
0.881744 0.187500 0.098053
0.882355 0.184326 0.098053
0.007843 0.031372 0.043152
0.007843 0.031372 0.043152
0.007843 0.031372 0.042389
0.007843 0.031372 0.042389
0.007843 0.031372 0.042389
0.007843 0.031372 0.039093
0.014954 0.034546 0.035309
0.022675 0.031372 0.031372
0.037262 0.030640 0.026703
0.059448 0.034546 0.023529
0.082611 0.038483 0.020111
0.109680 0.042389 0.016296
0.140930 0.048767 0.015686
0.173279 0.056488 0.014954
0.218628 0.064209 0.014954
0.270844 0.075867 0.015686
0.342407 0.092163 0.019623
0.431244 0.115326 0.025360
0.504913 0.132111 0.033081
0.569611 0.149872 0.040802
0.643616 0.168396 0.049988
0.718018 0.188843 0.060181
0.782349 0.197296 0.073029
0.841919 0.206726 0.087372
0.875488 0.198273 0.095093
0.878418 0.192169 0.098053
0.878418 0.192169 0.098053
0.878418 0.192169 0.098053
0.878418 0.191437 0.098053
0.878784 0.188232 0.098053
0.882355 0.188232 0.098053
0.882355 0.188232 0.098053
0.882355 0.188232 0.098053
0.007843 0.038361 0.050110
0.007843 0.038361 0.050110
0.007843 0.038361 0.050110
0.007843 0.038361 0.047058
0.007843 0.038361 0.047058
0.007843 0.038361 0.046204
0.011780 0.038483 0.046204
0.022675 0.042267 0.042267
0.037140 0.041412 0.034546
0.059204 0.042267 0.030762
0.082611 0.046204 0.027832
0.112244 0.050110 0.023529
0.144745 0.054047 0.019623
0.180267 0.061157 0.018738
0.226349 0.071075 0.018738
0.278564 0.079651 0.017761
0.353180 0.096069 0.019623
0.439209 0.120453 0.025360
0.508698 0.135895 0.033081
0.572662 0.152191 0.040802
0.649139 0.172180 0.049988
0.721924 0.189575 0.061890
0.786285 0.200378 0.073029
0.844971 0.207855 0.087372
0.875488 0.199005 0.095093
0.878418 0.195221 0.098053
0.878418 0.192169 0.098053
0.878418 0.192169 0.098053
0.881500 0.192169 0.098053
0.882355 0.192169 0.098053
0.882355 0.192169 0.098053
0.882355 0.191284 0.098053
0.882355 0.188232 0.098053
0.007843 0.046082 0.057831
0.007843 0.046082 0.057831
0.007843 0.046082 0.057831
0.007843 0.046082 0.057831
0.007843 0.046082 0.057831
0.007843 0.046082 0.057831
0.011780 0.046082 0.056854
0.011902 0.049133 0.053925
0.033325 0.052948 0.049988
0.055511 0.052948 0.042267
0.082367 0.053925 0.038239
0.112244 0.060425 0.031738
0.149506 0.064209 0.026947
0.187134 0.070953 0.024139
0.234070 0.078674 0.022552
0.289215 0.087372 0.022552
0.361755 0.102936 0.022552
0.445099 0.124268 0.025360
0.513489 0.139709 0.033081
0.578064 0.156128 0.040802
0.655396 0.175995 0.052460
0.725861 0.193512 0.062744
0.790192 0.202454 0.073029
0.845825 0.209686 0.087372
0.875488 0.201965 0.095093
0.878418 0.196075 0.098053
0.878418 0.196075 0.098053
0.881378 0.196075 0.098053
0.882355 0.195099 0.098053
0.882355 0.194733 0.098053
0.882355 0.192169 0.098053
0.882355 0.192169 0.098053
0.882355 0.192169 0.099030
0.007843 0.056610 0.072296
0.007843 0.056610 0.072296
0.007843 0.056610 0.072296
0.007843 0.056610 0.068390
0.007843 0.056610 0.068390
0.007843 0.057098 0.072296
0.011780 0.057709 0.068390
0.011780 0.057709 0.068390
0.015930 0.060669 0.065430
0.048767 0.068390 0.057709
0.078552 0.068390 0.049988
0.108337 0.072296 0.046204
0.148041 0.075867 0.038483
0.192047 0.082489 0.031860
0.245697 0.090210 0.030273
0.300720 0.097931 0.026337
0.370331 0.111511 0.026337
0.450012 0.130157 0.029297
0.515686 0.143494 0.033081
0.582245 0.160034 0.040802
0.663116 0.179779 0.053925
0.731262 0.194977 0.064087
0.794128 0.205139 0.075867
0.849762 0.211761 0.087372
0.878418 0.202942 0.095093
0.879303 0.198883 0.098053
0.882355 0.196075 0.098053
0.882355 0.196075 0.098053
0.882355 0.196075 0.098053
0.882355 0.196075 0.098053
0.882355 0.196075 0.098053
0.882355 0.194977 0.098053
0.882355 0.194977 0.098053
0.007843 0.068146 0.090454
0.007843 0.068146 0.090454
0.007843 0.068146 0.087738
0.007843 0.068146 0.087738
0.007843 0.068146 0.087738
0.007843 0.068756 0.087738
0.011017 0.072052 0.087250
0.011780 0.072052 0.083832
0.012024 0.072052 0.079895
0.018982 0.076111 0.077087
0.070831 0.083832 0.068146
0.110901 0.090332 0.061646
0.145599 0.090454 0.053925
0.192780 0.097931 0.046204
0.251709 0.105652 0.041901
0.316162 0.113373 0.037994
0.383820 0.126953 0.034058
0.456604 0.140564 0.034058
0.518372 0.152191 0.037018
0.586151 0.165070 0.037994
0.666901 0.183563 0.053925
0.735046 0.197418 0.064087
0.800720 0.207855 0.076965
0.853668 0.214569 0.087372
0.879425 0.203918 0.095093
0.882355 0.200012 0.098053
0.882355 0.200012 0.098053
0.882355 0.200012 0.098053
0.882355 0.198761 0.098053
0.882355 0.198761 0.098053
0.882355 0.196075 0.098053
0.882477 0.196075 0.098053
0.885040 0.196075 0.098053
0.007843 0.079651 0.111023
0.007843 0.082245 0.109680
0.007843 0.083344 0.109680
0.007843 0.083588 0.109680
0.007843 0.083588 0.109680
0.010406 0.083588 0.106384
0.010406 0.083588 0.105774
0.011780 0.086639 0.103180
0.011780 0.087494 0.101837
0.014587 0.090332 0.095337
0.027191 0.094360 0.091309
0.104401 0.108337 0.079651
0.154541 0.112122 0.071930
0.195587 0.113617 0.061646
0.259064 0.123657 0.053925
0.327209 0.130890 0.049622
0.403809 0.146942 0.045715
0.467651 0.156006 0.042511
0.528687 0.167633 0.043518
0.594971 0.177704 0.045715
0.670715 0.189819 0.052460
0.738983 0.201355 0.061523
0.805878 0.211639 0.076965
0.859070 0.214569 0.087372
0.881012 0.205505 0.095093
0.882355 0.203918 0.098053
0.882355 0.202576 0.098053
0.882355 0.202576 0.098053
0.884918 0.202087 0.098053
0.884918 0.200012 0.098053
0.886261 0.200012 0.098053
0.886261 0.200012 0.098053
0.886261 0.198639 0.098053
0.010284 0.099030 0.132843
0.011627 0.101471 0.132843
0.011780 0.101471 0.130402
0.011780 0.101471 0.130402
0.011780 0.101471 0.129425
0.014221 0.102325 0.128937
0.014221 0.105377 0.128937
0.014832 0.105377 0.125854
0.018127 0.105896 0.122559
0.018127 0.109314 0.118256
0.022308 0.112000 0.113220
0.048157 0.123901 0.106873
0.150482 0.139221 0.099030
0.213348 0.141663 0.083588
0.267883 0.145599 0.072052
0.347290 0.156982 0.064087
0.424988 0.170105 0.057831
0.488739 0.177826 0.054047
0.548279 0.185547 0.053436
0.609802 0.194733 0.055023
0.679413 0.203918 0.059814
0.740082 0.208832 0.060181
0.812256 0.218140 0.076965
0.861755 0.218506 0.087372
0.882355 0.207855 0.094116
0.884796 0.207245 0.098053
0.886261 0.212738 0.098053
0.888733 0.212738 0.100494
0.888733 0.212738 0.100494
0.888733 0.212372 0.100494
0.888733 0.208832 0.100494
0.888733 0.208832 0.100494
0.888733 0.208832 0.100494
0.015686 0.124634 0.152069
0.015686 0.124634 0.152069
0.018005 0.124634 0.152069
0.018005 0.124634 0.152069
0.018005 0.124634 0.149750
0.018005 0.126953 0.148773
0.018860 0.128540 0.148163
0.021942 0.130890 0.148163
0.021942 0.131500 0.145844
0.025848 0.134796 0.141907
0.028564 0.138733 0.137634
0.034180 0.139221 0.129913
0.074402 0.157227 0.126221
0.217041 0.178680 0.116791
0.293518 0.186401 0.099030
0.365570 0.192291 0.087250
0.451721 0.199890 0.075623
0.512390 0.205383 0.069489
0.572662 0.211029 0.067413
0.629913 0.221069 0.067413
0.692413 0.229523 0.070465
0.751343 0.231506 0.069977
0.816040 0.226959 0.071808
0.867157 0.222412 0.085052
0.883331 0.210175 0.091187
0.887146 0.218872 0.098907
0.890198 0.221924 0.101959
0.890198 0.221924 0.101959
0.890198 0.221924 0.101959
0.892517 0.221924 0.101959
0.892517 0.221924 0.101959
0.892517 0.221924 0.101959
0.894104 0.220337 0.101959
0.021820 0.151703 0.177460
0.021820 0.151703 0.177460
0.021820 0.153931 0.177460
0.025726 0.153931 0.177460
0.025726 0.153931 0.175232
0.025726 0.157837 0.175232
0.025726 0.157837 0.173523
0.028809 0.161774 0.173523
0.029663 0.162506 0.169617
0.033569 0.165680 0.169006
0.037506 0.169617 0.162994
0.040070 0.173523 0.156616
0.050995 0.178436 0.149994
0.110657 0.198151 0.156372
0.303192 0.227203 0.139954
0.402313 0.238983 0.120575
0.467407 0.240692 0.105133
0.538971 0.244598 0.091431
0.600739 0.248535 0.086761
0.656982 0.255768 0.085052
0.712494 0.259552 0.081116
0.771576 0.264587 0.085419
0.824768 0.253937 0.079895
0.873291 0.229645 0.080627
0.886261 0.214966 0.089966
0.890198 0.227936 0.101959
0.892395 0.233582 0.101959
0.894104 0.233582 0.101959
0.894104 0.231384 0.101959
0.894104 0.231384 0.101959
0.894348 0.229645 0.101959
0.896332 0.229645 0.101959
0.896332 0.229645 0.101959
0.031616 0.182953 0.210419
0.031616 0.182953 0.210419
0.031616 0.182953 0.210419
0.033081 0.182953 0.210419
0.033447 0.186890 0.210419
0.035553 0.186890 0.208344
0.035553 0.190796 0.207245
0.036530 0.190796 0.206482
0.037384 0.194733 0.203552
0.040192 0.198639 0.202576
0.044006 0.202576 0.198639
0.047791 0.206482 0.194244
0.053436 0.212860 0.184448
0.072296 0.228912 0.177216
0.154419 0.252808 0.196930
0.413483 0.295349 0.167267
0.502441 0.301239 0.145966
0.556366 0.297180 0.124634
0.618256 0.299011 0.112488
0.678070 0.300873 0.104767
0.734192 0.300873 0.100372
0.790070 0.304535 0.102203
0.844116 0.299011 0.099152
0.884796 0.268616 0.092163
0.890198 0.227692 0.086151
0.892273 0.240326 0.100128
0.896210 0.239716 0.100128
0.896210 0.239716 0.100128
0.896210 0.239716 0.100128
0.896210 0.239716 0.100128
0.896454 0.239471 0.100128
0.900116 0.237610 0.100128
0.900116 0.237610 0.100128
0.039215 0.227448 0.254913
0.039215 0.227448 0.254913
0.041168 0.227448 0.254913
0.041168 0.227448 0.254913
0.042633 0.230896 0.251465
0.043152 0.231384 0.250977
0.043152 0.233337 0.249756
0.043152 0.235291 0.247070
0.043152 0.237244 0.244110
0.043152 0.241180 0.240326
0.045105 0.245819 0.236511
0.047058 0.251587 0.232727
0.049011 0.259308 0.228912
0.051727 0.269348 0.220825
0.080627 0.287262 0.216187
0.214447 0.328796 0.244965
0.513733 0.376465 0.205872
0.587372 0.376587 0.176971
0.637268 0.368866 0.149750
0.695465 0.367035 0.134064
0.752930 0.358826 0.124023
0.806122 0.355530 0.119598
0.859070 0.346069 0.117157
0.896332 0.313232 0.108704
0.901947 0.274506 0.096069
0.901947 0.268616 0.107849
0.904663 0.272552 0.107849
0.905884 0.272552 0.107849
0.905884 0.272552 0.107849
0.905884 0.272552 0.107849
0.906128 0.272552 0.107849
0.909790 0.272552 0.109802
0.909790 0.272552 0.109802
0.031616 0.275604 0.304901
0.031616 0.277710 0.304901
0.031616 0.279541 0.304901
0.031616 0.279541 0.304901
0.031616 0.281128 0.304901
0.033691 0.283447 0.301605
0.033691 0.284790 0.300995
0.033691 0.287384 0.297913
0.033691 0.290314 0.294128
0.033691 0.294128 0.291290
0.033691 0.297913 0.287384
0.033691 0.305634 0.285309
0.033691 0.317291 0.281372
0.035553 0.327332 0.275116
0.038361 0.343140 0.265564
0.089691 0.362610 0.268982
0.316559 0.406006 0.302582
0.590942 0.447906 0.248413
0.664581 0.448029 0.207977
0.714447 0.442413 0.180878
0.772675 0.434692 0.157104
0.828796 0.425598 0.147186
0.878296 0.407715 0.138245
0.914581 0.367157 0.128052
0.917389 0.337250 0.116302
0.915314 0.329041 0.129791
0.919250 0.336761 0.132599
0.919250 0.336029 0.132599
0.921814 0.336029 0.132599
0.923157 0.333954 0.132599
0.923157 0.333954 0.132599
0.923157 0.333954 0.130768
0.925232 0.333954 0.130768
0.016174 0.337006 0.366669
0.016174 0.337006 0.366669
0.016174 0.338959 0.366669
0.016174 0.340942 0.366669
0.016174 0.340942 0.366669
0.016174 0.344849 0.366669
0.016174 0.344849 0.363495
0.016174 0.348785 0.362732
0.016174 0.350006 0.361511
0.016174 0.353790 0.357727
0.016174 0.358826 0.353912
0.016174 0.363617 0.346191
0.017883 0.371338 0.342407
0.019623 0.382965 0.332977
0.025238 0.394623 0.326965
0.043884 0.408813 0.311523
0.143860 0.428436 0.327209
0.418396 0.471436 0.354523
0.662506 0.511780 0.285309
0.737854 0.511780 0.237244
0.787994 0.502441 0.206116
0.847809 0.495087 0.184937
0.899750 0.477203 0.169128
0.931122 0.443024 0.153687
0.933563 0.408081 0.144104
0.936768 0.404053 0.160675
0.938477 0.412750 0.165436
0.940674 0.412750 0.165436
0.942413 0.412262 0.165436
0.942413 0.411041 0.165070
0.942413 0.411041 0.163727
0.942413 0.411041 0.163727
0.944611 0.411041 0.163727
0.009430 0.404907 0.421326
0.009430 0.404907 0.421326
0.009430 0.404907 0.421326
0.009430 0.404907 0.421326
0.009430 0.408325 0.421326
0.011017 0.408813 0.421326
0.011017 0.408813 0.419006
0.012634 0.411896 0.417389
0.012634 0.412750 0.417389
0.014221 0.414337 0.415070
0.016541 0.418274 0.412384
0.018127 0.418274 0.408569
0.020599 0.420715 0.400848
0.029907 0.429901 0.390808
0.039948 0.446930 0.379303
0.052826 0.458466 0.366180
0.079407 0.472290 0.353424
0.247681 0.494232 0.388855
0.506378 0.535309 0.393494
0.735901 0.568024 0.309082
0.812012 0.568024 0.253296
0.858093 0.556732 0.222168
0.912506 0.542389 0.200012
0.946564 0.520355 0.184570
0.952209 0.493011 0.175995
0.952209 0.488861 0.197784
0.955261 0.495087 0.202454
0.956116 0.495087 0.202454
0.958466 0.495087 0.201965
0.958466 0.492767 0.200867
0.958710 0.492767 0.200867
0.960052 0.492767 0.198517
0.962372 0.491180 0.198517
0.027954 0.470581 0.467651
0.027954 0.472046 0.467651
0.027954 0.472046 0.467651
0.030396 0.472046 0.467651
0.031860 0.472046 0.466187
0.031860 0.474518 0.466187
0.031860 0.475983 0.466187
0.034302 0.475983 0.463715
0.035797 0.479889 0.463715
0.035797 0.479889 0.460907
0.038239 0.483826 0.459808
0.039703 0.484924 0.455872
0.042145 0.488739 0.449524
0.047424 0.493988 0.437866
0.059570 0.503937 0.425476
0.068756 0.512512 0.408569
0.082367 0.520111 0.393127
0.137024 0.530884 0.389954
0.381866 0.568634 0.438721
0.593140 0.600861 0.417145
0.806366 0.625977 0.310791
0.873657 0.622192 0.256989
0.918640 0.610779 0.231140
0.956238 0.590332 0.215454
0.963226 0.570587 0.212738
0.967041 0.569122 0.244965
0.970093 0.573029 0.248047
0.970093 0.573029 0.248047
0.970093 0.572540 0.248047
0.974030 0.571564 0.248047
0.974030 0.571564 0.246582
0.974030 0.569122 0.244110
0.974030 0.569122 0.244110
0.097168 0.544250 0.516541
0.097168 0.544250 0.516541
0.097168 0.544250 0.516541
0.097168 0.544250 0.516541
0.099274 0.545593 0.514465
0.101105 0.548157 0.513977
0.101105 0.548157 0.512634
0.103668 0.548157 0.510895
0.103668 0.549744 0.508698
0.107605 0.552094 0.507233
0.108948 0.554657 0.504791
0.111511 0.557220 0.500854
0.114105 0.559692 0.496948
0.118011 0.563477 0.489716
0.121063 0.569855 0.474274
0.135162 0.573639 0.451477
0.149994 0.577454 0.434204
0.164825 0.580750 0.420593
0.240814 0.602081 0.432709
0.493256 0.645844 0.465698
0.682587 0.671448 0.414948
0.865692 0.683960 0.294006
0.927704 0.676361 0.264343
0.956238 0.660919 0.247681
0.969604 0.648407 0.251831
0.973907 0.648773 0.303558
0.976471 0.652710 0.310059
0.977081 0.652710 0.310059
0.977814 0.652710 0.306976
0.980377 0.652710 0.306122
0.980377 0.652710 0.303558
0.981750 0.652710 0.302216
0.981750 0.652710 0.302216
0.156372 0.617645 0.538483
0.158936 0.617645 0.538483
0.159058 0.617645 0.537262
0.159058 0.617645 0.537262
0.160309 0.617645 0.534546
0.160309 0.617645 0.534546
0.162262 0.619598 0.534546
0.164215 0.620331 0.533325
0.164215 0.621582 0.530640
0.164215 0.621582 0.529419
0.168152 0.621582 0.526703
0.168152 0.621582 0.524139
0.170593 0.625488 0.520355
0.173279 0.626587 0.514954
0.175995 0.629425 0.507843
0.180756 0.633331 0.487122
0.194366 0.636505 0.462494
0.215576 0.647308 0.455872
0.238739 0.661530 0.451477
0.364349 0.689087 0.468750
0.617401 0.726715 0.444611
0.767883 0.739349 0.378784
0.914703 0.737976 0.290192
0.955139 0.730377 0.277069
0.967896 0.724030 0.291412
0.977692 0.735046 0.389709
0.981140 0.736267 0.393616
0.981628 0.735657 0.389709
0.981628 0.735046 0.385773
0.984314 0.735046 0.381866
0.985535 0.735046 0.380646
0.985535 0.734924 0.376709
0.985535 0.733826 0.372803
0.200500 0.680511 0.535034
0.200500 0.680511 0.536163
0.201599 0.680511 0.536163
0.201599 0.680511 0.536163
0.204407 0.680511 0.536163
0.204407 0.680511 0.536163
0.205505 0.683319 0.536163
0.205505 0.683319 0.536163
0.208344 0.684448 0.534302
0.208344 0.684448 0.533325
0.209442 0.684448 0.532227
0.212250 0.687256 0.530762
0.212250 0.687256 0.526947
0.214569 0.689575 0.523163
0.216187 0.691162 0.519348
0.218262 0.695099 0.510651
0.225983 0.699890 0.490692
0.244476 0.710175 0.460175
0.288116 0.731628 0.470581
0.382965 0.754303 0.467896
0.540924 0.777191 0.433319
0.728424 0.796204 0.376343
0.829529 0.799744 0.329041
0.945587 0.788116 0.296326
0.971558 0.799988 0.362732
0.981262 0.819977 0.504425
0.984314 0.822784 0.511139
0.984924 0.819977 0.508331
0.985413 0.819977 0.508331
0.988220 0.819977 0.505524
0.988495 0.819977 0.501587
0.989349 0.819977 0.498779
0.992157 0.819977 0.494843
0.229401 0.733337 0.521576
0.229401 0.733337 0.522552
0.229401 0.733337 0.522552
0.230377 0.735901 0.525482
0.233337 0.737244 0.526459
0.233337 0.737244 0.526459
0.234314 0.737244 0.526459
0.237244 0.737244 0.526459
0.237244 0.737244 0.526459
0.238220 0.738220 0.527466
0.241180 0.741180 0.527466
0.241180 0.741180 0.526459
0.242157 0.741180 0.524994
0.245087 0.743500 0.523529
0.247314 0.745087 0.519623
0.249023 0.746216 0.515686
0.253937 0.750000 0.510773
0.261627 0.755890 0.495575
0.281372 0.765198 0.449524
0.407349 0.801849 0.453064
0.537750 0.815186 0.410309
0.673401 0.828186 0.362854
0.797302 0.839447 0.335052
0.887390 0.841919 0.322296
0.975494 0.860779 0.448029
0.984314 0.892151 0.671448
0.984314 0.892151 0.675232
0.988220 0.892151 0.674500
0.988220 0.892151 0.674500
0.988617 0.892151 0.674500
0.992157 0.892151 0.671570
0.992157 0.892151 0.671570
0.996063 0.892151 0.667633
0.235291 0.749023 0.525482
0.236145 0.749023 0.529419
0.239227 0.749878 0.529419
0.239227 0.749878 0.532104
0.240082 0.752930 0.533325
0.243134 0.752930 0.533325
0.243134 0.752930 0.533325
0.243988 0.753784 0.536407
0.247070 0.753784 0.537262
0.247070 0.755768 0.537262
0.247925 0.756866 0.537262
0.250977 0.756866 0.537262
0.251831 0.757721 0.534790
0.253296 0.759186 0.533325
0.254913 0.760773 0.531128
0.255768 0.761627 0.527313
0.258820 0.761627 0.523529
0.264343 0.768372 0.519470
0.325745 0.796448 0.531616
0.448395 0.825989 0.538116
0.570953 0.847534 0.536285
0.694611 0.861511 0.521088
0.821320 0.874512 0.521210
0.901459 0.880646 0.521454
0.965698 0.869598 0.428925
0.984314 0.918518 0.757721
0.984314 0.921570 0.765564
0.988220 0.921570 0.765564
0.988220 0.921570 0.765564
0.988220 0.921570 0.764709
0.992157 0.921570 0.764709
0.992157 0.921570 0.761627
0.992157 0.921570 0.761627
0.239227 0.749756 0.525482
0.239227 0.752930 0.528564
0.239227 0.752930 0.529419
0.242767 0.752930 0.529419
0.243134 0.753662 0.532104
0.243134 0.756866 0.533325
0.246338 0.756866 0.533325
0.247070 0.756866 0.533325
0.247070 0.757599 0.535553
0.249878 0.757599 0.537262
0.250977 0.760773 0.537262
0.251709 0.760773 0.536530
0.254913 0.761505 0.533325
0.254913 0.763123 0.533325
0.257111 0.764709 0.531128
0.258820 0.764709 0.527313
0.260773 0.765442 0.522797
0.273163 0.775116 0.523651
0.342407 0.804169 0.533813
0.467773 0.832977 0.540436
0.587494 0.851471 0.538727
0.708099 0.866180 0.521576
0.825256 0.878418 0.526947
