luts_externos/iwltbap/free-named-looks/IWLTBAP Sedona - LOG.cube
# Copyright: (C) Copyright 2010-2017 by IWLTBAP SAS
# Cannot be resold, shared or otherwise redistributed
# Website: https://luts.iwltbap.com
TITLE "IWLTBAP Sedona (LOG)"
LUT_3D_SIZE 32
0.000000 0.000000 0.013947
0.000000 0.000000 0.013198
0.000425 0.000000 0.012070
0.014451 0.000000 0.010644
0.046158 0.000000 0.009448
0.086107 0.000000 0.009600
0.130934 0.000189 0.010478
0.173210 0.004084 0.010221
0.212804 0.009630 0.009099
0.251217 0.017196 0.008392
0.288014 0.023656 0.008543
0.325008 0.030631 0.008854
0.362750 0.039483 0.009275
0.403364 0.049850 0.009585
0.446067 0.060752 0.009926
0.486688 0.071185 0.010191
0.528115 0.082782 0.010392
0.566221 0.093631 0.010609
0.599703 0.102950 0.010795
0.628627 0.111051 0.010932
0.654095 0.118346 0.011076
0.676978 0.125343 0.011139
0.697022 0.131387 0.011160
0.715078 0.136803 0.011200
0.732354 0.142690 0.011308
0.749204 0.149130 0.011457
0.764943 0.155085 0.011556
0.778637 0.160107 0.011695
0.792023 0.165744 0.012180
0.805186 0.171104 0.012504
0.817968 0.177472 0.013768
0.829315 0.184052 0.015686
0.000000 0.000000 0.014169
0.000000 0.000000 0.013542
0.000227 0.000000 0.012454
0.010677 0.000000 0.011104
0.038524 0.000000 0.009800
0.075240 0.000000 0.009515
0.118429 0.000225 0.010249
0.160238 0.004305 0.010357
0.200233 0.010149 0.009202
0.240371 0.018271 0.008459
0.278864 0.025427 0.008402
0.317307 0.032423 0.008505
0.356818 0.041922 0.008888
0.398853 0.052531 0.009304
0.443052 0.064116 0.009628
0.485948 0.075457 0.009955
0.528496 0.087500 0.010190
0.567888 0.098855 0.010408
0.601646 0.108292 0.010607
0.631565 0.116719 0.010793
0.657348 0.124130 0.010899
0.680546 0.131157 0.010952
0.700491 0.137060 0.010974
0.718566 0.142557 0.011014
0.735794 0.148416 0.011126
0.752858 0.154945 0.011297
0.768372 0.160106 0.011222
0.782213 0.165201 0.011411
0.795515 0.170497 0.011670
0.808533 0.175408 0.011820
0.820748 0.181325 0.012928
0.831573 0.187675 0.014814
0.000000 0.000000 0.015074
0.000000 0.000000 0.014357
0.000000 0.000000 0.013124
0.006274 0.000000 0.011772
0.028120 0.000000 0.010174
0.062218 0.000000 0.009550
0.102288 0.000227 0.010027
0.144660 0.004256 0.010448
0.185392 0.010114 0.009382
0.227768 0.018959 0.008613
0.268473 0.026638 0.008392
0.308668 0.034099 0.008402
0.349886 0.043775 0.008472
0.394016 0.055269 0.008791
0.439987 0.067607 0.009176
0.484592 0.079592 0.009508
0.529004 0.092369 0.009785
0.569994 0.104220 0.010081
0.604883 0.114107 0.010297
0.635340 0.122837 0.010467
0.661415 0.130434 0.010600
0.684733 0.137314 0.010663
0.704703 0.143199 0.010725
0.722905 0.148721 0.010778
0.740197 0.154449 0.010822
0.757105 0.160193 0.010821
0.772734 0.165332 0.010790
0.786497 0.170412 0.010822
0.799496 0.175014 0.010847
0.812373 0.179815 0.010960
0.823885 0.185033 0.011794
0.833592 0.191036 0.013667
0.000000 0.000000 0.018105
0.000000 0.000000 0.017345
0.000000 0.000000 0.015611
0.001233 0.000000 0.012953
0.017594 0.000000 0.011455
0.047111 0.000000 0.009982
0.085123 0.000416 0.009431
0.128405 0.004970 0.009898
0.171428 0.011348 0.009187
0.215576 0.020101 0.008739
0.258648 0.028085 0.008392
0.300315 0.035766 0.008392
0.343478 0.045650 0.008392
0.389121 0.057555 0.008444
0.436983 0.070602 0.008731
0.483021 0.083122 0.009126
0.529104 0.096476 0.009385
0.571263 0.108886 0.009712
0.607563 0.119371 0.010015
0.638647 0.128420 0.010202
0.665143 0.136119 0.010319
0.688373 0.142857 0.010406
0.708471 0.148744 0.010477
0.726666 0.154268 0.010486
0.744138 0.159978 0.010486
0.760849 0.165390 0.010461
0.776482 0.170635 0.010428
0.790183 0.175515 0.010426
0.803115 0.179918 0.010397
0.815616 0.184601 0.010535
0.826679 0.189398 0.011138
0.835708 0.194830 0.012618
0.000000 0.000000 0.022266
0.000000 0.000000 0.022262
0.000000 0.000000 0.021326
0.000093 0.000081 0.019120
0.008904 0.000058 0.015002
0.033792 0.000053 0.011311
0.067510 0.002739 0.010222
0.111571 0.007106 0.008868
0.156222 0.014406 0.008855
0.202733 0.022894 0.008672
0.248747 0.031047 0.008392
0.291693 0.038332 0.008392
0.337141 0.048241 0.008392
0.384407 0.060405 0.008392
0.433758 0.073594 0.008419
0.481621 0.086749 0.008631
0.528711 0.100475 0.008982
0.572342 0.113489 0.009342
0.610312 0.124651 0.009634
0.641672 0.133868 0.009845
0.668336 0.141579 0.010030
0.691926 0.148592 0.010137
0.712387 0.154700 0.010222
0.730591 0.160191 0.010258
0.747893 0.165676 0.010238
0.764340 0.171096 0.010195
0.779627 0.176211 0.010185
0.793682 0.181140 0.010189
0.806633 0.185373 0.010147
0.818735 0.190103 0.010314
0.829736 0.194558 0.010789
0.837994 0.198995 0.011607
0.000000 0.002629 0.026759
0.000000 0.002862 0.026964
0.000000 0.003549 0.027021
0.000000 0.004686 0.026981
0.005341 0.006149 0.024500
0.025254 0.003442 0.015854
0.054522 0.005647 0.012506
0.094871 0.012888 0.010840
0.141271 0.020199 0.008892
0.190466 0.027762 0.008501
0.239500 0.035696 0.008392
0.283862 0.042782 0.008392
0.330949 0.052314 0.008392
0.380253 0.064463 0.008392
0.431018 0.077696 0.008392
0.480377 0.090860 0.008417
0.528771 0.104781 0.008634
0.573531 0.118246 0.009027
0.612236 0.129776 0.009328
0.644329 0.139200 0.009553
0.671754 0.147351 0.009753
0.695192 0.154369 0.009877
0.715730 0.160395 0.009985
0.733897 0.166028 0.010014
0.751269 0.171488 0.010015
0.767517 0.176776 0.010015
0.782568 0.181887 0.010015
0.796787 0.186796 0.009989
0.810027 0.191198 0.009908
0.821841 0.195609 0.010023
0.832837 0.199737 0.010277
0.840209 0.203792 0.010831
0.000000 0.012307 0.032295
0.000000 0.012748 0.032615
0.000000 0.013647 0.033078
0.000000 0.015284 0.033845
0.001123 0.018435 0.033564
0.021651 0.021245 0.028633
0.043567 0.014645 0.018596
0.081250 0.018858 0.013743
0.126114 0.028516 0.011368
0.176599 0.036197 0.009054
0.229515 0.043080 0.008392
0.276003 0.049626 0.008392
0.324626 0.058597 0.008392
0.375971 0.070639 0.008392
0.428354 0.083610 0.008392
0.479007 0.096475 0.008392
0.528728 0.110118 0.008417
0.574762 0.123694 0.008693
0.614195 0.135283 0.009001
0.647338 0.145075 0.009292
0.675119 0.153432 0.009461
0.698645 0.160432 0.009576
0.719198 0.166536 0.009697
0.737479 0.172180 0.009748
0.754797 0.177646 0.009761
0.770817 0.182840 0.009761
0.785773 0.187970 0.009719
0.800225 0.192891 0.009679
0.813488 0.197299 0.009600
0.825169 0.201288 0.009582
0.835992 0.205112 0.009576
0.842515 0.209094 0.010134
0.000000 0.027804 0.038427
0.000000 0.028021 0.038705
0.000000 0.028790 0.039195
0.000000 0.030054 0.040073
0.000305 0.032813 0.042150
0.014828 0.037206 0.038991
0.040806 0.040058 0.032248
0.067090 0.030421 0.020431
0.112329 0.035575 0.014626
0.161656 0.045871 0.011785
0.216369 0.055030 0.009244
0.266594 0.060561 0.008401
0.318003 0.068233 0.008392
0.371403 0.079446 0.008392
0.425932 0.092141 0.008392
0.477834 0.104534 0.008392
0.529622 0.118322 0.008392
0.576976 0.131570 0.008431
0.617014 0.142717 0.008677
0.650447 0.152144 0.008968
0.678641 0.160319 0.009186
0.702077 0.167139 0.009331
0.722785 0.173300 0.009424
0.741150 0.178811 0.009481
0.758519 0.184310 0.009493
0.774294 0.189562 0.009493
0.789149 0.194673 0.009443
0.803522 0.199509 0.009409
0.817067 0.204082 0.009381
0.828601 0.207877 0.009319
0.838665 0.211493 0.009317
0.844985 0.214904 0.009500
0.000000 0.045149 0.045840
0.000000 0.045141 0.045890
0.000000 0.045747 0.046423
0.000000 0.046835 0.047336
0.000000 0.049107 0.050004
0.008921 0.053348 0.049811
0.031916 0.058646 0.045351
0.065492 0.061936 0.035925
0.097530 0.050271 0.022602
0.148705 0.054976 0.015697
0.203726 0.066538 0.012074
0.254718 0.076707 0.009761
0.309851 0.083200 0.008445
0.366814 0.092246 0.008392
0.423659 0.103684 0.008392
0.477750 0.115709 0.008392
0.531046 0.129191 0.008392
0.579450 0.142032 0.008392
0.620784 0.152860 0.008441
0.654767 0.161843 0.008641
0.683029 0.169515 0.008862
0.706521 0.175882 0.009035
0.727179 0.181632 0.009168
0.745296 0.186815 0.009236
0.762477 0.192108 0.009277
0.778086 0.197318 0.009277
0.792773 0.202390 0.009214
0.807218 0.207083 0.009208
0.820712 0.211705 0.009180
0.832098 0.215414 0.009126
0.841732 0.219137 0.009124
0.847937 0.222716 0.009391
0.000000 0.064585 0.054311
0.000000 0.064598 0.054288
0.000000 0.064745 0.054491
0.000000 0.065694 0.055521
0.000000 0.067630 0.057862
0.004761 0.070950 0.060003
0.023626 0.076149 0.057119
0.052715 0.083468 0.052221
0.094033 0.086841 0.039921
0.133086 0.073728 0.025661
0.192196 0.078293 0.016956
0.245215 0.090069 0.013276
0.299828 0.102522 0.010612
0.359955 0.111258 0.008573
0.420967 0.120098 0.008392
0.477499 0.130406 0.008392
0.532527 0.143004 0.008392
0.582763 0.155509 0.008392
0.625222 0.165896 0.008392
0.659554 0.174327 0.008419
0.688496 0.181647 0.008549
0.712093 0.187476 0.008715
0.732589 0.192710 0.008849
0.750660 0.197602 0.008959
0.767400 0.202717 0.008989
0.782798 0.207682 0.008989
0.797658 0.212575 0.008953
0.811806 0.217136 0.008946
0.825143 0.221635 0.008917
0.836202 0.225370 0.008877
0.845327 0.228996 0.008876
0.851288 0.232381 0.009285
0.000000 0.087774 0.064182
0.000000 0.087110 0.063687
0.000000 0.086750 0.063385
0.000000 0.086846 0.063987
0.000000 0.088695 0.066145
0.004218 0.091609 0.069078
0.017452 0.096011 0.068996
0.040458 0.102890 0.065857
0.077894 0.113013 0.059593
0.128435 0.115377 0.045028
0.175961 0.101739 0.029143
0.235095 0.105998 0.019989
0.291264 0.117955 0.014995
0.351749 0.133375 0.011830
0.415891 0.143492 0.008948
0.476365 0.151581 0.008392
0.533986 0.161786 0.008392
0.586318 0.172789 0.008392
0.630662 0.182974 0.008392
0.665537 0.190810 0.008392
0.694723 0.197456 0.008392
0.718337 0.202631 0.008441
0.738872 0.207672 0.008524
0.756781 0.212149 0.008607
0.773234 0.216847 0.008656
0.788268 0.221356 0.008679
0.802821 0.225842 0.008689
0.816601 0.230307 0.008689
0.829989 0.235108 0.008689
0.841035 0.238557 0.008668
0.849148 0.241859 0.008668
0.855173 0.244745 0.008719
0.000000 0.113921 0.074780
0.000000 0.112921 0.074088
0.000000 0.112189 0.073643
0.000000 0.111811 0.073635
0.000135 0.112691 0.074912
0.004795 0.115160 0.077341
0.015281 0.119363 0.079402
0.033213 0.125658 0.078752
0.063017 0.135080 0.075806
0.112095 0.147974 0.066497
0.172319 0.148336 0.050885
0.221002 0.132987 0.033562
0.282577 0.137630 0.023483
0.345097 0.151460 0.017470
0.409689 0.167940 0.013338
0.473296 0.178534 0.009664
0.534891 0.187408 0.008408
0.590830 0.196691 0.008392
0.636276 0.205051 0.008392
0.672280 0.211953 0.008392
0.702296 0.218003 0.008392
0.725893 0.222908 0.008392
0.746347 0.227402 0.008392
0.763789 0.231184 0.008392
0.779888 0.234901 0.008431
0.794829 0.238870 0.008487
0.809027 0.243157 0.008492
0.821874 0.247392 0.008523
0.835066 0.251780 0.008533
0.845948 0.254972 0.008564
0.853090 0.257973 0.008564
0.858958 0.260448 0.008575
0.000000 0.143572 0.086046
0.000000 0.142384 0.085246
0.000000 0.141387 0.084767
0.000000 0.140907 0.084718
0.000664 0.141485 0.085671
0.006991 0.142869 0.087376
0.015025 0.146080 0.089665
0.028969 0.151876 0.091016
0.053630 0.160556 0.090185
0.093856 0.172035 0.084901
0.157569 0.187069 0.072449
0.218416 0.183628 0.057230
0.269431 0.168544 0.039117
0.337737 0.174210 0.027304
0.404168 0.187360 0.019737
0.469197 0.203965 0.014792
0.532755 0.217119 0.010584
0.592720 0.227104 0.008652
0.640606 0.233879 0.008392
0.678945 0.239489 0.008392
0.709590 0.244554 0.008392
0.733425 0.248251 0.008392
0.753844 0.251195 0.008392
0.771267 0.254249 0.008392
0.787295 0.257403 0.008392
0.801990 0.260919 0.008402
0.815519 0.264632 0.008450
0.828463 0.268447 0.008465
0.841536 0.272229 0.008523
0.851192 0.275490 0.008555
0.857508 0.277961 0.008586
0.863492 0.280290 0.008630
0.000000 0.176503 0.098217
0.000000 0.175223 0.097535
0.000000 0.173918 0.096721
0.000016 0.172454 0.095993
0.003098 0.172612 0.096759
0.010521 0.174035 0.098704
0.017850 0.175900 0.100054
0.028010 0.180403 0.102020
0.047687 0.188474 0.103154
0.081586 0.199705 0.101768
0.137636 0.214799 0.092414
0.209577 0.231693 0.082591
0.272327 0.222607 0.063371
0.326681 0.206364 0.042985
0.397956 0.212704 0.030601
0.465579 0.225928 0.022703
0.529970 0.244411 0.017625
0.592004 0.261807 0.013739
0.643727 0.271835 0.010580
0.684354 0.276871 0.009099
0.716477 0.279319 0.008454
0.741271 0.281317 0.008392
0.761922 0.282771 0.008401
0.779684 0.285169 0.008431
0.795351 0.287455 0.008472
0.809542 0.289799 0.008504
0.822692 0.292486 0.008535
0.835542 0.295503 0.008569
0.848210 0.298852 0.008599
0.856574 0.301884 0.008660
0.862738 0.304045 0.008692
0.868774 0.305773 0.008711
0.000000 0.213227 0.113303
0.000000 0.212084 0.112777
0.000006 0.210547 0.111775
0.001364 0.209071 0.111032
0.007680 0.207917 0.110907
0.015748 0.208850 0.112453
0.023170 0.211073 0.113785
0.032387 0.214973 0.115537
0.046392 0.221123 0.117907
0.073086 0.231752 0.119276
0.122493 0.246824 0.115777
0.190806 0.264299 0.103419
0.269308 0.281057 0.093859
0.331220 0.262268 0.068905
0.388608 0.248180 0.048321
0.460800 0.255048 0.035478
0.528148 0.268590 0.026846
0.592447 0.289590 0.021984
0.645386 0.308089 0.018932
0.687814 0.318922 0.016109
0.722123 0.323740 0.013573
0.748102 0.325367 0.012041
0.769574 0.326401 0.011209
0.787232 0.326786 0.010575
0.802530 0.327452 0.010274
0.816543 0.328216 0.010106
0.829323 0.329324 0.010040
0.841749 0.331362 0.010140
0.853835 0.333962 0.010314
0.861009 0.335644 0.010459
0.867178 0.336671 0.010475
0.873182 0.337736 0.010513
0.000000 0.253237 0.130497
0.000027 0.251975 0.129869
0.002487 0.250107 0.128655
0.007597 0.248639 0.127819
0.014829 0.247645 0.127398
0.023215 0.247846 0.128415
0.030295 0.249471 0.128839
0.038571 0.253202 0.130375
0.049967 0.258675 0.133074
0.069981 0.267021 0.135774
0.109439 0.280991 0.136806
0.175210 0.298824 0.128288
0.252291 0.318973 0.116257
0.339178 0.334654 0.105128
0.395387 0.305843 0.075267
0.453695 0.292753 0.054231
0.525704 0.300042 0.040392
0.592548 0.315083 0.031729
0.646828 0.334279 0.028040
0.690720 0.352019 0.025869
0.726242 0.365082 0.024338
0.753469 0.372784 0.023400
0.775130 0.376562 0.022458
0.793408 0.378727 0.021610
0.809259 0.379010 0.020374
0.823290 0.378785 0.019570
0.835931 0.378332 0.018989
0.848039 0.378589 0.018744
0.859157 0.379316 0.018510
0.865959 0.379175 0.018162
0.872027 0.378763 0.017810
0.878133 0.378739 0.017535
0.002502 0.295663 0.148188
0.005115 0.294339 0.147409
0.009475 0.292495 0.146228
0.015046 0.290860 0.145208
0.022735 0.290100 0.145005
0.031249 0.290306 0.145779
0.038382 0.291391 0.145419
0.046063 0.294320 0.146168
0.055998 0.299165 0.148466
0.070733 0.305874 0.151340
0.100663 0.318194 0.155107
0.159571 0.336681 0.153944
0.237380 0.356687 0.139896
0.325915 0.380750 0.132453
0.412213 0.387971 0.115720
0.460483 0.350672 0.082366
0.520662 0.339921 0.060532
0.591714 0.348820 0.046601
0.648672 0.362242 0.039246
0.693878 0.377738 0.035642
0.730217 0.393405 0.034397
0.758279 0.407768 0.035276
0.780774 0.417705 0.035788
0.799411 0.424124 0.035805
0.815698 0.428122 0.035278
0.829989 0.429885 0.034463
0.842535 0.430614 0.033760
0.854358 0.431353 0.033263
0.864409 0.431556 0.032574
0.870801 0.431042 0.031839
0.876702 0.429772 0.030955
0.882652 0.428529 0.030095
0.009996 0.341037 0.166349
0.012969 0.339839 0.165842
0.017569 0.337997 0.164717
0.023551 0.335970 0.163442
0.031393 0.334885 0.162904
0.040159 0.335158 0.163413
0.047481 0.335966 0.162738
0.055077 0.338214 0.162723
0.063926 0.342346 0.164287
0.074810 0.347963 0.166911
0.095570 0.358240 0.171466
0.141571 0.375189 0.174932
0.223774 0.397560 0.167003
0.317135 0.422554 0.154589
0.408591 0.447730 0.150515
0.486263 0.444263 0.129055
0.528724 0.400204 0.090121
0.589529 0.391677 0.068154
0.650248 0.399312 0.055846
0.697095 0.409447 0.049079
0.734888 0.422239 0.046290
0.763586 0.435410 0.046652
0.787091 0.448204 0.048405
0.806813 0.459940 0.050804
0.823728 0.468990 0.052374
0.838364 0.475552 0.053524
0.850900 0.479565 0.053919
0.862467 0.482394 0.053894
0.871490 0.484084 0.053751
0.877867 0.485927 0.053880
0.883656 0.485745 0.052951
0.889162 0.484045 0.051341
0.019052 0.386292 0.184074
0.021763 0.385197 0.183638
0.026589 0.383063 0.182343
0.032889 0.380929 0.181186
0.041012 0.379964 0.180580
0.049813 0.380194 0.180915
0.057709 0.381603 0.180493
0.065768 0.384223 0.180013
0.074687 0.388220 0.181389
0.085191 0.393503 0.183882
0.100490 0.401545 0.188013
0.135841 0.418103 0.195214
0.212447 0.440681 0.194440
0.312771 0.467209 0.179434
0.404560 0.492455 0.175701
0.491935 0.513577 0.169627
0.557408 0.493346 0.138561
0.596703 0.448459 0.097891
0.651078 0.442814 0.078509
0.700966 0.449561 0.068795
0.740016 0.458052 0.063690
0.769681 0.468445 0.062966
0.793597 0.478734 0.063669
0.813217 0.488984 0.065663
0.830271 0.498043 0.067327
0.845173 0.506498 0.069282
0.857511 0.513806 0.071272
0.869149 0.519517 0.072605
0.877637 0.524628 0.074096
0.883936 0.528751 0.075309
0.889855 0.531357 0.075640
0.895332 0.531644 0.074705
0.029489 0.429413 0.201306
0.031837 0.428864 0.201379
0.036606 0.427488 0.200729
0.043418 0.426112 0.200043
0.052073 0.425416 0.199679
0.060749 0.425606 0.199782
0.068973 0.426139 0.198541
0.076923 0.428035 0.197481
0.086096 0.432038 0.198413
0.096720 0.437188 0.200482
0.111725 0.445656 0.204861
0.141287 0.461005 0.213068
0.210615 0.483279 0.216448
0.315556 0.509266 0.201821
0.408740 0.533994 0.196232
0.491718 0.557780 0.194099
0.574346 0.569098 0.179972
0.621707 0.530672 0.142540
0.656480 0.496087 0.109959
0.703802 0.494389 0.094922
0.744272 0.499099 0.086990
0.774521 0.504501 0.083078
0.798718 0.510846 0.081454
0.818852 0.518426 0.081929
0.835620 0.525435 0.082634
0.850046 0.531943 0.083582
0.862515 0.538126 0.084833
0.874431 0.544256 0.086270
0.882374 0.550670 0.088435
0.888682 0.556559 0.090518
0.894517 0.561374 0.091886
0.899960 0.564097 0.092038
0.039538 0.468051 0.215854
0.041749 0.467694 0.216149
0.046014 0.466904 0.216031
0.053023 0.466164 0.215858
0.061861 0.465831 0.215795
0.071281 0.465831 0.215485
0.079914 0.466536 0.214574
0.088312 0.468826 0.213218
0.097900 0.472885 0.213575
0.108563 0.477851 0.215536
0.122969 0.485176 0.219135
0.152385 0.500163 0.227009
0.218074 0.522047 0.231813
0.322923 0.547659 0.219850
0.416203 0.572192 0.214075
0.496193 0.594837 0.212361
0.576883 0.614670 0.206262
0.644814 0.608971 0.184698
0.676416 0.564179 0.147368
0.707465 0.539184 0.122446
0.747568 0.537822 0.109822
0.778674 0.540090 0.103493
0.803573 0.543075 0.099566
0.823685 0.547526 0.097930
0.840351 0.551773 0.097102
0.854687 0.556685 0.097379
0.867530 0.561409 0.097647
0.879245 0.566814 0.098778
0.886700 0.572219 0.100419
0.892974 0.578259 0.102689
0.898799 0.583275 0.104188
0.904214 0.586268 0.104322
0.047511 0.499659 0.225891
0.049832 0.499740 0.226649
0.053559 0.499917 0.227275
0.060415 0.499513 0.227574
0.069913 0.499503 0.227751
0.079884 0.500510 0.228376
0.089429 0.501567 0.227872
0.097995 0.503280 0.225921
0.107129 0.506245 0.225505
0.117581 0.510571 0.226432
0.132449 0.518498 0.230085
0.162140 0.533544 0.238099
0.230436 0.556296 0.243022
0.333671 0.581961 0.234050
0.424670 0.605427 0.229063
0.503217 0.626606 0.226721
0.579146 0.647775 0.223678
0.653049 0.657435 0.210055
0.694688 0.627662 0.181514
0.720630 0.591444 0.151773
0.749307 0.573272 0.131662
0.781096 0.572438 0.122745
0.806650 0.572822 0.116623
0.827046 0.574353 0.112931
0.843881 0.576977 0.111220
0.858614 0.580238 0.110537
0.871613 0.583967 0.110522
0.883344 0.588276 0.110981
0.890638 0.593065 0.112448
0.896697 0.598075 0.114182
0.902374 0.602860 0.115877
0.907559 0.606287 0.116614
0.054303 0.526474 0.233618
0.056686 0.526684 0.234438
0.059802 0.527316 0.235384
0.066359 0.528084 0.236664
0.076625 0.528811 0.237843
0.087139 0.529460 0.238051
0.097173 0.530872 0.237860
0.105819 0.532756 0.236068
0.115358 0.535908 0.235058
0.126354 0.540550 0.235974
0.141925 0.548897 0.239856
0.172642 0.563808 0.247405
0.243038 0.587131 0.252149
0.343633 0.611408 0.244809
0.433240 0.633094 0.239963
0.508818 0.653292 0.238089
0.582851 0.674226 0.235689
0.652162 0.686729 0.225873
0.708568 0.679158 0.206890
0.735201 0.643106 0.179017
0.757575 0.614966 0.155855
0.782231 0.603757 0.142618
0.808716 0.602514 0.134960
0.829523 0.602082 0.129964
0.847032 0.602262 0.126022
0.861948 0.603648 0.124104
0.875164 0.606159 0.123359
0.886497 0.609299 0.123334
0.893820 0.613426 0.124572
0.899858 0.617508 0.125893
0.905521 0.622231 0.127692
0.910456 0.624881 0.128072
0.060364 0.550172 0.240050
0.062772 0.550490 0.240946
0.065652 0.551316 0.241989
0.071472 0.552075 0.243241
0.082323 0.553277 0.244883
0.093479 0.555069 0.246201
0.104038 0.557007 0.246481
0.113186 0.559097 0.244627
0.122964 0.562035 0.243264
0.133446 0.565662 0.243198
0.148716 0.573189 0.246374
0.179858 0.587911 0.253685
0.253523 0.611786 0.257692
0.352155 0.635534 0.252441
0.438513 0.656575 0.249593
0.513576 0.675734 0.247190
0.584942 0.695069 0.244410
0.650153 0.708490 0.237077
0.714048 0.713119 0.222533
0.743791 0.685194 0.200363
0.768510 0.656700 0.177426
0.786152 0.635630 0.161101
0.808897 0.628688 0.151301
0.830647 0.626667 0.144499
0.848671 0.625370 0.139403
0.864011 0.625295 0.136313
0.877684 0.626692 0.134885
0.889192 0.629460 0.134901
0.896480 0.632124 0.135220
0.902407 0.635339 0.135902
0.907916 0.638769 0.136856
0.912711 0.641177 0.137330
0.065438 0.570851 0.245282
0.067894 0.571303 0.245669
0.070817 0.572356 0.246987
0.076414 0.573707 0.248747
0.086279 0.574812 0.250378
0.098327 0.577060 0.252132
0.109886 0.579386 0.252904
0.119125 0.581147 0.250792
0.128447 0.583343 0.248360
0.139587 0.587584 0.248627
0.155698 0.595699 0.252164
0.187847 0.610572 0.259396
0.261836 0.633626 0.262796
0.356065 0.655988 0.259638
0.440956 0.675496 0.256713
0.514109 0.693421 0.254013
0.584235 0.711329 0.250628
0.648559 0.725790 0.244912
0.708991 0.731779 0.232144
0.751372 0.720242 0.215707
0.775741 0.693210 0.196010
0.793909 0.669356 0.178010
0.809530 0.652419 0.164454
0.830479 0.647775 0.156439
0.849581 0.646179 0.151059
0.865634 0.645685 0.147581
0.879512 0.645795 0.145210
0.891038 0.647082 0.144207
0.898571 0.649385 0.144326
0.904451 0.651466 0.144272
0.909909 0.654607 0.145340
0.914953 0.657171 0.145943
0.070455 0.590684 0.251925
0.072741 0.590850 0.251634
0.075393 0.591490 0.251711
0.079837 0.592624 0.252990
0.089960 0.594511 0.254941
0.102749 0.596767 0.256744
0.114246 0.598598 0.257356
0.123972 0.600466 0.255251
0.133509 0.602819 0.252990
0.145089 0.607468 0.253394
0.161042 0.615221 0.256705
0.192391 0.629128 0.263199
0.264937 0.651535 0.266931
0.357866 0.672912 0.265284
0.441012 0.691684 0.262608
0.512417 0.708052 0.259343
0.581524 0.725310 0.255887
0.646811 0.741775 0.252011
0.701405 0.747064 0.240657
0.754175 0.747853 0.227539
0.779281 0.724084 0.209977
0.800473 0.703163 0.194889
0.815467 0.683162 0.180432
0.830424 0.669993 0.169281
0.849594 0.666280 0.162371
0.866272 0.664992 0.158285
0.880679 0.664263 0.155244
0.892665 0.665042 0.153910
0.900553 0.666348 0.153438
0.906468 0.667907 0.153041
0.911941 0.670080 0.153463
0.916997 0.672316 0.153885
0.074166 0.607276 0.256883
0.076428 0.607380 0.256352
0.078982 0.607974 0.255977
0.082714 0.608974 0.256149
0.092178 0.610773 0.257470
0.105233 0.613464 0.259773
0.117901 0.615553 0.260471
0.127674 0.617319 0.258332
0.137775 0.620147 0.256434
0.149424 0.624444 0.256544
0.165246 0.631791 0.259677
0.195819 0.644819 0.265888
0.265925 0.666145 0.271050
0.355729 0.686700 0.269675
0.437335 0.704299 0.266873
0.507948 0.720151 0.263848
0.576219 0.736635 0.260235
0.641448 0.753283 0.256893
0.694590 0.761476 0.249030
0.748414 0.766053 0.237211
0.782424 0.752180 0.221999
0.803926 0.730224 0.206552
0.821361 0.711326 0.193336
0.834238 0.695266 0.181708
0.848530 0.685416 0.173274
0.866251 0.682777 0.167884
0.880851 0.681742 0.164767
0.893510 0.681747 0.162786
0.901907 0.682587 0.161939
0.907758 0.683433 0.161257
0.913050 0.685013 0.161414
0.918089 0.686357 0.161279
0.077432 0.622369 0.261778
0.079812 0.622625 0.261433
0.082487 0.623424 0.260900
0.085462 0.624150 0.260387
0.094535 0.625646 0.260088
0.108261 0.628398 0.262216
0.121153 0.630413 0.263070
0.131233 0.632510 0.261147
0.141475 0.635269 0.259263
0.153411 0.639924 0.259400
0.168688 0.646584 0.262026
0.197852 0.658833 0.268783
0.261968 0.678166 0.274582
0.353100 0.698998 0.273802
0.432404 0.715784 0.271228
0.502553 0.731230 0.268330
0.569617 0.746627 0.264320
0.634373 0.762944 0.261058
