luts_externos/iwltbap/free-named-looks/IWLTBAP Arapaho - V-Log.cube
# Copyright: (C) Copyright 2010-2017 by IWLTBAP SAS
# Cannot be resold, shared or otherwise redistributed
# Website: https://luts.iwltbap.com
TITLE "IWLTBAP Arapaho (V-Log)"
LUT_3D_SIZE 5
0.000000 0.000000 0.000000
0.017639 0.000000 0.000000
0.296082 0.056854 0.000000
0.796082 0.129425 0.094116
0.835297 0.156860 0.121582
0.062744 0.072540 0.000000
0.151947 0.076477 0.000000
0.336273 0.065674 0.000000
0.802948 0.128418 0.090210
0.839203 0.156860 0.117645
0.321564 0.260773 0.000000
0.346069 0.272552 0.000000
0.605896 0.274506 0.000000
0.834320 0.175476 0.041168
0.860779 0.217651 0.094116
0.858826 0.823517 0.234314
0.856873 0.822540 0.227448
0.874512 0.829407 0.196075
1.000000 0.802948 0.156860
1.000000 0.819611 0.359802
0.905884 0.886261 0.329407
0.905884 0.886261 0.321564
0.913727 0.886261 0.292145
1.000000 0.868622 0.254913
1.000000 0.890198 0.517639
0.000000 0.002930 0.029419
0.021576 0.014709 0.045105
0.313721 0.049011 0.013733
0.799988 0.148041 0.120575
0.835297 0.172546 0.144104
0.000000 0.075500 0.094116
0.010773 0.091187 0.113739
0.324524 0.077454 0.026459
0.806854 0.149994 0.119598
0.842163 0.172546 0.144104
0.284302 0.265686 0.068634
0.301971 0.281372 0.074524
0.658813 0.321564 0.002930
0.823517 0.154907 0.055878
0.854889 0.221558 0.132355
0.845093 0.826477 0.270599
0.845093 0.826477 0.263733
0.863739 0.829407 0.222534
1.000000 0.807831 0.181366
1.000000 0.824524 0.387268
0.898041 0.886261 0.345093
0.894104 0.890198 0.349030
0.905884 0.886261 0.316681
1.000000 0.868622 0.275482
1.000000 0.898041 0.545105
0.000000 0.078430 0.139221
0.000000 0.086273 0.152954
0.292145 0.117645 0.147064
0.805878 0.181366 0.165680
0.841187 0.205872 0.190186
0.000000 0.125488 0.195099
0.000000 0.138245 0.216675
0.329407 0.145111 0.173523
0.819611 0.189209 0.173523
0.852936 0.213715 0.198029
0.000000 0.301971 0.349030
0.000000 0.313721 0.363739
0.274506 0.321564 0.323517
0.827454 0.285309 0.233337
0.858826 0.303925 0.254913
0.815674 0.827454 0.324524
0.816681 0.831360 0.324524
0.839203 0.834320 0.328430
1.000000 0.828430 0.298035
1.000000 0.845093 0.446075
0.872559 0.896088 0.394104
0.870575 0.899994 0.399994
0.886261 0.898041 0.399994
1.000000 0.884308 0.377441
1.000000 0.911774 0.617645
0.000000 0.249023 0.359802
0.000000 0.249023 0.359802
0.000000 0.254913 0.388245
0.741180 0.312744 0.408813
0.789215 0.327454 0.451965
0.000000 0.264709 0.379425
0.000000 0.265686 0.382355
0.000000 0.264709 0.404907
0.741180 0.319611 0.435303
0.786285 0.331360 0.470581
0.000000 0.316681 0.446075
0.000000 0.319611 0.449005
0.000000 0.340210 0.498047
0.737244 0.346069 0.540192
0.786285 0.367645 0.564697
0.220581 0.806854 0.933319
0.201965 0.806854 0.933319
0.268616 0.805878 0.928436
0.920593 0.875488 0.828430
0.938232 0.876465 0.828430
0.417633 0.869598 0.937256
0.408813 0.869598 0.937256
0.432343 0.871582 0.932343
0.941162 0.921570 0.803925
0.980377 0.921570 0.800995
0.000000 0.270599 0.388245
0.000000 0.270599 0.385284
0.000000 0.288239 0.427460
0.700012 0.330383 0.517639
0.737244 0.345093 0.572540
0.000000 0.278442 0.399994
0.000000 0.286285 0.407837
0.000000 0.298035 0.443146
0.700012 0.334320 0.541168
0.734314 0.345093 0.592163
0.000000 0.339203 0.472534
0.000000 0.339203 0.476471
0.000000 0.354889 0.515686
0.682343 0.357849 0.634308
0.709808 0.382355 0.674500
0.179413 0.781372 0.943146
0.141174 0.778442 0.943146
0.154907 0.777466 0.946075
0.896088 0.872559 0.856873
0.910797 0.866669 0.860779
0.388245 0.839203 0.952942
0.376465 0.839203 0.952942
0.380402 0.835297 0.954895
0.871582 0.915680 0.870575
0.949005 0.921570 0.870575
