luts_externos/iwltbap/free-named-looks/IWLTBAP Sedona - V-Log.cube
# Copyright: (C) Copyright 2010-2017 by IWLTBAP SAS
# Cannot be resold, shared or otherwise redistributed
# Website: https://luts.iwltbap.com
TITLE "IWLTBAP Sedona (V-Log)"
LUT_3D_SIZE 5
0.000000 0.000000 0.011780
0.092163 0.000000 0.007843
0.421570 0.050995 0.011780
0.774506 0.117645 0.056854
0.799988 0.137268 0.062744
0.000000 0.002930 0.027466
0.051971 0.010773 0.015686
0.434326 0.070587 0.007843
0.799988 0.175476 0.051971
0.823517 0.187256 0.058838
0.000000 0.192169 0.119598
0.000000 0.184326 0.104889
0.450989 0.254913 0.037262
0.839203 0.225494 0.009796
0.856873 0.254913 0.031372
0.095093 0.678436 0.381378
0.099030 0.675476 0.369598
0.102936 0.669617 0.321564
0.924500 0.750000 0.251953
0.941162 0.807831 0.424500
0.101959 0.717651 0.419617
0.108826 0.717651 0.407837
0.113739 0.707855 0.354889
0.907837 0.791168 0.258820
0.941162 0.843140 0.498047
0.000000 0.000000 0.064697
0.102936 0.000000 0.052948
0.432343 0.037262 0.034302
0.766663 0.099030 0.071564
0.792145 0.109802 0.074524
0.000000 0.013733 0.079407
0.017639 0.028442 0.084320
0.413727 0.085297 0.030396
0.786285 0.147064 0.066681
0.811768 0.160797 0.070587
0.000000 0.216675 0.173523
0.001953 0.208832 0.155884
0.511780 0.294128 0.049988
0.836273 0.221558 0.019623
0.858826 0.272552 0.047058
0.095093 0.685303 0.412750
0.102936 0.685303 0.404907
0.106873 0.676483 0.351959
0.927460 0.757843 0.271576
0.941162 0.818634 0.471558
0.101959 0.725494 0.450012
0.109802 0.725494 0.439209
0.113739 0.715698 0.393127
0.907837 0.799011 0.270599
0.941162 0.850983 0.528442
0.000000 0.072540 0.245087
0.070587 0.000000 0.168640
0.441162 0.052948 0.164703
0.771576 0.099030 0.155884
0.796082 0.111755 0.149017
0.000000 0.142151 0.261780
0.005890 0.100006 0.258820
0.434326 0.071564 0.164703
0.774506 0.111755 0.122559
0.796082 0.121582 0.116669
0.005890 0.268616 0.315674
0.016663 0.267639 0.315674
0.264709 0.282349 0.272552
0.838226 0.346069 0.162750
0.856873 0.345093 0.158813
0.101959 0.698029 0.486267
0.106873 0.698029 0.479401
0.141174 0.699005 0.433319
0.933319 0.790192 0.345093
0.941162 0.847046 0.557831
0.105896 0.735291 0.517639
0.113739 0.735291 0.509796
0.141174 0.731384 0.468628
0.911774 0.828430 0.393127
0.941162 0.870575 0.588226
0.129425 0.085297 0.451965
0.210785 0.064697 0.430389
0.339203 0.082367 0.399994
0.798035 0.162750 0.408813
0.832367 0.205872 0.404907
0.066681 0.162750 0.529419
0.102936 0.141174 0.498047
0.310791 0.109802 0.413727
0.804901 0.182343 0.412750
0.839203 0.228424 0.404907
0.046082 0.450989 0.615692
0.053925 0.453918 0.623535
0.145111 0.339203 0.601959
0.833344 0.270599 0.423523
0.854889 0.307831 0.414703
0.118622 0.728424 0.736267
0.126465 0.732361 0.737244
0.165680 0.748047 0.750977
0.898041 0.909790 0.748047
0.937256 0.909790 0.734314
0.128418 0.770599 0.750977
0.133331 0.774506 0.754913
0.162750 0.784302 0.758820
0.812744 0.903931 0.734314
0.936279 0.923523 0.723541
0.164703 0.086273 0.466675
0.237244 0.074524 0.450989
0.362732 0.103912 0.443146
0.808838 0.190186 0.454895
0.839203 0.227448 0.450989
0.075500 0.150970 0.531372
0.119598 0.149994 0.515686
0.337250 0.133331 0.455872
0.812744 0.202942 0.454895
0.843140 0.250000 0.454895
0.054901 0.482361 0.660797
0.060791 0.476471 0.660797
0.150970 0.329407 0.607849
0.832367 0.283325 0.458832
0.854889 0.317657 0.458832
0.118622 0.728424 0.757843
0.126465 0.731384 0.757843
0.146088 0.737244 0.763733
0.890198 0.909790 0.774506
0.933319 0.907837 0.763733
0.125488 0.760773 0.768616
0.133331 0.760773 0.768616
0.154907 0.768616 0.772552
0.613739 0.877441 0.816681
0.925476 0.941162 0.776459
