luts_externos/iwltbap/free-named-looks/IWLTBAP Humble - V-Log.cube
# Copyright: (C) Copyright 2010-2017 by IWLTBAP SAS
# Cannot be resold, shared or otherwise redistributed
# Website: https://luts.iwltbap.com
TITLE "IWLTBAP Humble (V-Log)"
LUT_3D_SIZE 33
0.000000 0.000000 0.000000
0.003784 0.000000 0.000000
0.007599 0.000000 0.000000
0.011383 0.000000 0.000000
0.015198 0.000000 0.000000
0.026825 0.003937 0.000000
0.034546 0.003937 0.000000
0.042267 0.007843 0.000000
0.056854 0.007843 0.000000
0.072296 0.014587 0.000000
0.087738 0.019623 0.000000
0.109680 0.023529 0.000000
0.132843 0.032349 0.000000
0.158325 0.041534 0.000000
0.191437 0.049255 0.000000
0.232117 0.056976 0.000000
0.280396 0.064697 0.000000
0.336273 0.068512 0.000000
0.394104 0.076233 0.000000
0.457489 0.083954 0.000000
0.526947 0.091675 0.000000
0.597809 0.099396 0.000000
0.674988 0.111023 0.000000
0.757233 0.127686 0.000000
0.827454 0.141174 0.000000
0.843994 0.141174 0.000000
0.847809 0.141174 0.000000
0.851593 0.141785 0.000000
0.855377 0.145111 0.000000
0.859192 0.145111 0.000000
0.862732 0.145111 0.000000
0.866669 0.149017 0.000000
0.870575 0.149017 0.000000
0.003784 0.003784 0.000000
0.003784 0.003784 0.000000
0.007721 0.003784 0.000000
0.011627 0.003937 0.000000
0.018982 0.003937 0.000000
0.026825 0.003937 0.000000
0.034546 0.007721 0.000000
0.042267 0.010895 0.000000
0.056854 0.011780 0.000000
0.072296 0.015564 0.000000
0.090454 0.022308 0.000000
0.109680 0.026093 0.000000
0.132843 0.033813 0.000000
0.158325 0.041534 0.000000
0.195343 0.049255 0.000000
0.236023 0.056976 0.000000
0.284302 0.064697 0.000000
0.338348 0.072418 0.000000
0.397919 0.080139 0.000000
0.459808 0.087860 0.000000
0.526947 0.095581 0.000000
0.600250 0.103302 0.000000
0.676239 0.114838 0.000000
0.757233 0.131500 0.000000
0.827454 0.144989 0.000000
0.846924 0.144989 0.000000
0.850861 0.145111 0.000000
0.854767 0.148895 0.000000
0.855377 0.148895 0.000000
0.859192 0.149017 0.000000
0.862976 0.149017 0.000000
0.866791 0.152832 0.000000
0.870575 0.152832 0.000000
0.007599 0.003937 0.000000
0.007721 0.003937 0.000000
0.011505 0.007599 0.000000
0.015320 0.007599 0.000000
0.019104 0.007599 0.000000
0.027191 0.007843 0.000000
0.034546 0.011017 0.000000
0.045959 0.011780 0.000000
0.056854 0.015442 0.000000
0.075989 0.018494 0.000000
0.091431 0.023285 0.000000
0.110779 0.030029 0.000000
0.135284 0.037506 0.000000
0.162018 0.045471 0.000000
0.195343 0.053192 0.000000
0.236023 0.060913 0.000000
0.284302 0.068390 0.000000
0.338348 0.076111 0.000000
0.398041 0.083832 0.000000
0.461395 0.091553 0.000000
0.530640 0.099274 0.000000
0.601715 0.106995 0.000000
0.676239 0.118622 0.000000
0.760040 0.135284 0.000000
0.828430 0.148773 0.000000
0.847046 0.148773 0.000000
0.850983 0.149017 0.000000
0.854889 0.152710 0.000000
0.858826 0.152710 0.000000
0.862732 0.152954 0.000000
0.866425 0.152954 0.000000
0.870331 0.156616 0.000000
0.870575 0.156616 0.000000
0.007843 0.007843 0.000000
0.011627 0.007843 0.000000
0.015320 0.007843 0.000000
0.015320 0.007843 0.000000
0.022675 0.011383 0.000000
0.030762 0.011383 0.000000
0.038483 0.011780 0.000000
0.046204 0.015320 0.000000
0.056854 0.019226 0.000000
0.076233 0.022430 0.000000
0.091675 0.026215 0.000000
0.113617 0.030029 0.000000
0.136780 0.037750 0.000000
0.162262 0.045471 0.000000
0.195343 0.053192 0.000000
0.236023 0.060913 0.000000
0.284302 0.068634 0.000000
0.340210 0.076355 0.000000
0.398041 0.084076 0.000000
0.461395 0.093384 0.000000
0.530884 0.100983 0.000000
0.603912 0.110779 0.000000
0.678925 0.123657 0.000000
0.761139 0.139099 0.000000
0.831360 0.152588 0.000000
0.847931 0.152588 0.000000
0.851715 0.153687 0.000000
0.855530 0.156494 0.000000
0.859314 0.156494 0.000000
0.862732 0.156860 0.000000
0.866669 0.157104 0.000000
0.870575 0.160431 0.000000
0.874512 0.160431 0.000000
0.015198 0.011261 0.000000
0.015198 0.011261 0.000000
0.019104 0.011780 0.000000
0.022675 0.011780 0.000000
0.026459 0.015198 0.000000
0.034180 0.015198 0.000000
0.041901 0.019104 0.000000
0.049622 0.022186 0.000000
0.063721 0.023041 0.003937
0.082489 0.026337 0.000000
0.099030 0.030151 0.000000
0.118378 0.034790 0.000000
0.140198 0.041168 0.000000
0.169128 0.049377 0.000000
0.202698 0.057098 0.000000
0.243378 0.064819 0.000000
0.291656 0.072052 0.000000
0.344116 0.080261 0.000000
0.401947 0.087982 0.000000
0.465332 0.097290 0.000000
0.534790 0.104889 0.000000
0.605652 0.114594 0.000000
0.682343 0.127441 0.000000
0.765076 0.143372 0.000000
0.831360 0.156372 0.000000
0.850494 0.156860 0.000000
0.854401 0.157593 0.000000
0.858337 0.160309 0.000000
0.859314 0.160309 0.000000
0.863098 0.160797 0.000000
0.866913 0.161041 0.000000
0.870697 0.164215 0.000000
0.874512 0.164215 0.000000
0.022919 0.018982 0.000000
0.022919 0.018982 0.000000
0.026825 0.018982 0.000000
0.027069 0.018982 0.000000
0.030884 0.022430 0.000000
0.038605 0.026215 0.000000
0.049622 0.026825 0.000000
0.057343 0.029907 0.003052
0.068024 0.033691 0.006866
0.086884 0.034058 0.000488
0.106140 0.037384 0.000000
0.125366 0.041168 0.000000
0.147919 0.048889 0.000000
0.177338 0.054291 0.000000
0.210419 0.061035 0.000000
0.251099 0.068756 0.000000
0.297424 0.075867 0.000000
0.349518 0.084198 0.000000
0.409180 0.091919 0.000000
0.470947 0.102936 0.000000
0.538727 0.107361 0.000000
0.609558 0.118378 0.000000
0.684082 0.131866 0.000000
0.767273 0.147308 0.000000
0.835297 0.160187 0.000000
0.850983 0.160797 0.000000
0.854889 0.161530 0.000000
0.858826 0.164093 0.000000
0.862732 0.164093 0.000000
0.866669 0.164703 0.000000
0.869965 0.168030 0.000000
0.873901 0.168030 0.000000
0.874512 0.168030 0.000000
0.030640 0.026703 0.000000
0.030640 0.026703 0.000000
0.034302 0.026703 0.000000
0.034546 0.026703 0.000000
0.038483 0.030151 0.000000
0.042511 0.030762 0.000000
0.053436 0.037750 0.000000
0.058075 0.041656 0.006256
0.068634 0.045349 0.013733
0.084076 0.045593 0.011383
0.107361 0.045593 0.004425
0.129303 0.048889 0.000000
0.152466 0.055145 0.000000
0.181854 0.060425 0.000000
0.218140 0.065918 0.000000
0.258820 0.072662 0.000000
0.305145 0.080383 0.000000
0.355377 0.089966 0.000000
0.412994 0.097290 0.000000
0.474762 0.106750 0.000000
0.542633 0.114471 0.000000
0.612122 0.123535 0.000000
0.687988 0.135773 0.000000
0.771088 0.151215 0.000000
0.835297 0.163971 0.000000
0.851837 0.164703 0.003937
0.855652 0.167877 0.003937
0.859436 0.167877 0.003174
0.863220 0.168640 0.000000
0.866669 0.168640 0.000000
0.870575 0.171814 0.000000
0.874512 0.171814 0.000000
0.878418 0.172546 0.000000
0.035309 0.037506 0.000000
0.038361 0.037506 0.000000
0.042267 0.037506 0.000000
0.042267 0.037994 0.000000
0.046204 0.041412 0.000000
0.050110 0.041656 0.000000
0.054169 0.045471 0.000000
0.068878 0.056244 0.006989
0.072784 0.057098 0.014709
0.084320 0.061035 0.022430
0.106140 0.061035 0.016052
0.131866 0.061035 0.004425
0.158813 0.064331 0.000000
0.185791 0.068146 0.000000
0.221924 0.075867 0.000000
0.263489 0.079651 0.000000
0.310913 0.087372 0.000000
0.361877 0.095093 0.000000
0.420715 0.102814 0.000000
0.480133 0.111389 0.000000
0.549622 0.118256 0.000000
0.619110 0.128174 0.000000
0.691925 0.141541 0.000000
0.772919 0.158203 0.000000
0.839203 0.169617 0.000977
0.851837 0.169495 0.003937
0.857971 0.171692 0.003937
0.859436 0.171692 0.003937
0.863220 0.172546 0.003937
0.867035 0.172913 0.003052
0.870819 0.175598 0.000000
0.874634 0.175598 0.000000
0.878418 0.176483 0.000000
0.028442 0.052948 0.010773
0.032349 0.055878 0.010773
0.036285 0.055878 0.009796
0.040192 0.055878 0.009796
0.043640 0.056366 0.009796
0.050354 0.060181 0.006866
0.058075 0.060791 0.006866
0.065918 0.063965 0.006866
0.084320 0.072540 0.010773
0.094849 0.076477 0.019470
0.106384 0.079407 0.029907
0.129303 0.080383 0.026825
0.155884 0.082855 0.015686
0.189697 0.083344 0.007477
0.225006 0.086517 0.003662
0.267395 0.090332 0.000000
0.316681 0.096069 0.000000
0.368744 0.102814 0.000000
0.425476 0.108826 0.000000
0.486267 0.118256 0.000000
0.553436 0.125977 0.000000
0.622925 0.135040 0.000000
0.695831 0.147552 0.000000
0.776825 0.162018 0.000000
0.841187 0.173523 0.000977
0.854889 0.175476 0.003937
0.858826 0.175476 0.003937
0.862732 0.176483 0.003937
0.865692 0.176483 0.003937
0.869598 0.179413 0.003937
0.870819 0.179413 0.003937
0.874634 0.180389 0.003937
0.878418 0.180389 0.003937
0.011139 0.075134 0.025238
0.014954 0.075134 0.025238
0.018738 0.075134 0.025238
0.022552 0.075134 0.021698
0.022919 0.079041 0.021332
0.026825 0.079529 0.021332
0.038239 0.082977 0.021332
0.055145 0.082977 0.021332
0.073883 0.087006 0.021332
0.106506 0.094727 0.012878
0.118134 0.098541 0.019348
0.132355 0.098663 0.031128
0.154907 0.102570 0.034180
0.185791 0.104889 0.030151
0.225006 0.106506 0.019745
0.271332 0.110413 0.007477
0.322418 0.113495 0.000000
0.376465 0.115448 0.000000
0.432220 0.118256 0.000000
0.493988 0.125977 0.000000
0.561157 0.132233 0.000000
0.630646 0.141418 0.000000
0.701355 0.154297 0.000000
0.782471 0.166901 0.000000
0.842163 0.179291 0.000000
0.855774 0.179291 0.003937
0.859558 0.179291 0.003937
0.862732 0.180389 0.003937
0.866669 0.183197 0.003937
0.870575 0.183197 0.003937
0.874512 0.183197 0.003937
0.877319 0.184326 0.003937
0.881256 0.187134 0.003937
0.000000 0.095581 0.046082
0.000000 0.098297 0.043396
0.001221 0.098297 0.043396
0.002441 0.098297 0.043396
0.003174 0.099030 0.043396
0.006989 0.102203 0.042755
0.013977 0.102692 0.040192
0.023163 0.106140 0.039459
0.049011 0.106140 0.039459
0.084686 0.110168 0.036652
0.128418 0.117889 0.022308
0.143860 0.120453 0.025970
0.159302 0.121826 0.040192
0.186157 0.125732 0.052094
0.225006 0.129669 0.049011
0.273407 0.133575 0.031372
0.325500 0.136261 0.012024
0.383331 0.137512 0.000854
0.440918 0.137512 0.000000
0.498901 0.134796 0.000000
0.564941 0.141418 0.000000
0.635651 0.147919 0.000000
0.709076 0.159302 0.000000
0.787506 0.173523 0.000000
0.845093 0.183075 0.000000
0.855774 0.183075 0.003937
0.859558 0.184326 0.003937
0.863373 0.187012 0.003296
0.867157 0.187012 0.001221
0.870575 0.187012 0.000000
0.874512 0.188232 0.000000
0.878418 0.190918 0.000000
0.882355 0.190918 0.000000
0.000000 0.114960 0.074402
0.000000 0.117523 0.074402
0.000000 0.117523 0.071808
0.000000 0.117523 0.070465
0.000000 0.121460 0.067902
0.000000 0.122192 0.066559
0.000000 0.125366 0.063354
0.004913 0.129303 0.060059
0.022308 0.129303 0.056122
0.060181 0.129303 0.056122
0.102936 0.133331 0.055878
0.155396 0.143616 0.036530
0.177216 0.147430 0.042755
0.196442 0.148895 0.055878
0.229279 0.155029 0.067535
0.273407 0.159302 0.058441
0.329407 0.163239 0.037140
0.388000 0.167145 0.017883
0.451599 0.164093 0.001709
0.512024 0.161652 0.000000
0.569855 0.156738 0.000000
0.640930 0.159424 0.000000
0.716797 0.165802 0.000000
0.792877 0.181244 0.000000
0.847687 0.188232 0.000000
0.857483 0.189087 0.000000
0.861389 0.190796 0.000000
0.865326 0.190796 0.000000
0.867157 0.192657 0.000000
0.870941 0.194733 0.000000
0.874756 0.194733 0.000000
0.878540 0.194733 0.000000
0.882355 0.196075 0.000000
0.000000 0.136780 0.093628
0.000000 0.136780 0.093628
0.000000 0.136780 0.091187
0.000000 0.140686 0.091187
0.000000 0.140686 0.087250
0.000000 0.144623 0.086395
0.000000 0.147797 0.083344
0.000610 0.148529 0.076355
0.006378 0.152466 0.071564
0.044495 0.154907 0.071564
0.085541 0.156372 0.071564
0.128784 0.160553 0.071320
0.192657 0.174500 0.051971
0.215820 0.178436 0.065918
0.237488 0.182343 0.073761
0.280151 0.188354 0.079041
0.333344 0.196075 0.068634
0.393616 0.199890 0.045959
0.459320 0.200500 0.024261
0.523529 0.196564 0.004181
0.586273 0.187256 0.000000
0.647064 0.177094 0.000000
0.723297 0.178680 0.000000
0.799500 0.188965 0.000000
0.849030 0.194611 0.000000
0.859680 0.202698 0.000000
0.865936 0.214447 0.002441
0.869720 0.216187 0.002441
0.873535 0.216187 0.002441
0.877319 0.217651 0.002441
0.881134 0.220093 0.000000
0.884796 0.220093 0.000000
0.888733 0.220093 0.000000
0.000000 0.162262 0.106628
0.000000 0.163727 0.106628
0.000000 0.163849 0.106628
0.000000 0.163849 0.106628
0.000000 0.166168 0.106628
0.000000 0.170105 0.103302
0.000000 0.170959 0.102692
0.000000 0.174744 0.098053
0.000000 0.178558 0.090332
0.024017 0.181854 0.087006
0.073883 0.185791 0.089325
0.114105 0.185791 0.090942
0.162262 0.192413 0.089081
0.233582 0.211639 0.071320
0.263000 0.217773 0.085297
0.293518 0.221558 0.090942
0.341919 0.229279 0.094849
0.401337 0.237000 0.082489
0.468750 0.241425 0.057465
0.536652 0.239838 0.026459
0.603790 0.232117 0.001709
0.663483 0.219116 0.000000
0.725494 0.197418 0.000000
0.803680 0.199127 0.000000
0.850006 0.204285 0.000000
0.865936 0.228302 0.006256
0.872925 0.242279 0.010162
0.876831 0.242279 0.007843
0.880768 0.244598 0.007843
0.884674 0.246216 0.006256
0.886505 0.246216 0.006256
0.890320 0.246216 0.006256
0.894104 0.248535 0.006256
0.000000 0.193146 0.125977
0.000000 0.193146 0.125977
0.000000 0.193146 0.124268
0.000000 0.193146 0.124268
0.000000 0.196564 0.122070
0.000000 0.197052 0.122070
0.000000 0.200989 0.118134
0.000000 0.204041 0.115082
0.000000 0.207855 0.109558
0.006866 0.214966 0.105255
0.054169 0.216675 0.106384
0.105133 0.218872 0.108582
0.147308 0.219116 0.108582
0.203308 0.231140 0.106140
0.288239 0.254669 0.095093
0.323151 0.264221 0.108459
0.357605 0.270111 0.112244
0.411285 0.281372 0.112488
0.478180 0.289459 0.101715
0.548157 0.289948 0.070221
0.617645 0.284546 0.031860
0.683197 0.271576 0.001709
0.745819 0.253174 0.000000
0.803192 0.221680 0.000000
0.850006 0.216919 0.000000
0.872803 0.252808 0.010040
0.876709 0.263245 0.009552
0.879059 0.263245 0.009552
0.882843 0.264954 0.009064
0.886627 0.264954 0.007355
0.890198 0.265198 0.005646
0.894104 0.267151 0.005646
0.898041 0.268860 0.005646
0.000000 0.226105 0.147430
0.000000 0.226105 0.147430
0.000000 0.229767 0.143738
0.000000 0.230011 0.143494
0.000000 0.230011 0.143494
0.000000 0.233948 0.140198
0.000000 0.237122 0.137512
0.000000 0.237854 0.133575
0.000000 0.242645 0.128784
0.000000 0.248535 0.122925
0.031616 0.255646 0.125122
0.094849 0.259552 0.127808
0.145966 0.259552 0.131744
0.190430 0.263733 0.131744
0.252075 0.275970 0.127563
0.352081 0.308716 0.122070
0.390808 0.322418 0.133698
0.427216 0.328064 0.137512
0.490204 0.343506 0.139587
0.559692 0.350006 0.125366
0.633087 0.346680 0.086273
0.698639 0.333710 0.037262
0.766907 0.316162 0.001709
0.822418 0.286652 0.000000
0.844971 0.235657 0.000000
0.872681 0.270111 0.002075
0.876587 0.273407 0.002075
0.880524 0.275238 0.002075
0.884430 0.275238 0.002075
0.884796 0.275604 0.001709
0.888611 0.277313 0.000000
0.892395 0.279175 0.000000
0.896210 0.279175 0.000000
0.000000 0.270599 0.170593
0.000000 0.270599 0.170593
0.000000 0.270599 0.170593
0.000000 0.270599 0.168640
0.000000 0.274506 0.166656
0.000000 0.276459 0.162750
0.000000 0.278442 0.159546
0.000000 0.281494 0.154907
0.000000 0.285309 0.149994
0.006744 0.290192 0.143127
0.028687 0.296814 0.143127
0.086639 0.304535 0.147675
0.142639 0.310303 0.153442
0.194733 0.313721 0.157227
0.244843 0.315918 0.158569
0.314209 0.332367 0.152832
0.421570 0.374512 0.152954
0.466064 0.390076 0.164581
0.504425 0.397552 0.168640
0.571198 0.411407 0.169006
0.642639 0.415680 0.154419
0.714081 0.407104 0.106873
0.782349 0.391663 0.042633
0.843872 0.366180 0.001709
0.858826 0.309814 0.000000
0.876465 0.311523 0.000000
0.881134 0.318390 0.001953
0.884918 0.321564 0.001953
0.886261 0.321564 0.001953
0.890198 0.321930 0.001953
0.894104 0.325500 0.001953
0.898041 0.325500 0.001953
0.899994 0.325500 0.001953
0.000000 0.320587 0.199524
0.000000 0.322662 0.199524
0.000000 0.322662 0.199524
0.000000 0.324524 0.199524
0.000000 0.326599 0.195587
0.000000 0.328430 0.192291
0.000000 0.332367 0.188477
0.000000 0.334442 0.183838
0.001099 0.339203 0.178802
0.012268 0.344116 0.173157
0.038849 0.350739 0.166290
0.095093 0.358459 0.168884
0.149628 0.370087 0.176605
0.199005 0.377808 0.186157
0.258331 0.381622 0.191681
0.310547 0.385406 0.191437
0.385651 0.399994 0.187622
0.494965 0.438232 0.183838
0.539459 0.449890 0.197296
0.585297 0.461273 0.205017
0.652191 0.473175 0.205627
0.723785 0.477448 0.185791
0.795105 0.462982 0.129303
0.857361 0.442535 0.052094
0.879181 0.408447 0.010162
0.889954 0.397308 0.044983
0.893860 0.406372 0.050873
0.897797 0.406372 0.050873
0.899628 0.406372 0.050873
0.903564 0.410309 0.046936
0.905884 0.410309 0.046936
0.909668 0.410309 0.046814
0.913483 0.410309 0.045105
0.000000 0.382355 0.234314
0.000000 0.386261 0.234314
0.000000 0.386261 0.232117
0.000000 0.388123 0.230377
0.000000 0.390198 0.228668
0.000000 0.392395 0.224884
0.000000 0.395599 0.221069
0.000000 0.398041 0.217285
0.003418 0.400238 0.213470
0.011261 0.404175 0.205750
0.043884 0.410797 0.201965
0.093384 0.416779 0.195099
0.162506 0.426239 0.199768
0.220825 0.433960 0.209808
0.272064 0.443390 0.220825
0.333466 0.447174 0.228180
0.386017 0.449280 0.229889
0.457123 0.461639 0.225983
0.568390 0.496063 0.222046
0.616547 0.511627 0.237610
0.662506 0.523041 0.245331
0.732849 0.536652 0.248169
0.806610 0.540924 0.222290
0.871063 0.524261 0.160309
0.893616 0.491180 0.100006
0.900604 0.475983 0.134308
0.904419 0.483826 0.144348
0.908203 0.483826 0.142151
0.912018 0.483826 0.142151
0.915436 0.486023 0.140442
0.919373 0.487732 0.138245
0.921082 0.487732 0.138123
0.923279 0.487732 0.136505
0.000000 0.442535 0.269104
0.000000 0.442535 0.266907
0.000000 0.444122 0.266785
0.000000 0.446075 0.265198
0.000000 0.446442 0.262878
0.000000 0.449768 0.259552
0.000000 0.450378 0.257355
0.000000 0.453430 0.255035
0.004791 0.454285 0.249756
0.014709 0.458221 0.244354
0.043396 0.462128 0.240570
0.084076 0.467041 0.234436
0.145233 0.476349 0.225128
0.229523 0.488739 0.230652
0.300232 0.499634 0.244476
0.354767 0.506866 0.259430
0.412262 0.510773 0.272308
0.464691 0.511017 0.273895
0.530396 0.521088 0.272186
0.639465 0.553925 0.262878
0.689819 0.573395 0.279907
0.741058 0.590088 0.291412
0.817780 0.610901 0.293884
0.882721 0.610901 0.265686
0.904541 0.583832 0.226837
0.910675 0.558716 0.239594
0.914459 0.563354 0.249756
0.915924 0.566559 0.249756
0.919739 0.566559 0.245819
0.923157 0.566559 0.245819
0.927094 0.566559 0.241913
0.931000 0.566559 0.241913
0.933319 0.566559 0.239594
0.000000 0.496582 0.303925
0.000000 0.496582 0.303925
0.000000 0.496582 0.301727
0.000000 0.500488 0.299988
0.000000 0.500488 0.298035
0.000000 0.503784 0.296082
0.000000 0.504425 0.293640
0.002930 0.506012 0.290558
0.007355 0.508331 0.288239
0.017273 0.512268 0.285797
0.040680 0.513489 0.281860
0.071320 0.517273 0.276825
0.117157 0.524994 0.269104
0.191040 0.535034 0.256012
0.305878 0.551971 0.259064
0.386627 0.566803 0.279785
0.440674 0.574005 0.302460
0.493256 0.577942 0.319000
0.539459 0.577942 0.324005
0.601471 0.586517 0.319977
0.712738 0.617157 0.306854
0.768372 0.640442 0.322296
0.824524 0.664703 0.340210
0.890442 0.688477 0.346069
0.915192 0.674011 0.335297
0.916046 0.645111 0.350983
0.919128 0.652191 0.357361
0.923035 0.652954 0.357361
0.926971 0.652954 0.354889
0.930878 0.652954 0.354889
0.931122 0.655396 0.354889
0.934937 0.656860 0.354889
0.938721 0.656860 0.352448
0.000000 0.550598 0.338715
0.000000 0.550598 0.338715
0.000000 0.551971 0.336151
0.000000 0.554535 0.334808
0.000000 0.554535 0.334808
0.000000 0.555878 0.332245
0.000000 0.558441 0.330872
0.001343 0.559814 0.328308
0.005646 0.562378 0.326721
0.017517 0.565186 0.324402
0.037994 0.566284 0.320465
0.059937 0.570221 0.317902
0.094482 0.574127 0.313965
0.137024 0.581360 0.306732
0.227325 0.597687 0.291290
0.385284 0.621460 0.293884
0.479279 0.637634 0.322296
0.529419 0.645355 0.348907
0.577820 0.648773 0.367035
0.620453 0.650360 0.375488
0.679779 0.657227 0.369965
0.789948 0.687988 0.351837
0.848053 0.716431 0.364594
0.898407 0.746063 0.389099
0.922913 0.753937 0.412384
0.923767 0.733337 0.450989
0.927582 0.737122 0.455383
0.930756 0.740326 0.458588
0.934692 0.741669 0.459320
0.938599 0.744232 0.459320
0.939941 0.745575 0.459320
0.942657 0.745575 0.460663
0.946442 0.749512 0.460663
0.000000 0.605896 0.369598
0.000000 0.605896 0.366913
0.000000 0.608582 0.366913
0.000000 0.609802 0.365692
0.000000 0.609802 0.365692
0.000000 0.612488 0.362976
0.000000 0.613739 0.362976
0.003052 0.615570 0.361755
0.006378 0.616425 0.361755
0.015808 0.619232 0.359070
0.029175 0.620331 0.357849
0.049622 0.622925 0.356506
0.074005 0.626709 0.353912
0.106018 0.630524 0.350006
0.147308 0.639221 0.346313
0.246338 0.660309 0.329407
0.459808 0.696808 0.329407
0.572540 0.716064 0.362732
0.625000 0.725006 0.399994
0.667511 0.732361 0.431366
0.711517 0.736267 0.443390
0.765686 0.740570 0.431244
0.869843 0.766418 0.405884
0.915558 0.799011 0.421448
0.931610 0.809326 0.455872
0.935791 0.811035 0.536163
0.939697 0.815674 0.541168
0.940308 0.818878 0.544373
0.943634 0.822052 0.545593
0.947540 0.822784 0.548279
0.950500 0.826721 0.552216
0.954285 0.829529 0.552338
0.955383 0.830627 0.556122
0.000000 0.663727 0.409424
0.000000 0.666412 0.406738
0.000000 0.666534 0.406616
0.000000 0.666534 0.406616
0.000000 0.669983 0.406616
0.000000 0.670471 0.406616
0.003174 0.670471 0.403442
0.007843 0.673523 0.402710
0.011780 0.674377 0.402710
0.016785 0.675476 0.402710
0.027832 0.678314 0.399994
0.040802 0.680878 0.398773
0.058960 0.682220 0.394867
0.082123 0.687378 0.393616
0.109192 0.691162 0.389832
0.147919 0.699890 0.383942
0.239960 0.717896 0.368744
0.500732 0.769348 0.359558
0.662994 0.800476 0.414215
0.722046 0.813110 0.467285
0.765564 0.824280 0.507355
0.807953 0.829163 0.524506
0.852814 0.831848 0.508087
0.927094 0.844116 0.471558
0.944244 0.861511 0.536530
0.950989 0.875244 0.621338
0.951233 0.878296 0.627930
0.955139 0.881134 0.631134
0.957977 0.882233 0.631134
0.959076 0.885040 0.631134
0.961884 0.885284 0.635040
0.965820 0.888977 0.635040
0.965820 0.888977 0.637878
0.000000 0.713715 0.450989
0.000000 0.713715 0.450989
0.000000 0.713715 0.450989
0.000000 0.716309 0.448029
0.000000 0.716675 0.448029
0.000977 0.717651 0.448029
0.008087 0.717651 0.448029
0.011902 0.720581 0.448029
0.019623 0.720581 0.447052
0.024384 0.721558 0.447052
0.031128 0.724518 0.444122
0.038849 0.724518 0.443146
0.048035 0.726959 0.441681
0.061523 0.728424 0.439209
0.078186 0.732361 0.435303
0.099396 0.737366 0.431366
0.130402 0.744110 0.425476
0.208466 0.758331 0.410034
0.477448 0.816162 0.389221
0.730255 0.864594 0.464325
0.800995 0.882843 0.534790
0.846924 0.893127 0.579529
0.884308 0.897064 0.592651
0.918396 0.893005 0.564453
0.952942 0.905884 0.617645
0.962616 0.921570 0.735168
0.965698 0.924500 0.738220
0.965698 0.924500 0.738220
0.966187 0.924500 0.738220
0.969604 0.924500 0.738220
0.969604 0.925476 0.738220
0.969727 0.928436 0.741180
0.973541 0.928436 0.741180
0.000000 0.726349 0.470581
0.000000 0.729279 0.470581
0.000000 0.729401 0.470581
0.000000 0.729401 0.470581
0.000000 0.730255 0.470581
0.003296 0.730255 0.470581
0.011017 0.732605 0.470581
0.018738 0.733337 0.470581
0.023529 0.733337 0.468506
0.030273 0.734192 0.466675
0.037994 0.736023 0.466675
0.041779 0.737244 0.464966
0.049500 0.738098 0.462738
0.057220 0.739594 0.461273
0.065796 0.742035 0.457489
0.078674 0.743256 0.453674
0.096924 0.747070 0.449005
0.150970 0.758453 0.441284
0.393982 0.809448 0.450500
0.619476 0.855896 0.488861
0.763611 0.886780 0.550354
0.837738 0.904663 0.615570
0.885773 0.914948 0.668518
0.922302 0.918762 0.688232
0.952942 0.911774 0.616791
0.968628 0.938110 0.793030
0.969360 0.938110 0.796936
0.972534 0.941162 0.796936
0.972534 0.941162 0.796936
0.972534 0.941162 0.796570
0.973419 0.941162 0.796082
0.976471 0.941162 0.796082
0.976471 0.941162 0.796082
0.000000 0.730133 0.474518
0.000000 0.730133 0.474518
0.000000 0.733093 0.474518
0.000000 0.733337 0.474518
0.000000 0.733337 0.471313
0.003296 0.734070 0.471313
0.011017 0.734070 0.470581
0.018738 0.736389 0.470581
0.023285 0.737244 0.470581
0.030273 0.737244 0.470581
0.037994 0.737976 0.468628
0.045715 0.739838 0.466675
0.049500 0.741180 0.466675
0.057953 0.741913 0.462738
0.068878 0.745087 0.458832
0.080750 0.747192 0.454895
0.104645 0.750977 0.449005
0.185303 0.769104 0.442047
0.421814 0.818146 0.458344
0.633453 0.862854 0.495819
0.773773 0.891418 0.560547
0.844727 0.908569 0.623291
0.893127 0.918884 0.676239
