luts_externos/iwltbap/free-named-looks/IWLTBAP Humble - V-Log.cube
# Copyright: (C) Copyright 2010-2017 by IWLTBAP SAS
# Cannot be resold, shared or otherwise redistributed
# Website: https://luts.iwltbap.com
TITLE "IWLTBAP Humble (V-Log)"
LUT_3D_SIZE 5
0.000000 0.000000 0.000000
0.056854 0.007843 0.000000
0.280396 0.064697 0.000000
0.827454 0.141174 0.000000
0.870575 0.149017 0.000000
0.028442 0.052948 0.010773
0.084320 0.072540 0.010773
0.316681 0.096069 0.000000
0.841187 0.173523 0.000977
0.878418 0.180389 0.003937
0.000000 0.270599 0.170593
0.000000 0.285309 0.149994
0.421570 0.374512 0.152954
0.858826 0.309814 0.000000
0.899994 0.325500 0.001953
0.000000 0.713715 0.450989
0.019623 0.720581 0.447052
0.130402 0.744110 0.425476
0.952942 0.905884 0.617645
0.973541 0.928436 0.741180
0.003937 0.745087 0.482361
0.034302 0.752930 0.478424
0.113739 0.770599 0.456848
0.962738 0.941162 0.685303
0.976471 0.956848 0.815674
0.023529 0.003937 0.018616
0.080383 0.003937 0.022552
0.293152 0.046082 0.000000
0.827454 0.129425 0.015686
0.870575 0.137268 0.022552
0.013733 0.063721 0.060791
0.069611 0.064697 0.048035
0.307831 0.095093 0.017639
0.842163 0.164703 0.021576
0.882355 0.171570 0.030396
0.000000 0.266663 0.195099
0.000000 0.282349 0.190186
0.472534 0.424500 0.207855
0.855896 0.274506 0.000000
0.905884 0.319611 0.026459
0.001953 0.712738 0.471558
0.021576 0.717651 0.467651
0.087250 0.733337 0.444122
0.955872 0.908813 0.638245
0.973541 0.928436 0.756866
0.018616 0.745087 0.501953
0.049988 0.752930 0.500977
0.090210 0.762756 0.476471
0.962738 0.942169 0.704895
0.980377 0.956848 0.831360
0.072540 0.050995 0.182343
0.087250 0.033325 0.157837
0.307831 0.011780 0.135284
0.824524 0.100006 0.106873
0.870575 0.107849 0.111755
0.032349 0.109802 0.197052
0.095093 0.090210 0.206848
0.321564 0.056854 0.155884
0.839203 0.136261 0.115692
0.882355 0.143127 0.121582
0.000000 0.282349 0.290192
0.000000 0.286285 0.290192
0.262756 0.280396 0.270599
0.891174 0.355896 0.189209
0.927460 0.352936 0.188232
0.054901 0.709808 0.524506
0.076477 0.715698 0.521576
0.215698 0.752930 0.516663
0.961761 0.923523 0.724518
0.977448 0.934326 0.790192
0.084320 0.745087 0.554901
0.100006 0.749023 0.552948
0.196075 0.778442 0.543152
0.966675 0.950989 0.766663
0.980377 0.964691 0.860779
0.197052 0.152954 0.573517
0.198029 0.145111 0.564697
0.233337 0.122559 0.522552
0.802948 0.000000 0.353912
0.843140 0.010773 0.355896
0.202942 0.187256 0.595093
0.207855 0.195099 0.588226
0.244110 0.171570 0.543152
0.809814 0.000000 0.370575
0.856873 0.063721 0.375488
0.063721 0.418640 0.623535
0.092163 0.415680 0.636261
0.250000 0.329407 0.644104
0.854889 0.158813 0.464691
0.897064 0.219604 0.450989
0.114716 0.676483 0.720581
0.122559 0.680389 0.721558
0.170593 0.697052 0.734314
0.846069 0.870575 0.853912
0.968628 0.912750 0.865692
0.125488 0.707855 0.738220
0.133331 0.711761 0.738220
0.175476 0.728424 0.750000
0.771576 0.906860 0.848053
0.970581 0.967651 0.911774
0.207855 0.160797 0.623535
0.210785 0.152954 0.619598
0.237244 0.147064 0.609802
0.813721 0.000000 0.421570
0.839203 0.000000 0.423523
0.211761 0.191162 0.631378
0.218628 0.202942 0.635284
0.249023 0.191162 0.623535
0.819611 0.007843 0.441162
0.850006 0.026459 0.447052
0.113739 0.437256 0.700012
0.116669 0.432343 0.700989
0.262756 0.329407 0.674500
0.848053 0.173523 0.517639
0.880402 0.200012 0.513733
0.114716 0.668640 0.737244
0.121582 0.672546 0.738220
0.138245 0.677460 0.744110
0.794128 0.839203 0.895111
0.953918 0.908813 0.905884
0.121582 0.694122 0.745087
0.125488 0.694122 0.745087
0.149017 0.703918 0.752930
0.546082 0.834320 0.851959
0.945099 0.960785 0.925476
