luts_externos/iwltbap/free-named-looks/IWLTBAP Sedona - LOG.cube
# Copyright: (C) Copyright 2010-2017 by IWLTBAP SAS
# Cannot be resold, shared or otherwise redistributed
# Website: https://luts.iwltbap.com
TITLE "IWLTBAP Sedona (LOG)"
LUT_3D_SIZE 8
DOMAIN_MIN 0.000000 0.000000 0.000000
DOMAIN_MAX 0.903226 0.903226 0.903226
0.000000 0.000000 0.013947
0.046158 0.000000 0.009448
0.212804 0.009630 0.009099
0.362750 0.039483 0.009275
0.528115 0.082782 0.010392
0.654095 0.118346 0.011076
0.732354 0.142690 0.011308
0.792023 0.165744 0.012180
0.000000 0.000000 0.022266
0.008904 0.000058 0.015002
0.156222 0.014406 0.008855
0.337141 0.048241 0.008392
0.528711 0.100475 0.008982
0.668336 0.141579 0.010030
0.747893 0.165676 0.010238
0.806633 0.185373 0.010147
0.000000 0.045149 0.045840
0.000000 0.049107 0.050004
0.097530 0.050271 0.022602
0.309851 0.083200 0.008445
0.531046 0.129191 0.008392
0.683029 0.169515 0.008862
0.762477 0.192108 0.009277
0.820712 0.211705 0.009180
0.000000 0.143572 0.086046
0.000664 0.141485 0.085671
0.053630 0.160556 0.090185
0.269431 0.168544 0.039117
0.532755 0.217119 0.010584
0.709590 0.244554 0.008392
0.787295 0.257403 0.008392
0.841536 0.272229 0.008523
0.002502 0.295663 0.148188
0.022735 0.290100 0.145005
0.055998 0.299165 0.148466
0.237380 0.356687 0.139896
0.520662 0.339921 0.060532
0.730217 0.393405 0.034397
0.815698 0.428122 0.035278
0.864409 0.431556 0.032574
0.039538 0.468051 0.215854
0.061861 0.465831 0.215795
0.097900 0.472885 0.213575
0.218074 0.522047 0.231813
0.576883 0.614670 0.206262
0.747568 0.537822 0.109822
0.840351 0.551773 0.097102
0.886700 0.572219 0.100419
0.065438 0.570851 0.245282
0.086279 0.574812 0.250378
0.128447 0.583343 0.248360
0.261836 0.633626 0.262796
0.584235 0.711329 0.250628
0.775741 0.693210 0.196010
0.849581 0.646179 0.151059
0.898571 0.649385 0.144326
0.080682 0.637139 0.266573
0.096549 0.640025 0.264042
0.144704 0.649145 0.261296
0.261602 0.690650 0.278331
0.559738 0.755008 0.268163
0.777148 0.791606 0.239622
0.855917 0.729059 0.192638
0.903518 0.710828 0.175766
0.000000 0.000000 0.054310
0.045306 0.000000 0.046388
0.223535 0.006104 0.034908
0.374138 0.028845 0.024551
0.527893 0.071015 0.022786
0.650903 0.105788 0.022594
0.726461 0.127962 0.023690
0.787490 0.162978 0.028082
0.000000 0.001046 0.060518
0.005389 0.009723 0.066698
0.156539 0.028509 0.040439
0.356636 0.060362 0.020124
0.545234 0.107272 0.018837
0.675764 0.143658 0.019355
0.754041 0.170240 0.020472
0.811002 0.192611 0.022300
0.000000 0.057014 0.083258
0.000000 0.058110 0.075258
0.112754 0.065401 0.048434
0.337465 0.085203 0.017591
0.552395 0.133083 0.016377
0.695322 0.173681 0.017610
0.772323 0.197388 0.018052
0.828087 0.217117 0.018403
0.000000 0.159426 0.116162
0.000000 0.158804 0.103333
0.043380 0.170352 0.110276
0.295582 0.185091 0.047953
0.559834 0.216392 0.016591
0.722651 0.236761 0.016205
0.797203 0.251405 0.016408
0.848778 0.267533 0.016473
0.005450 0.313601 0.172798
0.013712 0.316509 0.166969
0.054293 0.314940 0.167173
0.224709 0.368298 0.163391
0.546151 0.354588 0.067031
0.748112 0.403630 0.040234
0.829003 0.421197 0.037178
0.872702 0.421364 0.034835
0.044744 0.484104 0.234123
0.053803 0.490375 0.233575
0.098869 0.491412 0.234707
0.193031 0.529344 0.247627
0.577096 0.628031 0.221228
0.767060 0.553905 0.120395
0.855839 0.565710 0.107744
0.897750 0.587426 0.112706
0.070402 0.583396 0.266459
0.079105 0.589551 0.261248
0.127438 0.598167 0.270140
0.221439 0.633009 0.276063
0.573737 0.717544 0.262667
0.786344 0.708284 0.208514
0.864778 0.661436 0.163605
0.908158 0.664418 0.158096
0.084120 0.645701 0.285562
0.092665 0.651798 0.279975
0.140672 0.658683 0.278641
0.232245 0.690699 0.287498
0.540581 0.758021 0.280228
0.773465 0.800030 0.251899
0.866802 0.741722 0.204484
0.911798 0.723975 0.188131
0.000000 0.002964 0.119651
0.032631 0.000000 0.102948
0.233542 0.009053 0.099521
0.390907 0.031103 0.084554
0.533898 0.053635 0.050231
0.638911 0.068269 0.047955
0.703534 0.077462 0.048496
0.772112 0.130484 0.050411
0.000000 0.036244 0.132817
0.000173 0.028517 0.130771
0.171888 0.024239 0.095309
0.373116 0.038721 0.061540
0.536534 0.070230 0.042896
0.665907 0.119453 0.040326
0.743569 0.153250 0.040967
0.802726 0.188419 0.045070
0.000000 0.079646 0.149132
0.000000 0.076608 0.145824
0.078179 0.093694 0.133164
0.307539 0.121982 0.089075
0.558717 0.158844 0.044181
0.705509 0.187146 0.036387
0.781876 0.208098 0.035564
0.834007 0.230181 0.038183
0.000000 0.192135 0.191036
0.000158 0.192912 0.179429
0.019631 0.176266 0.156464
0.290081 0.199349 0.100470
0.573538 0.213208 0.038698
0.735179 0.234702 0.031756
0.809581 0.250034 0.029393
0.854439 0.268127 0.032531
0.013669 0.343503 0.236949
0.020402 0.347385 0.223673
0.032774 0.342127 0.200085
0.175287 0.373199 0.208549
0.561549 0.368621 0.080449
0.772929 0.411580 0.046430
0.849741 0.407611 0.039065
0.882248 0.402506 0.038922
0.050615 0.502777 0.281410
0.060584 0.511528 0.270949
0.074972 0.525919 0.259336
0.166063 0.545256 0.269736
0.575448 0.652127 0.244707
0.796907 0.585055 0.140403
0.884107 0.594183 0.126390
0.911788 0.608938 0.132005
0.075079 0.596301 0.295188
0.084203 0.603532 0.290399
0.096061 0.620552 0.280465
0.187281 0.643031 0.291503
0.551343 0.731705 0.279942
0.804684 0.739998 0.227588
0.891718 0.691733 0.183274
0.920593 0.685295 0.177663
0.087354 0.655053 0.311027
0.096220 0.661481 0.306229
0.109975 0.671739 0.296152
0.206712 0.694007 0.303641
0.513715 0.762415 0.297460
0.761767 0.810531 0.270509
0.880180 0.761826 0.222399
0.921682 0.742873 0.206713
0.000000 0.072437 0.229466
0.004790 0.010447 0.186256
0.129946 0.001702 0.162441
0.381110 0.040707 0.161324
0.543287 0.063043 0.148531
0.650332 0.070731 0.128575
0.711184 0.077833 0.094585
0.759254 0.094281 0.085486
0.000000 0.117057 0.241884
0.000000 0.080729 0.232893
0.071164 0.012165 0.173465
0.372541 0.051630 0.164185
0.551246 0.069047 0.140876
0.657256 0.079868 0.093346
0.720057 0.094398 0.077877
0.771480 0.114575 0.078608
0.000000 0.158332 0.254232
0.000006 0.152118 0.256111
0.017019 0.122949 0.237766
0.320594 0.102546 0.161084
0.548138 0.115927 0.125277
0.681891 0.135333 0.072382
0.763812 0.180706 0.069278
0.818201 0.214863 0.070430
0.000422 0.225120 0.277713
0.008628 0.234820 0.287300
0.019847 0.218081 0.272313
0.208293 0.230938 0.236630
0.508136 0.263623 0.171211
0.720209 0.288426 0.126097
0.801037 0.293891 0.101995
0.853354 0.307536 0.081203
0.023282 0.372417 0.327109
0.033181 0.386115 0.328635
0.045805 0.391511 0.317975
0.097163 0.360928 0.281892
0.519014 0.391859 0.196749
0.766755 0.391349 0.084022
0.847056 0.381195 0.066443
0.884136 0.389991 0.069305
0.059066 0.526795 0.367763
0.070482 0.540849 0.365425
0.085888 0.559402 0.351550
0.132856 0.547240 0.325799
0.489547 0.626486 0.319123
0.786873 0.588323 0.167407
0.888590 0.605793 0.153810
0.921428 0.628000 0.166380
0.083699 0.620041 0.384583
0.093295 0.628152 0.376604
0.103889 0.642639 0.351327
0.157938 0.643212 0.343011
0.484820 0.719663 0.347794
0.796648 0.758427 0.264292
0.897478 0.704193 0.212325
0.928733 0.705468 0.211363
0.093923 0.673206 0.388314
0.102556 0.679389 0.377476
0.114380 0.686506 0.351857
0.176781 0.695784 0.356477
0.466268 0.758563 0.358843
0.744670 0.811954 0.300610
0.884785 0.777861 0.251878
0.927719 0.758135 0.235803
0.000000 0.148575 0.354709
0.015093 0.074595 0.314606
0.101106 0.013828 0.256811
0.266944 0.034560 0.250837
0.536480 0.081944 0.247854
0.658301 0.104744 0.235392
0.721799 0.108500 0.230647
0.771403 0.114727 0.227246
0.000032 0.199018 0.371013
0.006232 0.146218 0.357210
0.041350 0.060353 0.304515
0.233343 0.039081 0.256309
0.544465 0.094491 0.253797
0.671743 0.116941 0.234471
0.734179 0.121736 0.225240
0.781352 0.126469 0.218345
0.004929 0.240625 0.382204
0.011236 0.235267 0.389038
0.022151 0.203114 0.386273
0.170772 0.091985 0.288359
0.552089 0.137245 0.261100
0.694879 0.148725 0.232925
0.754691 0.146001 0.216720
0.793673 0.147448 0.198004
0.012713 0.290831 0.398236
0.021467 0.298162 0.410598
0.033689 0.299686 0.419209
0.089020 0.268719 0.397112
0.504973 0.234772 0.274933
0.702506 0.238800 0.225757
0.768795 0.231820 0.191415
0.816445 0.262915 0.174021
0.028182 0.380256 0.425520
0.039374 0.397772 0.441811
0.056526 0.417503 0.458646
0.091885 0.410355 0.448659
0.409802 0.435534 0.399991
0.700803 0.456231 0.305484
0.814598 0.460707 0.265023
0.868809 0.463706 0.248363
0.067236 0.546560 0.486960
0.080318 0.565180 0.496155
0.098296 0.593243 0.505080
0.121040 0.589115 0.486406
0.282532 0.586742 0.463244
0.738501 0.622804 0.367152
0.878631 0.628202 0.300148
0.920767 0.618174 0.285888
0.091122 0.641792 0.506398
0.101129 0.652978 0.506790
0.114334 0.674493 0.504510
0.138649 0.670814 0.477068
0.314803 0.691911 0.481387
0.732507 0.779373 0.448015
0.890501 0.730360 0.342339
0.932885 0.744725 0.328031
0.101358 0.695872 0.512245
0.111023 0.704735 0.510044
0.124569 0.715922 0.501435
0.147241 0.713928 0.468743
0.353778 0.748363 0.480390
0.701717 0.818472 0.445503
0.881712 0.813913 0.375606
0.932127 0.787374 0.318124
0.015017 0.206013 0.461244
0.032520 0.134638 0.427879
0.094703 0.049241 0.353789
0.240511 0.040268 0.334557
0.431589 0.079919 0.336303
0.659315 0.118144 0.331747
0.730092 0.133477 0.323401
0.783017 0.149605 0.325073
0.012032 0.266312 0.481782
0.025819 0.213378 0.472449
0.048973 0.116271 0.421860
0.208300 0.048717 0.346343
0.411705 0.086890 0.343884
0.673867 0.133224 0.339733
0.744657 0.149385 0.328429
0.798258 0.174674 0.328225
0.018655 0.310173 0.494590
0.025058 0.304054 0.501893
0.038213 0.258827 0.503817
0.103433 0.121134 0.419178
0.382284 0.107922 0.357209
0.699664 0.163256 0.354279
0.773460 0.181844 0.340046
0.816559 0.207519 0.331070
0.027095 0.360436 0.509172
0.035862 0.366409 0.520595
0.046365 0.369040 0.537276
0.070473 0.342360 0.533460
0.327897 0.214199 0.402507
0.711219 0.245623 0.355074
0.790123 0.256222 0.338440
0.828414 0.272237 0.326151
0.039565 0.426682 0.530438
0.049756 0.438138 0.543997
0.064271 0.456364 0.566019
0.089040 0.460485 0.569141
0.239638 0.449231 0.549943
0.696612 0.418889 0.398041
0.797705 0.407683 0.355914
0.838049 0.401387 0.333027
0.067842 0.540093 0.570990
0.081204 0.559424 0.587461
0.101568 0.593326 0.616027
0.129848 0.604114 0.621470
0.236701 0.613186 0.622714
0.656511 0.670219 0.573938
0.831735 0.668636 0.502923
0.901015 0.661665 0.470125
0.103078 0.666839 0.623377
0.114053 0.680342 0.631943
0.129214 0.707602 0.650129
0.153695 0.710550 0.644943
0.225170 0.710619 0.627312
0.581091 0.755527 0.609703
0.850978 0.784134 0.555019
0.927494 0.788067 0.527974
0.113444 0.721358 0.630777
0.122704 0.730680 0.634533
0.135844 0.743951 0.639018
0.157374 0.746342 0.627445
0.229816 0.748565 0.597028
0.604499 0.805960 0.591299
0.841586 0.859863 0.571922
0.928388 0.831770 0.529609
0.024627 0.236709 0.527512
0.041550 0.162207 0.491376
0.107307 0.071706 0.413817
0.252474 0.049404 0.388238
0.390328 0.079112 0.386295
0.627635 0.126832 0.393097
0.730102 0.140060 0.389237
0.783385 0.152111 0.384018
0.019743 0.306167 0.548828
0.036092 0.241187 0.538092
0.057752 0.137042 0.481432
0.214508 0.065444 0.401913
0.372956 0.086682 0.394181
0.628732 0.138676 0.400098
0.743807 0.154690 0.396910
0.799727 0.178037 0.390302
0.027137 0.351479 0.562935
0.033043 0.341887 0.567699
0.047845 0.280997 0.567964
0.114614 0.131750 0.471880
0.353729 0.107678 0.411242
0.638580 0.160060 0.415375
0.771966 0.185792 0.413374
0.820623 0.213752 0.398601
0.036716 0.403924 0.578371
0.044882 0.406512 0.586736
0.053085 0.403470 0.601944
0.076619 0.364502 0.596709
0.290944 0.212692 0.468300
0.611980 0.227670 0.415710
0.788068 0.254256 0.412870
0.837300 0.282210 0.400637
0.050727 0.470610 0.601786
0.060495 0.479392 0.612475
0.072502 0.492449 0.631810
0.096121 0.493300 0.633964
0.205068 0.462577 0.617053
0.558012 0.384052 0.476447
0.799802 0.391398 0.420721
0.855534 0.414379 0.418918
0.072223 0.555065 0.633465
0.083423 0.567330 0.645530
0.098778 0.591188 0.669583
0.125682 0.600111 0.675766
0.212416 0.614583 0.685178
0.541415 0.648868 0.652872
0.811159 0.637243 0.560492
0.867079 0.621177 0.527155
0.100113 0.650817 0.669581
0.112283 0.666580 0.682837
0.128667 0.696007 0.708937
0.155554 0.705478 0.714132
0.219628 0.718726 0.719833
0.469478 0.759341 0.730217
0.797393 0.818939 0.686408
0.911874 0.814498 0.645385
0.121045 0.737057 0.704585
0.131485 0.748947 0.713525
0.145706 0.764447 0.725243
0.169520 0.772059 0.727611
0.203866 0.778223 0.723699
0.427455 0.800965 0.720712
0.752916 0.855929 0.685682
0.915236 0.879322 0.663341
0.026036 0.295413 0.584439
0.048556 0.189574 0.544379
0.126745 0.084360 0.453119
0.272337 0.060317 0.428244
0.390437 0.085335 0.424597
0.583661 0.125061 0.429637
0.721429 0.147666 0.434069
0.786405 0.164028 0.431500
0.026532 0.337781 0.597519
0.038222 0.295588 0.596194
0.065170 0.171090 0.535399
0.231190 0.083296 0.442655
0.377001 0.097690 0.431742
0.581093 0.140199 0.436100
0.731879 0.167121 0.440041
0.800840 0.187603 0.438086
0.034105 0.380996 0.609872
0.040094 0.372801 0.614039
0.048998 0.328660 0.617199
0.107864 0.179004 0.532197
0.353190 0.129200 0.447466
0.573330 0.170163 0.444643
0.748946 0.202961 0.448817
0.820334 0.222514 0.447236
0.043768 0.433036 0.624924
0.051431 0.433584 0.630938
0.061440 0.428603 0.639103
0.084407 0.383620 0.634519
0.294951 0.230947 0.507527
0.536065 0.234435 0.456922
0.756487 0.261019 0.450456
0.834019 0.283227 0.449282
0.059894 0.502655 0.650776
0.068897 0.507950 0.658112
0.081495 0.514352 0.668013
0.102487 0.512189 0.670430
0.193636 0.462721 0.650440
0.505806 0.367256 0.518041
0.752435 0.375484 0.459570
0.850151 0.400214 0.459190
0.079379 0.577044 0.678865
0.088913 0.584701 0.686879
0.102219 0.594888 0.697952
0.126067 0.601732 0.703750
0.163033 0.612589 0.714875
0.477876 0.628257 0.689998
0.735371 0.588455 0.579994
0.872323 0.601454 0.553022
0.101752 0.655347 0.710361
0.111808 0.664958 0.719399
0.126902 0.680309 0.733187
0.151918 0.690595 0.740575
0.206465 0.705694 0.751759
0.416022 0.746524 0.773560
0.749343 0.811518 0.740283
0.893619 0.805049 0.697077
0.117514 0.717847 0.730323
0.128267 0.729796 0.740604
0.143194 0.745575 0.754300
0.167955 0.755866 0.761228
0.205589 0.768533 0.768738
0.342871 0.796794 0.787055
0.686585 0.866090 0.776340
0.887547 0.904183 0.745759
