luts_externos/iwltbap/free-named-looks/IWLTBAP Aspen - V-Log.cube
# Copyright: (C) Copyright 2010-2017 by IWLTBAP SAS
# Cannot be resold, shared or otherwise redistributed
# Website: https://luts.iwltbap.com
TITLE "IWLTBAP Aspen (V-Log)"
LUT_3D_SIZE 9
0.007843 0.015686 0.027466
0.007843 0.015686 0.019623
0.026459 0.015686 0.012756
0.119598 0.033813 0.007843
0.307831 0.078430 0.015686
0.635773 0.157349 0.049988
0.868622 0.187256 0.091187
0.875000 0.180389 0.098053
0.878418 0.176483 0.098053
0.007843 0.023529 0.034790
0.007843 0.023529 0.030884
0.033325 0.022552 0.019623
0.126953 0.041168 0.011780
0.321075 0.084320 0.017639
0.639221 0.164703 0.049988
0.871582 0.195099 0.091187
0.878418 0.187744 0.098053
0.881866 0.184326 0.098053
0.007843 0.046082 0.057831
0.007843 0.046082 0.057831
0.033325 0.052948 0.049988
0.149506 0.064209 0.026947
0.361755 0.102936 0.022552
0.655396 0.175995 0.052460
0.875488 0.201965 0.095093
0.882355 0.195099 0.098053
0.882355 0.192169 0.099030
0.010284 0.099030 0.132843
0.011780 0.101471 0.129425
0.018127 0.105896 0.122559
0.150482 0.139221 0.099030
0.424988 0.170105 0.057831
0.679413 0.203918 0.059814
0.882355 0.207855 0.094116
0.888733 0.212738 0.100494
0.888733 0.208832 0.100494
0.039215 0.227448 0.254913
0.042633 0.230896 0.251465
0.043152 0.237244 0.244110
0.049011 0.259308 0.228912
0.513733 0.376465 0.205872
0.752930 0.358826 0.124023
0.901947 0.274506 0.096069
0.905884 0.272552 0.107849
0.909790 0.272552 0.109802
0.027954 0.470581 0.467651
0.031860 0.472046 0.466187
0.035797 0.479889 0.463715
0.042145 0.488739 0.449524
0.082367 0.520111 0.393127
0.806366 0.625977 0.310791
0.963226 0.570587 0.212738
0.970093 0.572540 0.248047
0.974030 0.569122 0.244110
0.229401 0.733337 0.521576
0.233337 0.737244 0.526459
0.237244 0.737244 0.526459
0.242157 0.741180 0.524994
0.253937 0.750000 0.510773
0.537750 0.815186 0.410309
0.975494 0.860779 0.448029
0.988220 0.892151 0.674500
0.996063 0.892151 0.667633
0.239227 0.756866 0.524994
0.246582 0.760773 0.529419
0.250977 0.764709 0.533325
0.257355 0.765198 0.532837
0.264709 0.772552 0.519623
0.601471 0.859314 0.534302
0.968628 0.890686 0.509796
0.988220 0.933319 0.776459
0.992157 0.933319 0.773041
0.247070 0.764709 0.517639
0.250977 0.768616 0.524994
0.257843 0.772552 0.529419
0.262756 0.776459 0.525482
0.272552 0.782349 0.515686
0.622070 0.869598 0.523041
0.968628 0.905884 0.517639
0.988739 0.945099 0.784302
0.996063 0.945099 0.784302
0.004425 0.015686 0.027466
0.007843 0.015686 0.023529
0.026459 0.015686 0.015686
0.119598 0.033813 0.011261
0.319122 0.078430 0.021576
0.643616 0.159790 0.053925
0.868622 0.186279 0.095093
0.874512 0.176483 0.101959
0.878418 0.172546 0.101959
0.007843 0.023529 0.038727
0.007843 0.023041 0.031372
0.029907 0.022552 0.020111
0.126953 0.041168 0.015686
0.330383 0.085785 0.023041
0.643616 0.164703 0.053925
0.871582 0.191162 0.095093
0.878418 0.184326 0.101959
0.878418 0.180389 0.101959
0.007843 0.046082 0.061768
0.007843 0.046082 0.060791
0.039703 0.056366 0.053436
0.152466 0.064209 0.031372
0.371063 0.102936 0.023529
0.660797 0.175995 0.055389
0.875488 0.199005 0.095093
0.882355 0.192169 0.101959
0.882355 0.188232 0.101959
0.010284 0.099030 0.140198
0.011780 0.101471 0.136780
0.015686 0.108826 0.130402
0.164703 0.146088 0.106384
0.436279 0.170593 0.061768
0.684326 0.203918 0.061279
0.882355 0.205872 0.095093
0.886780 0.208832 0.101959
0.888733 0.208832 0.104401
0.039215 0.223541 0.262268
0.039215 0.227448 0.262268
0.043152 0.238220 0.255402
0.049011 0.261261 0.236267
0.523041 0.385284 0.221069
0.756866 0.359314 0.127930
0.900970 0.268127 0.096069
0.904419 0.266663 0.109802
0.906372 0.266663 0.109802
0.029419 0.468140 0.474030
0.031860 0.472046 0.474030
0.035797 0.477448 0.471558
0.042145 0.488739 0.457367
0.080383 0.518127 0.399506
0.807831 0.627441 0.322540
0.963226 0.570587 0.217163
0.970581 0.571564 0.255402
0.974030 0.569122 0.251465
0.225494 0.733337 0.530396
0.230377 0.737244 0.534302
0.236267 0.737244 0.537750
0.241180 0.741180 0.535309
0.250488 0.750000 0.518127
0.537750 0.818146 0.427948
0.975494 0.861755 0.468140
0.988220 0.896088 0.689209
0.994598 0.893127 0.685303
0.239227 0.756866 0.533325
0.243622 0.760773 0.537262
0.250977 0.764709 0.543640
0.255402 0.767151 0.541168
0.262756 0.770599 0.527466
0.600983 0.862244 0.552460
0.968628 0.894623 0.525482
0.988220 0.933319 0.788239
0.992157 0.933319 0.787750
0.243134 0.764709 0.528931
0.250977 0.768616 0.533325
0.254913 0.772552 0.537262
0.262756 0.776459 0.537262
0.270599 0.780396 0.523529
0.622559 0.873047 0.544128
0.969604 0.906860 0.533325
0.988739 0.945099 0.796082
0.996063 0.945099 0.796082
0.003937 0.015686 0.038239
0.007843 0.015686 0.031860
0.022552 0.015686 0.023529
0.123535 0.034302 0.023529
0.345093 0.082367 0.033325
0.653931 0.159790 0.057831
0.868622 0.183319 0.099030
0.874512 0.175995 0.105896
0.874512 0.169617 0.105896
0.003937 0.023041 0.049988
0.007843 0.023041 0.045593
0.026459 0.023041 0.030884
0.129425 0.041656 0.027466
0.351471 0.089203 0.037262
0.655396 0.165192 0.060791
0.871582 0.191162 0.100006
0.878418 0.180878 0.105896
0.878418 0.176971 0.108826
0.007843 0.046082 0.079407
0.007843 0.046082 0.075500
0.026459 0.046082 0.053925
0.125977 0.060303 0.042633
0.356873 0.104889 0.046082
0.663239 0.175995 0.063232
0.874512 0.195099 0.100006
0.878418 0.188232 0.106384
0.882355 0.184326 0.108826
0.007843 0.097534 0.155396
0.011780 0.099030 0.151459
0.015686 0.105377 0.147064
0.147064 0.146088 0.125000
0.456360 0.176971 0.076965
0.693634 0.199524 0.064209
0.878418 0.202942 0.099030
0.884796 0.204895 0.105896
0.886261 0.202454 0.108826
0.035309 0.218628 0.277466
0.035309 0.221558 0.276459
0.039215 0.235291 0.281372
0.045105 0.270111 0.264221
0.571564 0.435303 0.270599
0.766174 0.364227 0.135284
0.897064 0.250000 0.092163
0.903931 0.266663 0.116669
0.907837 0.263733 0.116669
0.031860 0.468140 0.484802
0.033325 0.470581 0.484802
0.037262 0.477448 0.481873
0.041168 0.487732 0.472046
0.081848 0.521576 0.411285
0.817169 0.639221 0.334320
0.963715 0.568146 0.223541
0.971558 0.573029 0.269623
0.975494 0.569122 0.263245
0.225494 0.733337 0.541168
0.229401 0.736267 0.546082
0.233337 0.737244 0.549011
0.241180 0.741180 0.547058
0.249023 0.749023 0.527466
0.532837 0.819122 0.448517
0.977448 0.867645 0.495087
0.988220 0.899994 0.704895
0.995087 0.896088 0.700989
0.235291 0.753418 0.544128
0.242645 0.757355 0.549011
0.247070 0.761261 0.552948
0.254913 0.765198 0.552948
0.262756 0.772552 0.539215
0.601959 0.865692 0.575012
0.968628 0.898041 0.546570
0.988220 0.933319 0.799988
0.992157 0.933838 0.796570
0.243134 0.764709 0.540192
0.247559 0.768616 0.545105
0.254913 0.772552 0.551971
0.262756 0.778931 0.551971
0.268616 0.780396 0.535309
0.624023 0.875977 0.567169
0.969604 0.911774 0.554901
0.988739 0.945099 0.806854
0.996063 0.945099 0.807831
0.003937 0.015686 0.054901
0.007355 0.015686 0.049988
0.026459 0.019623 0.041656
0.097534 0.037750 0.051971
0.354401 0.084320 0.053436
0.654907 0.157349 0.070587
0.867645 0.180878 0.106873
0.870575 0.168640 0.113739
0.872070 0.164703 0.112244
0.003937 0.023041 0.066162
0.007355 0.023041 0.061279
0.028931 0.026459 0.049500
0.100983 0.041656 0.056854
0.358337 0.090210 0.057343
0.658325 0.164703 0.072052
0.867645 0.186279 0.109314
0.874512 0.176483 0.116180
0.874512 0.172546 0.116180
0.003937 0.046082 0.110291
0.004425 0.046082 0.102936
0.019623 0.042145 0.083832
0.111755 0.060303 0.072052
0.370087 0.108826 0.067657
0.666656 0.174500 0.074524
0.871582 0.191162 0.109314
0.875000 0.184326 0.116180
0.878418 0.180389 0.117645
0.003937 0.095093 0.200500
0.007355 0.097534 0.196564
0.011780 0.101471 0.184814
0.089691 0.111755 0.127441
0.372559 0.155884 0.103424
0.673035 0.217163 0.096558
0.880890 0.214691 0.112244
0.882355 0.200989 0.116180
0.882355 0.197052 0.120087
0.023529 0.211761 0.318146
0.026459 0.215210 0.318634
0.030884 0.222534 0.320099
0.037262 0.255402 0.318146
0.485291 0.396088 0.317657
0.769623 0.383331 0.189697
0.892151 0.240692 0.102448
0.901459 0.262268 0.129425
0.903931 0.260773 0.129425
0.031860 0.466675 0.502441
0.034302 0.470581 0.502441
0.037262 0.474518 0.502441
0.057343 0.496582 0.502441
0.092163 0.529419 0.454895
0.844116 0.671082 0.403931
0.966187 0.569611 0.241669
0.970093 0.571075 0.287262
0.974030 0.567657 0.279419
0.221558 0.732361 0.559326
0.228424 0.734314 0.563232
0.233337 0.737244 0.564209
0.241180 0.741180 0.564209
0.247559 0.746582 0.547546
0.515686 0.819611 0.472534
0.977448 0.877441 0.541168
0.988220 0.902954 0.732849
0.995087 0.901459 0.727448
0.231384 0.752930 0.559326
0.239227 0.756866 0.564209
0.244110 0.760773 0.568634
0.251465 0.765198 0.571075
0.260773 0.770599 0.560303
0.587250 0.865204 0.592163
0.968628 0.905884 0.599030
0.988220 0.937256 0.818146
0.992157 0.937256 0.816162
0.239227 0.760773 0.555389
0.244110 0.768127 0.560303
0.250977 0.772552 0.567169
0.258820 0.776459 0.567169
0.268616 0.784302 0.557343
0.608826 0.878937 0.588226
0.972534 0.920593 0.605896
0.988739 0.949005 0.823517
0.996063 0.949005 0.823517
0.015686 0.019623 0.072540
0.021576 0.019623 0.072540
0.046082 0.027466 0.067657
0.101471 0.041656 0.082855
0.313721 0.086273 0.098053
0.654907 0.157349 0.099518
0.855896 0.165680 0.122559
0.862732 0.154907 0.127441
0.862732 0.150970 0.127441
0.017639 0.023529 0.085785
0.021576 0.026947 0.083832
0.042145 0.034302 0.078430
0.101471 0.048523 0.090210
0.323029 0.093628 0.101959
0.657349 0.161774 0.103424
0.859802 0.172546 0.123535
0.864716 0.162262 0.129425
0.866669 0.158325 0.131378
0.003937 0.046082 0.134308
0.007843 0.046082 0.131378
0.033325 0.046082 0.117645
0.103424 0.064209 0.108826
0.342163 0.108826 0.116669
0.667145 0.172058 0.107361
0.862732 0.180389 0.127441
0.866669 0.168640 0.131378
0.870575 0.165680 0.131378
0.000000 0.091187 0.278931
0.000977 0.091675 0.276947
0.003937 0.095093 0.270599
0.067657 0.109314 0.195099
0.367157 0.157837 0.164215
0.675476 0.215698 0.142151
0.873047 0.205383 0.137756
0.873047 0.187256 0.137756
0.874512 0.183319 0.137756
0.017639 0.207855 0.362732
0.017639 0.209808 0.366669
0.021576 0.219604 0.372559
0.029907 0.239716 0.374512
0.286285 0.299988 0.333344
0.697052 0.349030 0.250000
0.904907 0.305878 0.188232
0.907837 0.294128 0.192169
0.911774 0.292145 0.192169
0.027466 0.464203 0.532837
0.031372 0.468140 0.536774
0.037750 0.473541 0.536774
0.058319 0.492157 0.541656
0.089691 0.514709 0.519623
0.781372 0.651459 0.516663
0.966187 0.577454 0.319122
0.968628 0.562256 0.326965
0.973541 0.558319 0.319122
0.220581 0.729401 0.594116
0.225494 0.733337 0.595093
0.229401 0.733337 0.598053
0.237244 0.737732 0.596069
0.301971 0.784302 0.625488
0.496582 0.830383 0.577942
0.980377 0.892151 0.647064
0.987732 0.910797 0.774506
0.992157 0.909790 0.770599
0.227448 0.749512 0.594116
0.234802 0.756378 0.597534
0.239227 0.759796 0.599518
0.247070 0.763245 0.600006
0.312256 0.807831 0.633331
0.559814 0.862732 0.628418
0.969604 0.916168 0.657349
0.988220 0.941162 0.847046
0.992157 0.941162 0.845093
0.231384 0.760773 0.588226
0.239227 0.764709 0.592163
0.244110 0.768616 0.594116
0.251465 0.772552 0.596069
0.327454 0.821564 0.631378
0.585297 0.876953 0.628418
0.972534 0.928436 0.662750
0.988220 0.952942 0.850983
0.994110 0.952942 0.850983
0.053925 0.036774 0.137756
0.061768 0.038727 0.137756
0.080383 0.044617 0.139221
0.143616 0.059814 0.148041
0.325012 0.101959 0.173035
0.628937 0.153442 0.203430
0.853424 0.150482 0.185791
0.855896 0.143616 0.196564
0.857361 0.139709 0.200500
0.049988 0.039215 0.151459
0.057831 0.042633 0.151459
0.076477 0.049988 0.149506
0.141174 0.066681 0.155884
0.325012 0.107849 0.182343
0.632843 0.161285 0.211273
0.854889 0.155884 0.189697
0.859314 0.150970 0.200500
0.857361 0.147064 0.204407
0.039215 0.049988 0.192169
0.046570 0.046082 0.183319
0.061768 0.061768 0.186768
0.129913 0.079895 0.182831
0.328918 0.125977 0.206848
0.643127 0.173035 0.223053
0.858337 0.162750 0.193634
0.861267 0.155396 0.201965
0.861267 0.151459 0.205872
0.002930 0.093628 0.332855
0.006378 0.095093 0.332855
0.022064 0.095093 0.318634
0.080872 0.117157 0.276947
0.336273 0.171082 0.268127
0.649506 0.214203 0.268127
0.861267 0.167633 0.197540
0.865204 0.177460 0.212250
0.869110 0.174988 0.216187
0.011780 0.206848 0.441681
0.013733 0.209320 0.445587
0.015686 0.213226 0.453430
0.021576 0.224030 0.463226
0.235779 0.303925 0.429413
0.677948 0.354401 0.392151
0.883331 0.269623 0.276947
0.885773 0.253937 0.272552
0.886780 0.250000 0.272552
0.032349 0.454895 0.598541
0.036285 0.456360 0.598541
0.042633 0.464203 0.603912
0.066162 0.480896 0.612732
0.090698 0.497070 0.604889
0.638245 0.605377 0.605377
0.942169 0.549988 0.469116
0.946564 0.536285 0.461761
0.950500 0.532349 0.454407
0.220581 0.729401 0.655396
0.225494 0.733337 0.659302
0.229401 0.733337 0.659302
0.233337 0.737244 0.656372
0.290192 0.775482 0.681854
0.588226 0.854401 0.726959
0.980377 0.902954 0.713226
0.984314 0.913727 0.796082
0.992157 0.913727 0.793152
0.228912 0.752930 0.656860
0.235291 0.754425 0.659302
0.242157 0.757355 0.659302
0.247070 0.760773 0.659302
0.290192 0.798035 0.686768
0.609314 0.877930 0.739227
0.965210 0.922058 0.719116
0.984802 0.941681 0.858826
0.992157 0.941681 0.858826
0.231384 0.760773 0.651459
0.239227 0.764709 0.652954
0.246063 0.768616 0.655396
0.250977 0.772552 0.655396
0.299988 0.811768 0.688721
0.631378 0.895599 0.743134
0.966675 0.936279 0.725983
0.988220 0.954407 0.864227
0.992157 0.956848 0.864227
0.184326 0.067657 0.290192
0.208344 0.071564 0.294128
0.251953 0.080383 0.298035
0.340210 0.102448 0.306854
0.474518 0.147064 0.330383
0.635773 0.197540 0.369598
0.796082 0.133331 0.367645
0.807831 0.148041 0.377441
0.810791 0.143127 0.377441
0.176483 0.071564 0.298035
0.197052 0.076477 0.301483
0.240204 0.087250 0.305389
0.331360 0.110291 0.317169
0.471558 0.157349 0.342163
0.635773 0.211273 0.382843
0.796082 0.143127 0.374023
0.811768 0.159302 0.384796
0.811768 0.151947 0.385284
0.163727 0.075500 0.308838
0.184814 0.079407 0.312256
0.213715 0.099030 0.325500
0.310303 0.125977 0.339691
0.467651 0.177460 0.365692
0.638245 0.235779 0.403442
0.799988 0.150970 0.381378
0.815674 0.178436 0.397064
0.815674 0.170593 0.398041
0.081848 0.090210 0.343628
0.092163 0.084320 0.335785
0.150970 0.086273 0.327942
0.251465 0.160797 0.385284
0.459320 0.222534 0.413727
0.649994 0.289703 0.450012
0.803925 0.160797 0.392639
0.825989 0.215698 0.426971
0.825989 0.208832 0.426971
0.042145 0.260773 0.545105
0.047058 0.263733 0.543640
0.058838 0.264709 0.538239
0.086273 0.265198 0.521088
0.375488 0.334320 0.508820
0.677948 0.416168 0.542145
0.830383 0.255890 0.469604
0.849030 0.284302 0.485291
0.849030 0.280396 0.485291
0.040680 0.455872 0.687256
0.044617 0.458344 0.687744
0.048523 0.459808 0.691162
0.049988 0.462738 0.695587
0.075989 0.474518 0.708344
0.599518 0.595581 0.717651
0.897064 0.534790 0.677948
0.897064 0.502441 0.651947
0.900970 0.495575 0.651947
0.204895 0.720581 0.803925
0.209808 0.721558 0.803925
0.213715 0.721558 0.803925
0.217651 0.724518 0.803925
0.267639 0.753937 0.823517
0.382355 0.817657 0.864227
0.955872 0.922546 0.934326
0.969604 0.918640 0.931366
0.976471 0.918640 0.934326
0.215698 0.744110 0.803925
0.222046 0.747070 0.806854
0.226959 0.748535 0.807343
0.230896 0.751953 0.807831
0.273529 0.778931 0.824524
0.428925 0.845581 0.868134
0.942169 0.947052 0.938232
0.979889 0.950012 0.944611
0.984314 0.950012 0.944611
0.222534 0.755890 0.806854
0.226471 0.758820 0.807831
0.234314 0.761780 0.807831
0.238220 0.763733 0.807831
0.282349 0.793152 0.825500
0.474030 0.863739 0.872559
0.947052 0.962738 0.943146
0.984314 0.968628 0.951965
0.988220 0.968628 0.951965
0.239716 0.074524 0.317657
0.270599 0.082367 0.318146
0.320099 0.093140 0.325500
0.401947 0.116180 0.339691
0.517639 0.162750 0.378418
0.666168 0.220093 0.424011
0.789215 0.135284 0.413727
0.803925 0.164703 0.439697
0.799988 0.160797 0.447052
0.228424 0.078430 0.321564
0.259308 0.089691 0.325500
0.311768 0.100983 0.332855
0.394623 0.124023 0.350983
0.517639 0.176483 0.389709
0.670105 0.235291 0.435791
0.789215 0.143127 0.420593
0.806854 0.175995 0.447052
0.803925 0.172058 0.450989
0.204895 0.082367 0.325500
0.231873 0.089691 0.329895
0.278931 0.115692 0.351959
0.375488 0.142151 0.371063
0.511780 0.195099 0.406860
0.675476 0.258331 0.455383
0.793152 0.151947 0.425995
0.811768 0.195099 0.458832
0.811768 0.188721 0.462738
0.130402 0.076965 0.331848
0.149994 0.078918 0.331848
0.200012 0.098541 0.345581
0.310791 0.175995 0.407349
0.496063 0.236267 0.444122
0.684326 0.312744 0.494110
0.798035 0.163727 0.435303
0.823517 0.231384 0.484802
0.823517 0.223541 0.486755
0.078430 0.282349 0.550995
0.082367 0.286285 0.549011
0.088226 0.281860 0.543152
0.099030 0.264709 0.519623
0.411774 0.341187 0.519623
0.704407 0.419128 0.569611
0.830383 0.270599 0.510773
0.847046 0.311768 0.547546
0.849030 0.306366 0.550995
0.045105 0.462738 0.715210
0.049011 0.465210 0.716187
0.051483 0.465210 0.718628
0.052948 0.465210 0.718628
0.074005 0.470581 0.722046
0.603912 0.588226 0.721558
0.892639 0.541656 0.716675
0.897064 0.540192 0.719116
0.900970 0.533813 0.718140
0.201965 0.716675 0.823517
0.205872 0.717651 0.824005
0.209808 0.720581 0.824005
0.213715 0.720581 0.824005
0.236755 0.733337 0.830872
0.337738 0.796082 0.871582
0.958832 0.922546 0.950989
0.969604 0.919617 0.950989
0.973541 0.919617 0.950989
0.211761 0.737732 0.824005
0.219116 0.741180 0.827454
0.223541 0.741669 0.827454
0.227448 0.745087 0.827454
0.256866 0.760773 0.837250
0.370087 0.831848 0.885284
0.911285 0.944611 0.958832
0.976959 0.956848 0.964691
0.984314 0.956848 0.964691
0.215698 0.749023 0.827454
0.223541 0.749023 0.827454
0.227448 0.752930 0.827454
0.235291 0.756866 0.827942
0.264709 0.776459 0.841187
0.393616 0.847534 0.889221
0.918640 0.959808 0.962738
0.984314 0.972534 0.972534
0.988220 0.972534 0.972534
0.254913 0.078430 0.321564
0.285309 0.082367 0.325500
0.331360 0.094116 0.332367
0.407349 0.118622 0.347534
0.521576 0.162750 0.384308
0.667633 0.220093 0.430389
0.785309 0.135284 0.424500
0.799988 0.168640 0.450989
0.799988 0.164703 0.458832
0.243134 0.082367 0.329407
0.274017 0.090210 0.333344
0.323517 0.101471 0.340698
0.402466 0.126465 0.356384
0.521576 0.176483 0.396088
0.671570 0.235291 0.441681
0.789215 0.143127 0.429413
0.803925 0.179413 0.458344
0.803925 0.175995 0.462738
0.213715 0.082367 0.333344
0.243622 0.090698 0.337250
0.293152 0.116669 0.359802
0.380890 0.142639 0.377930
0.514709 0.195099 0.412750
0.675476 0.262268 0.462250
0.790192 0.152954 0.436279
0.811768 0.196075 0.469604
0.811768 0.192169 0.474518
0.138245 0.078430 0.339691
0.159790 0.081848 0.339691
0.208832 0.099030 0.353424
0.322540 0.175995 0.412750
0.500000 0.238220 0.449524
0.685791 0.315186 0.499512
0.795105 0.167633 0.443146
0.823517 0.233826 0.494598
0.823517 0.227448 0.500488
0.082367 0.288239 0.552948
0.086273 0.290192 0.552948
0.092163 0.287262 0.547058
0.102448 0.268616 0.524994
0.419617 0.345093 0.523529
0.704407 0.419128 0.574005
0.830383 0.274506 0.522552
0.847046 0.315674 0.559326
0.847046 0.311768 0.562744
0.045105 0.462738 0.720093
0.049011 0.465210 0.722534
0.052948 0.465210 0.722534
0.052948 0.465210 0.722534
0.074005 0.468628 0.725983
0.602448 0.586761 0.725494
0.889221 0.545593 0.730896
0.897064 0.544128 0.730896
0.900970 0.540192 0.733337
0.200989 0.715698 0.828430
0.204895 0.716675 0.831360
0.208832 0.716675 0.831360
0.212738 0.716675 0.831360
0.234314 0.729401 0.838226
0.333832 0.788239 0.879425
0.956848 0.922546 0.958832
0.969604 0.919617 0.955872
0.973541 0.922546 0.955872
0.211761 0.733826 0.831360
0.215698 0.737244 0.834808
0.220093 0.740204 0.835297
0.224030 0.741180 0.835297
0.255402 0.756866 0.845093
0.366180 0.826477 0.889709
0.911285 0.944611 0.965698
0.980377 0.957367 0.972534
0.984314 0.957367 0.972534
0.215698 0.745087 0.835297
0.223541 0.749023 0.835297
0.227448 0.752930 0.835297
0.231384 0.752930 0.835297
0.264709 0.772552 0.849030
0.381866 0.843628 0.897064
0.915680 0.959808 0.970581
0.984314 0.972534 0.976471
0.988220 0.976471 0.980377
