luts_externos/iwltbap/free-pack/07 - Utility/Divers/Green turned orange back to green.cube
# Copyright: (C) Copyright 2016 by IWLTBAP
# Cannot be resold, shared or otherwise redistributed
# Website: https://luts.iwltbap.com
TITLE "Green back to green (Rec.709)"
LUT_3D_SIZE 33
0.000000 0.000000 0.000000
0.031250 0.000000 0.000000
0.062500 0.000000 0.000000
0.093750 0.000000 0.000000
0.125000 0.000000 0.000000
0.156250 0.000000 0.000000
0.187500 0.000000 0.000000
0.218750 0.000000 0.000000
0.250000 0.000000 0.000000
0.281250 0.000000 0.000000
0.312500 0.000000 0.000000
0.343750 0.000000 0.000000
0.375000 0.000000 0.000000
0.406250 0.000000 0.000000
0.437500 0.000000 0.000000
0.468750 0.000000 0.000000
0.500000 0.000000 0.000000
0.531250 0.000000 0.000000
0.562500 0.000000 0.000000
0.593750 0.000000 0.000000
0.625000 0.000000 0.000000
0.656250 0.000000 0.000000
0.687500 0.000000 0.000000
0.718750 0.000000 0.000000
0.750000 0.000000 0.000000
0.781250 0.000000 0.000000
0.812500 0.000000 0.000000
0.843750 0.000000 0.000000
0.875000 0.000000 0.000000
0.906250 0.000000 0.000000
0.937500 0.000000 0.000000
0.968750 0.000000 0.000000
1.000000 0.000000 0.000000
0.000000 0.031250 0.000000
0.030273 0.046326 0.000000
0.060547 0.046326 0.000000
0.090820 0.046326 0.000000
0.121094 0.046326 0.000000
0.151367 0.046326 0.000000
0.181641 0.046326 0.000000
0.211914 0.046326 0.000000
0.242188 0.046326 0.000000
0.272461 0.046326 0.000000
0.302734 0.046326 0.000000
0.333496 0.046326 0.000000
0.365234 0.046326 0.000000
0.396973 0.046326 0.000000
0.428711 0.046326 0.000000
0.460449 0.046326 0.000000
0.492188 0.046326 0.000000
0.523926 0.046326 0.000000
0.555664 0.046326 0.000000
0.587402 0.046326 0.000000
0.619141 0.046326 0.000000
0.650879 0.046326 0.000000
0.682617 0.046326 0.000000
0.714355 0.046326 0.000000
0.746094 0.046326 0.000000
0.777832 0.046326 0.000000
0.809570 0.046326 0.000000
0.841309 0.046326 0.000000
0.873047 0.046326 0.000000
0.904785 0.046326 0.000000
0.936523 0.046326 0.000000
0.968262 0.046326 0.000000
1.000000 0.046326 0.000000
0.000000 0.062500 0.000000
0.030273 0.077087 0.000000
0.058594 0.091675 0.000000
0.087891 0.091675 0.000000
0.117188 0.091675 0.000000
0.146484 0.091675 0.000000
0.175781 0.091675 0.000000
0.205078 0.091675 0.000000
0.234375 0.091675 0.000000
0.263672 0.091675 0.000000
0.292969 0.091675 0.000000
0.323242 0.091675 0.000000
0.355469 0.091675 0.000000
0.387695 0.091675 0.000000
0.419922 0.091675 0.000000
0.452148 0.091675 0.000000
0.484375 0.091675 0.000000
0.516602 0.091675 0.000000
0.548828 0.091675 0.000000
0.581055 0.091675 0.000000
0.613281 0.091675 0.000000
0.645508 0.091675 0.000000
0.677734 0.091675 0.000000
0.709961 0.091675 0.000000
0.742188 0.091675 0.000000
0.774414 0.091675 0.000000
0.806641 0.091675 0.000000
0.838867 0.091675 0.000000
0.871094 0.091675 0.000000
0.903320 0.091675 0.000000
0.935547 0.091675 0.000000
0.967773 0.091675 0.000000
1.000000 0.091675 0.000000
0.000000 0.093750 0.000000
0.030273 0.107849 0.000000
0.058594 0.121948 0.000000
0.084961 0.136078 0.000000
0.113281 0.136078 0.000000
0.141602 0.136078 0.000000
0.169922 0.136078 0.000000
0.198242 0.136078 0.000000
0.226562 0.136078 0.000000
0.254883 0.136078 0.000000
0.283203 0.136078 0.000000
0.312988 0.136078 0.000000
0.345703 0.136078 0.000000
0.378418 0.136078 0.000000
0.411133 0.136078 0.000000
0.443848 0.136078 0.000000
0.476562 0.136078 0.000000
0.509277 0.136078 0.000000
0.541992 0.136078 0.000000
0.574707 0.136078 0.000000
0.607422 0.136078 0.000000
0.640137 0.136078 0.000000
0.672852 0.136078 0.000000
0.705566 0.136078 0.000000
0.738281 0.136078 0.000000
0.770996 0.136078 0.000000
0.803711 0.136078 0.000000
0.836426 0.136078 0.000000
0.869141 0.136078 0.000000
0.901855 0.136078 0.000000
0.934570 0.136078 0.000000
0.967285 0.136078 0.000000
1.000000 0.136078 0.000000
0.000000 0.125000 0.000000
0.030273 0.138611 0.000000
0.058594 0.152252 0.000000
0.084961 0.165863 0.000000
0.109375 0.179474 0.000000
0.136719 0.179474 0.000000
0.164062 0.179474 0.000000
0.191406 0.179474 0.000000
0.218750 0.179474 0.000000
0.246094 0.179474 0.000000
0.273438 0.179474 0.000000
0.302765 0.179474 0.000000
0.335968 0.179474 0.000000
0.369171 0.179474 0.000000
0.402344 0.179474 0.000000
0.435547 0.179474 0.000000
0.468750 0.179474 0.000000
0.501953 0.179474 0.000000
0.535156 0.179474 0.000000
0.568359 0.179474 0.000000
0.601562 0.179474 0.000000
0.634766 0.179474 0.000000
0.667969 0.179474 0.000000
0.701172 0.179474 0.000000
0.734375 0.179474 0.000000
0.767578 0.179474 0.000000
0.800781 0.179474 0.000000
0.833984 0.179474 0.000000
0.867188 0.179474 0.000000
0.900391 0.179474 0.000000
0.933594 0.179474 0.000000
0.966797 0.179474 0.000000
1.000000 0.179474 0.000000
0.000000 0.156250 0.000000
0.030273 0.169373 0.000000
0.058594 0.182526 0.000000
0.084961 0.195648 0.000000
0.109375 0.208771 0.000000
0.131836 0.221924 0.000000
0.158203 0.221924 0.000000
0.184570 0.221924 0.000000
0.210938 0.221924 0.000000
0.237305 0.221924 0.000000
0.263672 0.221924 0.000000
0.292511 0.221924 0.000000
0.326202 0.221924 0.000000
0.359894 0.221924 0.000000
0.393555 0.221924 0.000000
0.427246 0.221924 0.000000
0.460938 0.221924 0.000000
0.494629 0.221924 0.000000
0.528320 0.221924 0.000000
0.562012 0.221924 0.000000
0.595703 0.221924 0.000000
0.629395 0.221924 0.000000
0.663086 0.221924 0.000000
0.696777 0.221924 0.000000
0.730469 0.221924 0.000000
0.764160 0.221924 0.000000
0.797852 0.221924 0.000000
0.831543 0.221924 0.000000
0.865234 0.221924 0.000000
0.898926 0.221924 0.000000
0.932617 0.221924 0.000000
0.966309 0.221924 0.000000
1.000000 0.221924 0.000000
0.000000 0.187500 0.000000
0.030273 0.200134 0.000000
0.058594 0.212799 0.000000
0.084961 0.225433 0.000000
0.109375 0.238098 0.000000
0.131836 0.250732 0.000000
0.152344 0.263367 0.000000
0.177734 0.263367 0.000000
0.203125 0.263367 0.000000
0.228516 0.263367 0.000000
0.253906 0.263367 0.000000
0.282257 0.263367 0.000000
0.316437 0.263367 0.000000
0.350616 0.263367 0.000000
0.384796 0.263367 0.000000
0.418976 0.263367 0.000000
0.453156 0.263367 0.000000
0.487335 0.263367 0.000000
0.521515 0.263367 0.000000
0.555664 0.263367 0.000000
0.589844 0.263367 0.000000
0.624023 0.263367 0.000000
0.658203 0.263367 0.000000
0.692383 0.263367 0.000000
0.726562 0.263367 0.000000
0.760742 0.263367 0.000000
0.794922 0.263367 0.000000
0.829102 0.263367 0.000000
0.863281 0.263367 0.000000
0.897461 0.263367 0.000000
0.931641 0.263367 0.000000
0.965820 0.263367 0.000000
1.000000 0.263367 0.000000
0.000000 0.218750 0.000000
0.030273 0.230896 0.000000
0.058594 0.243073 0.000000
0.084961 0.255219 0.000000
0.109375 0.267395 0.000000
0.131836 0.279541 0.000000
0.152344 0.291718 0.000000
0.170898 0.303864 0.000000
0.195312 0.303864 0.000000
0.219727 0.303864 0.000000
0.244141 0.303864 0.000000
0.272003 0.303864 0.000000
0.306671 0.303864 0.000000
0.341339 0.303864 0.000000
0.376007 0.303864 0.000000
0.410675 0.303864 0.000000
0.445343 0.303864 0.000000
0.480011 0.303864 0.000000
0.514679 0.303864 0.000000
0.549316 0.303864 0.000000
0.583984 0.303864 0.000000
0.618652 0.303864 0.000000
0.653320 0.303864 0.000000
0.687988 0.303864 0.000000
0.722656 0.303864 0.000000
0.757324 0.303864 0.000000
0.791992 0.303864 0.000000
0.826660 0.303864 0.000000
0.861328 0.303864 0.000000
0.895996 0.303864 0.000000
0.930664 0.303864 0.000000
0.965332 0.303864 0.000000
1.000000 0.303864 0.000000
0.000000 0.250000 0.000000
0.030273 0.261688 0.000000
0.058594 0.273346 0.000000
0.084961 0.285034 0.000000
0.109375 0.296692 0.000000
0.131836 0.308380 0.000000
0.152344 0.320038 0.000000
0.170898 0.331726 0.000000
0.187500 0.343384 0.000000
0.210938 0.343384 0.000000
0.234375 0.343384 0.000000
0.261749 0.343384 0.000000
0.296906 0.343384 0.000000
0.332062 0.343384 0.000000
0.367218 0.343384 0.000000
0.402374 0.343384 0.000000
0.437531 0.343384 0.000000
0.472687 0.343384 0.000000
0.507843 0.343384 0.000000
0.542999 0.343384 0.000000
0.578156 0.343384 0.000000
0.613312 0.343384 0.000000
0.648468 0.343384 0.000000
0.683624 0.343384 0.000000
0.718750 0.343384 0.000000
0.753906 0.343384 0.000000
0.789062 0.343384 0.000000
0.824219 0.343384 0.000000
0.859375 0.343384 0.000000
0.894531 0.343384 0.000000
0.929688 0.343384 0.000000
0.964844 0.343384 0.000000
1.000000 0.343384 0.000000
0.000000 0.281250 0.000000
0.030273 0.292450 0.000000
0.058594 0.303619 0.000000
0.084961 0.314819 0.000000
0.109375 0.325989 0.000000
0.131836 0.337189 0.000000
0.152344 0.348358 0.000000
0.170898 0.359558 0.000000
0.187500 0.370758 0.000000
0.202148 0.381927 0.000000
0.224609 0.381927 0.000000
0.251495 0.381927 0.000000
0.287140 0.381927 0.000000
0.322784 0.381927 0.000000
0.358429 0.381927 0.000000
0.394073 0.381927 0.000000
0.429718 0.381927 0.000000
0.465363 0.381927 0.000000
0.501007 0.381927 0.000000
0.536652 0.381927 0.000000
0.572296 0.381927 0.000000
0.607941 0.381927 0.000000
0.643585 0.381927 0.000000
0.679230 0.381927 0.000000
0.714844 0.381927 0.000000
0.750488 0.381927 0.000000
0.786133 0.381927 0.000000
0.821777 0.381927 0.000000
0.857422 0.381927 0.000000
0.893066 0.381927 0.000000
0.928711 0.381927 0.000000
0.964355 0.381927 0.000000
1.000000 0.381927 0.000000
0.000000 0.312500 0.000000
0.030273 0.323212 0.000000
0.058594 0.333893 0.000000
0.084961 0.344604 0.000000
0.109375 0.355316 0.000000
0.131836 0.365997 0.000000
0.152344 0.376709 0.000000
0.170898 0.387390 0.000000
0.187500 0.398102 0.000000
0.202148 0.408813 0.000000
0.214844 0.419495 0.000000
0.241241 0.419495 0.000000
0.277374 0.419495 0.000000
0.313507 0.419495 0.000000
0.349640 0.419495 0.000000
0.385773 0.419495 0.000000
0.421906 0.419495 0.000000
0.458038 0.419495 0.000000
0.494171 0.419495 0.000000
0.530304 0.419495 0.000000
0.566437 0.419495 0.000000
0.602570 0.419495 0.000000
0.638702 0.419495 0.000000
0.674835 0.419495 0.000000
0.710938 0.419495 0.000000
0.747070 0.419495 0.000000
0.783203 0.419495 0.000000
0.819336 0.419495 0.000000
0.855469 0.419495 0.000000
0.891602 0.419495 0.000000
0.927734 0.419495 0.000000
0.963867 0.419495 0.000000
1.000000 0.419495 0.000000
0.000000 0.343750 0.000000
0.030273 0.353973 0.000000
0.058594 0.364166 0.000000
0.084961 0.374390 0.000000
0.109375 0.384613 0.000000
0.131836 0.394806 0.000000
0.152344 0.405029 0.000000
0.170898 0.415253 0.000000
0.187500 0.425476 0.000000
0.202148 0.435669 0.000000
0.214844 0.445892 0.000000
0.230988 0.456116 0.000000
0.267609 0.456116 0.000000
0.304230 0.456116 0.000000
0.340851 0.456116 0.000000
0.377472 0.456116 0.000000
0.414093 0.456116 0.000000
0.450714 0.456116 0.000000
0.487335 0.456116 0.000000
0.523956 0.456116 0.000000
0.560577 0.456116 0.000000
0.597198 0.456116 0.000000
0.633820 0.456116 0.000000
0.670441 0.456116 0.000000
0.707031 0.456116 0.000000
0.743652 0.456116 0.000000
0.780273 0.456116 0.000000
0.816895 0.456116 0.000000
0.853516 0.456116 0.000000
0.890137 0.456116 0.000000
0.926758 0.456116 0.000000
0.963379 0.456116 0.000000
1.000000 0.456116 0.000000
0.000000 0.375000 0.000000
0.030273 0.384735 0.000000
0.058594 0.394470 0.000000
0.084961 0.404175 0.000000
0.109375 0.413910 0.000000
0.131836 0.423645 0.000000
0.152344 0.433380 0.000000
0.170898 0.443085 0.000000
0.187500 0.452820 0.000000
0.202148 0.462555 0.000000
0.214844 0.472290 0.000000
0.230988 0.481995 0.000000
0.257874 0.491730 0.000000
0.294983 0.491730 0.000000
0.332062 0.491730 0.000000
0.369171 0.491730 0.000000
0.406281 0.491730 0.000000
0.443390 0.491730 0.000000
0.480499 0.491730 0.000000
0.517609 0.491730 0.000000
0.554718 0.491730 0.000000
0.591827 0.491730 0.000000
0.628937 0.491730 0.000000
0.666046 0.491730 0.000000
0.703125 0.491730 0.000000
0.740234 0.491730 0.000000
0.777344 0.491730 0.000000
0.814453 0.491730 0.000000
0.851562 0.491730 0.000000
0.888672 0.491730 0.000000
0.925781 0.491730 0.000000
0.962891 0.491730 0.000000
1.000000 0.491730 0.000000
0.000000 0.406250 0.000000
0.030273 0.415497 0.000000
0.058594 0.424744 0.000000
0.084961 0.433960 0.000000
0.109375 0.443207 0.000000
0.131836 0.452454 0.000000
0.152344 0.461700 0.000000
0.170898 0.470947 0.000000
0.187500 0.480194 0.000000
0.202148 0.489410 0.000000
0.214844 0.498657 0.000000
0.230988 0.507904 0.000000
0.257874 0.517151 0.000000
0.285706 0.526398 0.000000
0.323273 0.526398 0.000000
0.360870 0.526398 0.000000
0.398468 0.526398 0.000000
0.436066 0.526398 0.000000
0.473663 0.526398 0.000000
0.511261 0.526398 0.000000
0.548859 0.526398 0.000000
0.586456 0.526398 0.000000
0.624054 0.526398 0.000000
0.661652 0.526398 0.000000
0.699219 0.526398 0.000000
0.736816 0.526398 0.000000
0.774414 0.526398 0.000000
0.812012 0.526398 0.000000
0.849609 0.526398 0.000000
0.887207 0.526398 0.000000
0.924805 0.526398 0.000000
0.962402 0.526398 0.000000
1.000000 0.526398 0.000000
0.000000 0.437500 0.000000
0.030273 0.446259 0.000000
0.058594 0.455017 0.000000
0.084961 0.463776 0.000000
0.109375 0.472534 0.000000
0.131836 0.481262 0.000000
0.152344 0.490021 0.000000
0.170898 0.498779 0.000000
0.187500 0.507538 0.000000
0.202148 0.516296 0.000000
0.214844 0.525055 0.000000
0.230988 0.533813 0.000000
0.257874 0.542572 0.000000
0.285706 0.551300 0.000000
0.314484 0.560059 0.000000
0.352570 0.560059 0.000000
0.390656 0.560059 0.000000
0.428741 0.560059 0.000000
0.466827 0.560059 0.000000
0.504913 0.560059 0.000000
0.542999 0.560059 0.000000
0.581085 0.560059 0.000000
0.619171 0.560059 0.000000
0.657257 0.560059 0.000000
0.695312 0.560059 0.000000
0.733398 0.560059 0.000000
0.771484 0.560059 0.000000
0.809570 0.560059 0.000000
0.847656 0.560059 0.000000
0.885742 0.560059 0.000000
0.923828 0.560059 0.000000
0.961914 0.560059 0.000000
1.000000 0.560059 0.000000
0.000000 0.468750 0.000000
0.030273 0.477020 0.000000
0.058594 0.485291 0.000000
0.084961 0.493561 0.000000
0.109375 0.501831 0.000000
0.131836 0.510101 0.000000
0.152344 0.518372 0.000000
0.170898 0.526642 0.000000
0.187500 0.534912 0.000000
0.202148 0.543152 0.000000
0.214844 0.551422 0.000000
0.230988 0.559692 0.000000
0.257874 0.567963 0.000000
0.285706 0.576233 0.000000
0.314484 0.584503 0.000000
0.344269 0.592773 0.000000
0.382843 0.592773 0.000000
0.421417 0.592773 0.000000
0.459991 0.592773 0.000000
0.498566 0.592773 0.000000
0.537140 0.592773 0.000000
0.575714 0.592773 0.000000
0.614288 0.592773 0.000000
0.652863 0.592773 0.000000
0.691406 0.592773 0.000000
0.729980 0.592773 0.000000
0.768555 0.592773 0.000000
0.807129 0.592773 0.000000
0.845703 0.592773 0.000000
0.884277 0.592773 0.000000
0.922852 0.592773 0.000000
0.961426 0.592773 0.000000
1.000000 0.592773 0.000000
0.000000 0.500000 0.000000
0.030273 0.507782 0.000000
0.058594 0.515564 0.000000
0.084961 0.523346 0.000000
0.109375 0.531128 0.000000
0.131836 0.538910 0.000000
0.152344 0.546692 0.000000
0.170898 0.554474 0.000000
0.187500 0.562256 0.000000
0.202148 0.570038 0.000000
0.214844 0.577820 0.000000
0.230988 0.585602 0.000000
0.257874 0.593384 0.000000
0.285706 0.601166 0.000000
0.314484 0.608948 0.000000
0.344269 0.616730 0.000000
0.375061 0.624512 0.000000
0.414124 0.624512 0.000000
0.453186 0.624512 0.000000
0.492218 0.624512 0.000000
0.531281 0.624512 0.000000
0.570343 0.624512 0.000000
0.609406 0.624512 0.000000
0.648468 0.624512 0.000000
0.687531 0.624512 0.000000
0.726593 0.624512 0.000000
0.765656 0.624512 0.000000
0.804718 0.624512 0.000000
0.843781 0.624512 0.000000
0.882843 0.624512 0.000000
0.921875 0.624512 0.000000
0.960938 0.624512 0.000000
1.000000 0.624512 0.000000
0.000000 0.531250 0.000000
0.030273 0.538544 0.000000
0.058594 0.545837 0.000000
0.084961 0.553131 0.000000
0.109375 0.560425 0.000000
0.131836 0.567719 0.000000
0.152344 0.575012 0.000000
0.170898 0.582306 0.000000
0.187500 0.589630 0.000000
0.202148 0.596924 0.000000
0.214844 0.604218 0.000000
0.230988 0.611511 0.000000
0.257874 0.618805 0.000000
0.285706 0.626099 0.000000
0.314484 0.633392 0.000000
0.344269 0.640686 0.000000
0.375061 0.647980 0.000000
0.406799 0.655273 0.000000
0.446350 0.655273 0.000000
0.485870 0.655273 0.000000
0.525421 0.655273 0.000000
0.564972 0.655273 0.000000
0.604523 0.655273 0.000000
0.644073 0.655273 0.000000
0.683624 0.655273 0.000000
0.723175 0.655273 0.000000
0.762726 0.655273 0.000000
0.802277 0.655273 0.000000
0.841827 0.655273 0.000000
0.881378 0.655273 0.000000
0.920898 0.655273 0.000000
0.960449 0.655273 0.000000
1.000000 0.655273 0.000000
0.000000 0.562500 0.000000
0.030273 0.569305 0.000000
0.058594 0.576111 0.000000
0.084961 0.582916 0.000000
0.109375 0.589752 0.000000
0.131836 0.596558 0.000000
0.152344 0.603363 0.000000
0.170898 0.610168 0.000000
0.187500 0.616974 0.000000
0.202148 0.623779 0.000000
0.214844 0.630585 0.000000
0.230988 0.637390 0.000000
0.257874 0.644226 0.000000
0.285706 0.651031 0.000000
0.314484 0.657837 0.000000
0.344269 0.664642 0.000000
0.375061 0.671448 0.000000
0.406799 0.678253 0.000000
0.439514 0.685059 0.000000
0.479523 0.685059 0.000000
0.519562 0.685059 0.000000
0.559601 0.685059 0.000000
0.599640 0.685059 0.000000
0.639679 0.685059 0.000000
0.679718 0.685059 0.000000
0.719757 0.685059 0.000000
0.759796 0.685059 0.000000
0.799835 0.685059 0.000000
0.839874 0.685059 0.000000
0.879913 0.685059 0.000000
0.919922 0.685059 0.000000
0.959961 0.685059 0.000000
1.000000 0.685059 0.000000
0.000000 0.593750 0.000000
0.030273 0.600067 0.000000
0.058594 0.606384 0.000000
0.084961 0.612732 0.000000
0.109375 0.619049 0.000000
0.131836 0.625366 0.000000
0.152344 0.631683 0.000000
0.170898 0.638000 0.000000
0.187500 0.644348 0.000000
0.202148 0.650665 0.000000
0.214844 0.656982 0.000000
0.230988 0.663300 0.000000
0.257874 0.669617 0.000000
0.285706 0.675934 0.000000
0.314484 0.682281 0.000000
0.344269 0.688599 0.000000
0.375061 0.694916 0.000000
0.406799 0.701233 0.000000
0.439514 0.707550 0.000000
0.473175 0.713898 0.000000
0.513702 0.713898 0.000000
0.554230 0.713898 0.000000
0.594757 0.713898 0.000000
0.635284 0.713898 0.000000
0.675812 0.713898 0.000000
0.716339 0.713898 0.000000
0.756866 0.713898 0.000000
0.797394 0.713898 0.000000
0.837921 0.713898 0.000000
0.878448 0.713898 0.000000
0.918945 0.713898 0.000000
0.959473 0.713898 0.000000
1.000000 0.713898 0.000000
0.000000 0.625000 0.000000
0.030273 0.630829 0.000000
0.058594 0.636688 0.000000
0.084961 0.642517 0.000000
0.109375 0.648346 0.000000
0.131836 0.654175 0.000000
0.152344 0.660034 0.000000
0.170898 0.665863 0.000000
0.187500 0.671692 0.000000
0.202148 0.677521 0.000000
0.214844 0.683380 0.000000
0.230988 0.689209 0.000000
0.257874 0.695038 0.000000
0.285706 0.700867 0.000000
0.314484 0.706726 0.000000
0.344269 0.712555 0.000000
0.375061 0.718384 0.000000
0.406799 0.724213 0.000000
0.439514 0.730072 0.000000
0.473175 0.735901 0.000000
0.507843 0.741730 0.000000
0.548859 0.741730 0.000000
0.589874 0.741730 0.000000
0.630890 0.741730 0.000000
0.671906 0.741730 0.000000
0.712921 0.741730 0.000000
0.753937 0.741730 0.000000
0.794952 0.741730 0.000000
0.835968 0.741730 0.000000
0.876984 0.741730 0.000000
0.917969 0.741730 0.000000
0.958984 0.741730 0.000000
1.000000 0.741730 0.000000
0.000000 0.656250 0.000000
0.030273 0.661591 0.000000
0.058594 0.666962 0.000000
0.084961 0.672302 0.000000
0.109375 0.677643 0.000000
0.131836 0.683014 0.000000
0.152344 0.688354 0.000000
0.170898 0.693695 0.000000
0.187500 0.699066 0.000000
0.202148 0.704407 0.000000
0.214844 0.709747 0.000000
0.230988 0.715088 0.000000
0.257874 0.720459 0.000000
0.285706 0.725800 0.000000
0.314484 0.731140 0.000000
0.344269 0.736511 0.000000
0.375061 0.741852 0.000000
0.406799 0.747192 0.000000
0.439514 0.752563 0.000000
0.473175 0.757904 0.000000
0.507843 0.763245 0.000000
0.543488 0.768616 0.000000
0.584991 0.768616 0.000000
0.626495 0.768616 0.000000
0.667999 0.768616 0.000000
0.709503 0.768616 0.000000
0.751007 0.768616 0.000000
0.792511 0.768616 0.000000
0.834015 0.768616 0.000000
0.875519 0.768616 0.000000
0.916992 0.768616 0.000000
0.958496 0.768616 0.000000
1.000000 0.768616 0.000000
0.000000 0.687500 0.000000
0.030273 0.692352 0.000000
0.058594 0.697235 0.000000
0.084961 0.702087 0.000000
0.109375 0.706970 0.000000
0.131836 0.711823 0.000000
0.152344 0.716675 0.000000
0.170898 0.721558 0.000000
0.187500 0.726410 0.000000
0.202148 0.731262 0.000000
0.214844 0.736145 0.000000
0.230988 0.740997 0.000000
0.257874 0.745880 0.000000
0.285706 0.750732 0.000000
0.314484 0.755585 0.000000
0.344269 0.760468 0.000000
0.375061 0.765320 0.000000
0.406799 0.770172 0.000000
0.439514 0.775055 0.000000
0.473175 0.779907 0.000000
0.507843 0.784790 0.000000
0.543488 0.789642 0.000000
0.580109 0.794495 0.000000
0.622101 0.794495 0.000000
0.664093 0.794495 0.000000
0.706085 0.794495 0.000000
0.748077 0.794495 0.000000
0.790070 0.794495 0.000000
0.832062 0.794495 0.000000
0.874054 0.794495 0.000000
0.916016 0.794495 0.000000
0.958008 0.794495 0.000000
1.000000 0.794495 0.000000
0.000000 0.718750 0.000000
0.030273 0.723114 0.000000
0.058594 0.727509 0.000000
0.084961 0.731873 0.000000
0.109375 0.736267 0.000000
0.131836 0.740631 0.000000
0.152344 0.745026 0.000000
0.170898 0.749390 0.000000
0.187500 0.753784 0.000000
0.202148 0.758148 0.000000
0.214844 0.762512 0.000000
0.230988 0.766907 0.000000
0.257874 0.771271 0.000000
0.285706 0.775665 0.000000
0.314484 0.780029 0.000000
0.344269 0.784424 0.000000
0.375061 0.788788 0.000000
0.406799 0.793152 0.000000
0.439514 0.797546 0.000000
0.473175 0.801910 0.000000
0.507843 0.806305 0.000000
0.543488 0.810669 0.000000
0.580109 0.815063 0.000000
0.617706 0.819427 0.000000
0.660187 0.819427 0.000000
0.702667 0.819427 0.000000
0.745148 0.819427 0.000000
0.787628 0.819427 0.000000
0.830109 0.819427 0.000000
0.872589 0.819427 0.000000
0.915039 0.819427 0.000000
0.957520 0.819427 0.000000
1.000000 0.819427 0.000000
0.000000 0.750000 0.000000
0.030273 0.753906 0.000000
0.058594 0.757782 0.000000
0.084961 0.761688 0.000000
0.109375 0.765564 0.000000
0.131836 0.769470 0.000000
0.152344 0.773346 0.000000
0.170898 0.777252 0.000000
0.187500 0.781128 0.000000
0.202148 0.785034 0.000000
0.214844 0.788910 0.000000
0.230988 0.792816 0.000000
0.257874 0.796692 0.000000
0.285706 0.800598 0.000000
0.314484 0.804474 0.000000
0.344269 0.808380 0.000000
0.375061 0.812256 0.000000
0.406799 0.816162 0.000000
0.439514 0.820038 0.000000
0.473175 0.823944 0.000000
0.507843 0.827820 0.000000
0.543488 0.831726 0.000000
0.580109 0.835602 0.000000
0.617706 0.839508 0.000000
0.656281 0.843384 0.000000
0.699249 0.843384 0.000000
0.742218 0.843384 0.000000
0.785187 0.843384 0.000000
0.828156 0.843384 0.000000
0.871124 0.843384 0.000000
0.914062 0.843384 0.000000
0.957031 0.843384 0.000000
1.000000 0.843384 0.000000
0.000000 0.781250 0.000000
0.030273 0.784668 0.000000
0.058594 0.788055 0.000000
0.084961 0.791473 0.000000
0.109375 0.794861 0.000000
0.131836 0.798279 0.000000
0.152344 0.801666 0.000000
0.170898 0.805084 0.000000
0.187500 0.808502 0.000000
0.202148 0.811890 0.000000
0.214844 0.815308 0.000000
0.230988 0.818695 0.000000
0.257874 0.822113 0.000000
0.285706 0.825500 0.000000
0.314484 0.828918 0.000000
0.344269 0.832306 0.000000
0.375061 0.835724 0.000000
0.406799 0.839142 0.000000
0.439514 0.842529 0.000000
0.473175 0.845947 0.000000
0.507843 0.849335 0.000000
0.543488 0.852753 0.000000
0.580109 0.856140 0.000000
0.617706 0.859558 0.000000
0.656281 0.862976 0.000000
0.695831 0.866364 0.000000
0.739288 0.866364 0.000000
0.782745 0.866364 0.000000
0.826202 0.866364 0.000000
0.869659 0.866364 0.000000
0.913086 0.866364 0.000000
0.956543 0.866364 0.000000
1.000000 0.866364 0.000000
0.000000 0.812500 0.000000
0.030273 0.815430 0.000000
0.058594 0.818329 0.000000
0.084961 0.821259 0.000000
0.109375 0.824188 0.000000
0.131836 0.827087 0.000000
0.152344 0.830017 0.000000
0.170898 0.832916 0.000000
0.187500 0.835846 0.000000
0.202148 0.838776 0.000000
0.214844 0.841675 0.000000
0.230988 0.844604 0.000000
0.257874 0.847534 0.000000
0.285706 0.850433 0.000000
0.314484 0.853363 0.000000
0.344269 0.856262 0.000000
0.375061 0.859192 0.000000
0.406799 0.862122 0.000000
0.439514 0.865021 0.000000
0.473175 0.867950 0.000000
0.507843 0.870880 0.000000
0.543488 0.873779 0.000000
0.580109 0.876709 0.000000
0.617706 0.879608 0.000000
