luts_externos/iwltbap/free-pack/07 - Utility/Divers/Green turned orange back to green.cube
# Copyright: (C) Copyright 2016 by IWLTBAP
# Cannot be resold, shared or otherwise redistributed
# Website: https://luts.iwltbap.com
TITLE "Green back to green (Rec.709)"
LUT_3D_SIZE 9
0.000000 0.000000 0.000000
0.125000 0.000000 0.000000
0.250000 0.000000 0.000000
0.375000 0.000000 0.000000
0.500000 0.000000 0.000000
0.625000 0.000000 0.000000
0.750000 0.000000 0.000000
0.875000 0.000000 0.000000
1.000000 0.000000 0.000000
0.000000 0.125000 0.000000
0.109375 0.179474 0.000000
0.218750 0.179474 0.000000
0.335968 0.179474 0.000000
0.468750 0.179474 0.000000
0.601562 0.179474 0.000000
0.734375 0.179474 0.000000
0.867188 0.179474 0.000000
1.000000 0.179474 0.000000
0.000000 0.250000 0.000000
0.109375 0.296692 0.000000
0.187500 0.343384 0.000000
0.296906 0.343384 0.000000
0.437531 0.343384 0.000000
0.578156 0.343384 0.000000
0.718750 0.343384 0.000000
0.859375 0.343384 0.000000
1.000000 0.343384 0.000000
0.000000 0.375000 0.000000
0.109375 0.413910 0.000000
0.187500 0.452820 0.000000
0.257874 0.491730 0.000000
0.406281 0.491730 0.000000
0.554718 0.491730 0.000000
0.703125 0.491730 0.000000
0.851562 0.491730 0.000000
1.000000 0.491730 0.000000
0.000000 0.500000 0.000000
0.109375 0.531128 0.000000
0.187500 0.562256 0.000000
0.257874 0.593384 0.000000
0.375061 0.624512 0.000000
0.531281 0.624512 0.000000
0.687531 0.624512 0.000000
0.843781 0.624512 0.000000
1.000000 0.624512 0.000000
0.000000 0.625000 0.000000
0.109375 0.648346 0.000000
0.187500 0.671692 0.000000
0.257874 0.695038 0.000000
0.375061 0.718384 0.000000
0.507843 0.741730 0.000000
0.671906 0.741730 0.000000
0.835968 0.741730 0.000000
1.000000 0.741730 0.000000
0.000000 0.750000 0.000000
0.109375 0.765564 0.000000
0.187500 0.781128 0.000000
0.257874 0.796692 0.000000
0.375061 0.812256 0.000000
0.507843 0.827820 0.000000
0.656281 0.843384 0.000000
0.828156 0.843384 0.000000
1.000000 0.843384 0.000000
0.000000 0.875000 0.000000
0.109375 0.882782 0.000000
0.187500 0.890564 0.000000
0.257874 0.898346 0.000000
0.375061 0.906128 0.000000
0.507843 0.913910 0.000000
0.656281 0.921692 0.000000
0.820343 0.929474 0.000000
1.000000 0.929474 0.000000
0.000000 1.000000 0.000000
0.109375 1.000000 0.000000
0.187500 1.000000 0.000000
0.257874 1.000000 0.000000
0.375061 1.000000 0.000000
0.507843 1.000000 0.000000
0.656281 1.000000 0.000000
0.820343 1.000000 0.000000
1.000000 1.000000 0.000000
0.000000 0.000000 0.125000
0.125000 0.000000 0.125000
0.250000 0.000000 0.125000
0.375000 0.000000 0.125000
0.500000 0.000000 0.125000
0.625000 0.000000 0.125000
0.750000 0.000000 0.125000
0.875000 0.000000 0.125000
1.000000 0.000000 0.125000
0.000000 0.125000 0.125000
0.125000 0.125000 0.125000
0.250000 0.125000 0.125000
0.375000 0.125000 0.125000
0.500000 0.125000 0.125000
0.625000 0.125000 0.125000
0.750000 0.125000 0.125000
0.875000 0.125000 0.125000
1.000000 0.125000 0.125000
0.000000 0.250000 0.125000
0.125000 0.250000 0.125000
0.218750 0.296692 0.125000
0.335968 0.296692 0.125000
0.468750 0.296692 0.125000
0.601562 0.296692 0.125000
0.734375 0.296692 0.125000
0.867188 0.296692 0.125000
1.000000 0.296692 0.125000
0.000000 0.375000 0.125000
0.125000 0.375000 0.125000
0.218750 0.413910 0.125000
0.296906 0.452820 0.125000
0.437531 0.452820 0.125000
0.578156 0.452820 0.125000
0.718750 0.452820 0.125000
0.859375 0.452820 0.125000
1.000000 0.452820 0.125000
0.000000 0.500000 0.125000
0.125000 0.500000 0.125000
0.218750 0.531128 0.125000
0.296906 0.562256 0.125000
0.406281 0.593384 0.125000
0.554718 0.593384 0.125000
0.703125 0.593384 0.125000
0.851562 0.593384 0.125000
1.000000 0.593384 0.125000
0.000000 0.625000 0.125000
0.125000 0.625000 0.125000
0.218750 0.648346 0.125000
0.296906 0.671692 0.125000
0.406281 0.695038 0.125000
0.531281 0.718384 0.125000
0.687531 0.718384 0.125000
0.843781 0.718384 0.125000
1.000000 0.718384 0.125000
0.000000 0.750000 0.125000
0.125000 0.750000 0.125000
0.218750 0.765564 0.125000
0.296906 0.781128 0.125000
0.406281 0.796692 0.125000
0.531281 0.812256 0.125000
0.671906 0.827820 0.125000
0.835968 0.827820 0.125000
1.000000 0.827820 0.125000
0.000000 0.875000 0.125000
0.125000 0.875000 0.125000
0.218750 0.882782 0.125000
0.296906 0.890564 0.125000
0.406281 0.898346 0.125000
0.531281 0.906128 0.125000
0.671906 0.913910 0.125000
0.828156 0.921692 0.125000
1.000000 0.921692 0.125000
0.000000 1.000000 0.125000
0.125000 1.000000 0.125000
0.218750 1.000000 0.125000
0.296906 1.000000 0.125000
0.406281 1.000000 0.125000
0.531281 1.000000 0.125000
0.671906 1.000000 0.125000
0.828156 1.000000 0.125000
1.000000 1.000000 0.125000
0.000000 0.000000 0.250000
0.125000 0.000000 0.250000
0.250000 0.000000 0.250000
0.375000 0.000000 0.250000
0.500000 0.000000 0.250000
0.625000 0.000000 0.250000
0.750000 0.000000 0.250000
0.875000 0.000000 0.250000
1.000000 0.000000 0.250000
0.000000 0.125000 0.250000
0.125000 0.125000 0.250000
0.250000 0.125000 0.250000
0.375000 0.125000 0.250000
0.500000 0.125000 0.250000
0.625000 0.125000 0.250000
0.750000 0.125000 0.250000
0.875000 0.125000 0.250000
1.000000 0.125000 0.250000
0.000000 0.250000 0.250000
0.125000 0.250000 0.250000
0.250000 0.250000 0.250000
0.375000 0.250000 0.250000
0.500000 0.250000 0.250000
0.625000 0.250000 0.250000
0.750000 0.250000 0.250000
0.875000 0.250000 0.250000
1.000000 0.250000 0.250000
0.000000 0.375000 0.250000
0.125000 0.375000 0.250000
0.250000 0.375000 0.250000
0.335968 0.413910 0.250000
0.468750 0.413910 0.250000
0.601562 0.413910 0.250000
0.734375 0.413910 0.250000
0.867188 0.413910 0.250000
1.000000 0.413910 0.250000
0.000000 0.500000 0.250000
0.125000 0.500000 0.250000
0.250000 0.500000 0.250000
0.335968 0.531128 0.250000
0.437531 0.562256 0.250000
0.578156 0.562256 0.250000
0.718750 0.562256 0.250000
0.859375 0.562256 0.250000
1.000000 0.562256 0.250000
0.000000 0.625000 0.250000
0.125000 0.625000 0.250000
0.250000 0.625000 0.250000
0.335968 0.648346 0.250000
0.437531 0.671692 0.250000
0.554718 0.695038 0.250000
0.703125 0.695038 0.250000
0.851562 0.695038 0.250000
1.000000 0.695038 0.250000
0.000000 0.750000 0.250000
0.125000 0.750000 0.250000
0.250000 0.750000 0.250000
0.335968 0.765564 0.250000
0.437531 0.781128 0.250000
0.554718 0.796692 0.250000
0.687531 0.812256 0.250000
0.843781 0.812256 0.250000
1.000000 0.812256 0.250000
0.000000 0.875000 0.250000
0.125000 0.875000 0.250000
0.250000 0.875000 0.250000
0.335968 0.882782 0.250000
0.437531 0.890564 0.250000
0.554718 0.898346 0.250000
0.687531 0.906128 0.250000
0.835968 0.913910 0.250000
1.000000 0.913910 0.250000
0.000000 1.000000 0.250000
0.125000 1.000000 0.250000
0.250000 1.000000 0.250000
0.335968 1.000000 0.250000
0.437531 1.000000 0.250000
0.554718 1.000000 0.250000
0.687531 1.000000 0.250000
0.835968 1.000000 0.250000
1.000000 1.000000 0.250000
0.000000 0.000000 0.375000
0.125000 0.000000 0.375000
0.250000 0.000000 0.375000
0.375000 0.000000 0.375000
0.500000 0.000000 0.375000
0.625000 0.000000 0.375000
0.750000 0.000000 0.375000
0.875000 0.000000 0.375000
1.000000 0.000000 0.375000
0.000000 0.125000 0.375000
0.125000 0.125000 0.375000
0.250000 0.125000 0.375000
0.375000 0.125000 0.375000
0.500000 0.125000 0.375000
0.625000 0.125000 0.375000
0.750000 0.125000 0.375000
0.875000 0.125000 0.375000
1.000000 0.125000 0.375000
0.000000 0.250000 0.375000
0.125000 0.250000 0.375000
0.250000 0.250000 0.375000
0.375000 0.250000 0.375000
0.500000 0.250000 0.375000
0.625000 0.250000 0.375000
0.750000 0.250000 0.375000
0.875000 0.250000 0.375000
1.000000 0.250000 0.375000
0.000000 0.375000 0.375000
0.125000 0.375000 0.375000
0.250000 0.375000 0.375000
0.375000 0.375000 0.375000
0.500000 0.375000 0.375000
0.625000 0.375000 0.375000
0.750000 0.375000 0.375000
0.875000 0.375000 0.375000
1.000000 0.375000 0.375000
0.000000 0.500000 0.375000
0.125000 0.500000 0.375000
0.250000 0.500000 0.375000
0.375000 0.500000 0.375000
0.468750 0.531128 0.375000
0.601562 0.531128 0.375000
0.734375 0.531128 0.375000
0.867188 0.531128 0.375000
1.000000 0.531128 0.375000
0.000000 0.625000 0.375000
0.125000 0.625000 0.375000
0.250000 0.625000 0.375000
0.375000 0.625000 0.375000
0.468750 0.648346 0.375000
0.578156 0.671692 0.375000
0.718750 0.671692 0.375000
0.859375 0.671692 0.375000
1.000000 0.671692 0.375000
0.000000 0.750000 0.375000
0.125000 0.750000 0.375000
0.250000 0.750000 0.375000
0.375000 0.750000 0.375000
0.468750 0.765564 0.375000
0.578156 0.781128 0.375000
0.703125 0.796692 0.375000
0.851562 0.796692 0.375000
1.000000 0.796692 0.375000
0.000000 0.875000 0.375000
0.125000 0.875000 0.375000
0.250000 0.875000 0.375000
0.375000 0.875000 0.375000
0.468750 0.882782 0.375000
0.578156 0.890564 0.375000
0.703125 0.898346 0.375000
0.843781 0.906128 0.375000
1.000000 0.906128 0.375000
0.000000 1.000000 0.375000
0.125000 1.000000 0.375000
0.250000 1.000000 0.375000
0.375000 1.000000 0.375000
0.468750 1.000000 0.375000
0.578156 1.000000 0.375000
0.703125 1.000000 0.375000
0.843781 1.000000 0.375000
1.000000 1.000000 0.375000
0.000000 0.000000 0.500000
0.125000 0.000000 0.500000
0.250000 0.000000 0.500000
0.375000 0.000000 0.500000
0.500000 0.000000 0.500000
0.625000 0.000000 0.500000
0.750000 0.000000 0.500000
0.875000 0.000000 0.500000
1.000000 0.000000 0.500000
0.000000 0.125000 0.500000
0.125000 0.125000 0.500000
0.250000 0.125000 0.500000
0.375000 0.125000 0.500000
0.500000 0.125000 0.500000
0.625000 0.125000 0.500000
0.750000 0.125000 0.500000
0.875000 0.125000 0.500000
1.000000 0.125000 0.500000
0.000000 0.250000 0.500000
0.125000 0.250000 0.500000
0.250000 0.250000 0.500000
0.375000 0.250000 0.500000
0.500000 0.250000 0.500000
0.625000 0.250000 0.500000
0.750000 0.250000 0.500000
0.875000 0.250000 0.500000
1.000000 0.250000 0.500000
0.000000 0.375000 0.500000
0.125000 0.375000 0.500000
0.250000 0.375000 0.500000
0.375000 0.375000 0.500000
0.500000 0.375000 0.500000
0.625000 0.375000 0.500000
0.750000 0.375000 0.500000
0.875000 0.375000 0.500000
1.000000 0.375000 0.500000
0.000000 0.500000 0.500000
0.125000 0.500000 0.500000
0.250000 0.500000 0.500000
0.375000 0.500000 0.500000
0.500000 0.500000 0.500000
0.625000 0.500000 0.500000
0.750000 0.500000 0.500000
0.875000 0.500000 0.500000
1.000000 0.500000 0.500000
0.000000 0.625000 0.500000
0.125000 0.625000 0.500000
0.250000 0.625000 0.500000
0.375000 0.625000 0.500000
0.500000 0.625000 0.500000
0.601562 0.648346 0.500000
0.734375 0.648346 0.500000
0.867188 0.648346 0.500000
1.000000 0.648346 0.500000
0.000000 0.750000 0.500000
0.125000 0.750000 0.500000
0.250000 0.750000 0.500000
0.375000 0.750000 0.500000
0.500000 0.750000 0.500000
0.601562 0.765564 0.500000
0.718750 0.781128 0.500000
0.859375 0.781128 0.500000
1.000000 0.781128 0.500000
0.000000 0.875000 0.500000
0.125000 0.875000 0.500000
0.250000 0.875000 0.500000
0.375000 0.875000 0.500000
0.500000 0.875000 0.500000
0.601562 0.882782 0.500000
0.718750 0.890564 0.500000
0.851562 0.898346 0.500000
1.000000 0.898346 0.500000
0.000000 1.000000 0.500000
0.125000 1.000000 0.500000
0.250000 1.000000 0.500000
0.375000 1.000000 0.500000
0.500000 1.000000 0.500000
0.601562 1.000000 0.500000
0.718750 1.000000 0.500000
0.851562 1.000000 0.500000
1.000000 1.000000 0.500000
0.000000 0.000000 0.625000
0.125000 0.000000 0.625000
0.250000 0.000000 0.625000
0.375000 0.000000 0.625000
0.500000 0.000000 0.625000
0.625000 0.000000 0.625000
0.750000 0.000000 0.625000
0.875000 0.000000 0.625000
1.000000 0.000000 0.625000
0.000000 0.125000 0.625000
0.125000 0.125000 0.625000
0.250000 0.125000 0.625000
0.375000 0.125000 0.625000
0.500000 0.125000 0.625000
0.625000 0.125000 0.625000
0.750000 0.125000 0.625000
0.875000 0.125000 0.625000
1.000000 0.125000 0.625000
0.000000 0.250000 0.625000
0.125000 0.250000 0.625000
0.250000 0.250000 0.625000
0.375000 0.250000 0.625000
0.500000 0.250000 0.625000
0.625000 0.250000 0.625000
0.750000 0.250000 0.625000
0.875000 0.250000 0.625000
1.000000 0.250000 0.625000
0.000000 0.375000 0.625000
0.125000 0.375000 0.625000
0.250000 0.375000 0.625000
0.375000 0.375000 0.625000
0.500000 0.375000 0.625000
0.625000 0.375000 0.625000
0.750000 0.375000 0.625000
0.875000 0.375000 0.625000
1.000000 0.375000 0.625000
0.000000 0.500000 0.625000
0.125000 0.500000 0.625000
0.250000 0.500000 0.625000
0.375000 0.500000 0.625000
0.500000 0.500000 0.625000
0.625000 0.500000 0.625000
0.750000 0.500000 0.625000
0.875000 0.500000 0.625000
1.000000 0.500000 0.625000
0.000000 0.625000 0.625000
0.125000 0.625000 0.625000
0.250000 0.625000 0.625000
0.375000 0.625000 0.625000
0.500000 0.625000 0.625000
0.625000 0.625000 0.625000
0.750000 0.625000 0.625000
0.875000 0.625000 0.625000
1.000000 0.625000 0.625000
0.000000 0.750000 0.625000
0.125000 0.750000 0.625000
0.250000 0.750000 0.625000
0.375000 0.750000 0.625000
0.500000 0.750000 0.625000
0.625000 0.750000 0.625000
0.734375 0.765564 0.625000
0.867188 0.765564 0.625000
1.000000 0.765564 0.625000
0.000000 0.875000 0.625000
0.125000 0.875000 0.625000
0.250000 0.875000 0.625000
0.375000 0.875000 0.625000
0.500000 0.875000 0.625000
0.625000 0.875000 0.625000
0.734375 0.882782 0.625000
0.859375 0.890564 0.625000
1.000000 0.890564 0.625000
0.000000 1.000000 0.625000
0.125000 1.000000 0.625000
0.250000 1.000000 0.625000
0.375000 1.000000 0.625000
0.500000 1.000000 0.625000
0.625000 1.000000 0.625000
0.734375 1.000000 0.625000
0.859375 1.000000 0.625000
1.000000 1.000000 0.625000
0.000000 0.000000 0.750000
0.125000 0.000000 0.750000
0.250000 0.000000 0.750000
0.375000 0.000000 0.750000
0.500000 0.000000 0.750000
0.625000 0.000000 0.750000
0.750000 0.000000 0.750000
0.875000 0.000000 0.750000
1.000000 0.000000 0.750000
0.000000 0.125000 0.750000
0.125000 0.125000 0.750000
0.250000 0.125000 0.750000
0.375000 0.125000 0.750000
0.500000 0.125000 0.750000
0.625000 0.125000 0.750000
0.750000 0.125000 0.750000
0.875000 0.125000 0.750000
1.000000 0.125000 0.750000
0.000000 0.250000 0.750000
0.125000 0.250000 0.750000
0.250000 0.250000 0.750000
0.375000 0.250000 0.750000
0.500000 0.250000 0.750000
0.625000 0.250000 0.750000
0.750000 0.250000 0.750000
0.875000 0.250000 0.750000
1.000000 0.250000 0.750000
0.000000 0.375000 0.750000
0.125000 0.375000 0.750000
0.250000 0.375000 0.750000
0.375000 0.375000 0.750000
0.500000 0.375000 0.750000
0.625000 0.375000 0.750000
0.750000 0.375000 0.750000
0.875000 0.375000 0.750000
1.000000 0.375000 0.750000
0.000000 0.500000 0.750000
0.125000 0.500000 0.750000
0.250000 0.500000 0.750000
0.375000 0.500000 0.750000
0.500000 0.500000 0.750000
0.625000 0.500000 0.750000
0.750000 0.500000 0.750000
0.875000 0.500000 0.750000
1.000000 0.500000 0.750000
0.000000 0.625000 0.750000
0.125000 0.625000 0.750000
0.250000 0.625000 0.750000
0.375000 0.625000 0.750000
0.500000 0.625000 0.750000
0.625000 0.625000 0.750000
0.750000 0.625000 0.750000
0.875000 0.625000 0.750000
1.000000 0.625000 0.750000
0.000000 0.750000 0.750000
0.125000 0.750000 0.750000
0.250000 0.750000 0.750000
0.375000 0.750000 0.750000
0.500000 0.750000 0.750000
0.625000 0.750000 0.750000
0.750000 0.750000 0.750000
0.875000 0.750000 0.750000
1.000000 0.750000 0.750000
0.000000 0.875000 0.750000
0.125000 0.875000 0.750000
0.250000 0.875000 0.750000
0.375000 0.875000 0.750000
0.500000 0.875000 0.750000
0.625000 0.875000 0.750000
0.750000 0.875000 0.750000
0.867188 0.882782 0.750000
1.000000 0.882782 0.750000
0.000000 1.000000 0.750000
0.125000 1.000000 0.750000
0.250000 1.000000 0.750000
0.375000 1.000000 0.750000
0.500000 1.000000 0.750000
0.625000 1.000000 0.750000
0.750000 1.000000 0.750000
0.867188 1.000000 0.750000
1.000000 1.000000 0.750000
0.000000 0.000000 0.875000
0.125000 0.000000 0.875000
0.250000 0.000000 0.875000
0.375000 0.000000 0.875000
0.500000 0.000000 0.875000
0.625000 0.000000 0.875000
0.750000 0.000000 0.875000
0.875000 0.000000 0.875000
1.000000 0.000000 0.875000
0.000000 0.125000 0.875000
0.125000 0.125000 0.875000
0.250000 0.125000 0.875000
0.375000 0.125000 0.875000
0.500000 0.125000 0.875000
0.625000 0.125000 0.875000
0.750000 0.125000 0.875000
0.875000 0.125000 0.875000
1.000000 0.125000 0.875000
0.000000 0.250000 0.875000
0.125000 0.250000 0.875000
0.250000 0.250000 0.875000
0.375000 0.250000 0.875000
0.500000 0.250000 0.875000
0.625000 0.250000 0.875000
0.750000 0.250000 0.875000
0.875000 0.250000 0.875000
1.000000 0.250000 0.875000
0.000000 0.375000 0.875000
0.125000 0.375000 0.875000
0.250000 0.375000 0.875000
0.375000 0.375000 0.875000
0.500000 0.375000 0.875000
0.625000 0.375000 0.875000
0.750000 0.375000 0.875000
0.875000 0.375000 0.875000
1.000000 0.375000 0.875000
0.000000 0.500000 0.875000
0.125000 0.500000 0.875000
0.250000 0.500000 0.875000
0.375000 0.500000 0.875000
0.500000 0.500000 0.875000
0.625000 0.500000 0.875000
0.750000 0.500000 0.875000
0.875000 0.500000 0.875000
1.000000 0.500000 0.875000
0.000000 0.625000 0.875000
0.125000 0.625000 0.875000
0.250000 0.625000 0.875000
0.375000 0.625000 0.875000
0.500000 0.625000 0.875000
0.625000 0.625000 0.875000
0.750000 0.625000 0.875000
0.875000 0.625000 0.875000
1.000000 0.625000 0.875000
0.000000 0.750000 0.875000
0.125000 0.750000 0.875000
0.250000 0.750000 0.875000
0.375000 0.750000 0.875000
0.500000 0.750000 0.875000
0.625000 0.750000 0.875000
0.750000 0.750000 0.875000
0.875000 0.750000 0.875000
1.000000 0.750000 0.875000
0.000000 0.875000 0.875000
0.125000 0.875000 0.875000
0.250000 0.875000 0.875000
0.375000 0.875000 0.875000
0.500000 0.875000 0.875000
0.625000 0.875000 0.875000
0.750000 0.875000 0.875000
0.875000 0.875000 0.875000
1.000000 0.875000 0.875000
0.000000 1.000000 0.875000
0.125000 1.000000 0.875000
0.250000 1.000000 0.875000
0.375000 1.000000 0.875000
0.500000 1.000000 0.875000
0.625000 1.000000 0.875000
0.750000 1.000000 0.875000
0.875000 1.000000 0.875000
1.000000 1.000000 0.875000
0.000000 0.000000 1.000000
0.125000 0.000000 1.000000
0.250000 0.000000 1.000000
0.375000 0.000000 1.000000
0.500000 0.000000 1.000000
0.625000 0.000000 1.000000
0.750000 0.000000 1.000000
0.875000 0.000000 1.000000
1.000000 0.000000 1.000000
0.000000 0.125000 1.000000
0.125000 0.125000 1.000000
0.250000 0.125000 1.000000
0.375000 0.125000 1.000000
0.500000 0.125000 1.000000
0.625000 0.125000 1.000000
0.750000 0.125000 1.000000
0.875000 0.125000 1.000000
1.000000 0.125000 1.000000
0.000000 0.250000 1.000000
0.125000 0.250000 1.000000
0.250000 0.250000 1.000000
0.375000 0.250000 1.000000
0.500000 0.250000 1.000000
0.625000 0.250000 1.000000
0.750000 0.250000 1.000000
0.875000 0.250000 1.000000
1.000000 0.250000 1.000000
0.000000 0.375000 1.000000
0.125000 0.375000 1.000000
0.250000 0.375000 1.000000
0.375000 0.375000 1.000000
0.500000 0.375000 1.000000
0.625000 0.375000 1.000000
0.750000 0.375000 1.000000
0.875000 0.375000 1.000000
1.000000 0.375000 1.000000
0.000000 0.500000 1.000000
0.125000 0.500000 1.000000
0.250000 0.500000 1.000000
0.375000 0.500000 1.000000
0.500000 0.500000 1.000000
0.625000 0.500000 1.000000
0.750000 0.500000 1.000000
0.875000 0.500000 1.000000
1.000000 0.500000 1.000000
0.000000 0.625000 1.000000
0.125000 0.625000 1.000000
0.250000 0.625000 1.000000
0.375000 0.625000 1.000000
0.500000 0.625000 1.000000
0.625000 0.625000 1.000000
0.750000 0.625000 1.000000
0.875000 0.625000 1.000000
1.000000 0.625000 1.000000
0.000000 0.750000 1.000000
0.125000 0.750000 1.000000
0.250000 0.750000 1.000000
0.375000 0.750000 1.000000
0.500000 0.750000 1.000000
0.625000 0.750000 1.000000
0.750000 0.750000 1.000000
0.875000 0.750000 1.000000
1.000000 0.750000 1.000000
0.000000 0.875000 1.000000
0.125000 0.875000 1.000000
0.250000 0.875000 1.000000
0.375000 0.875000 1.000000
0.500000 0.875000 1.000000
0.625000 0.875000 1.000000
0.750000 0.875000 1.000000
0.875000 0.875000 1.000000
1.000000 0.875000 1.000000
0.000000 1.000000 1.000000
0.125000 1.000000 1.000000
0.250000 1.000000 1.000000
0.375000 1.000000 1.000000
0.500000 1.000000 1.000000
0.625000 1.000000 1.000000
0.750000 1.000000 1.000000
0.875000 1.000000 1.000000
1.000000 1.000000 1.000000
